; generated by Slic3r 1.2.9 on 2016-02-13 at 00:11:57

; external perimeters extrusion width = 0.50mm
; perimeters extrusion width = 0.50mm
; infill extrusion width = 0.50mm
; solid infill extrusion width = 0.50mm
; top infill extrusion width = 0.50mm

M107
M190 S57 ; set bed temperature
M104 S200 ; set temperature
G28 ; home all axes
M83;
G10 P0 S195 R160
T0

M109 S200 ; wait for temperature to be reached
G21 ; set units to millimeters
G90 ; use absolute coordinates
M83 ; use relative distances for extrusion
G1 E-3.50000 F2400.00000
G1 Z0.300 F9000.000
G1 X36.367 Y36.369 F9000.000
G1 E3.50000 F2400.00000
G1 X38.056 Y35.240 E0.18636 F1800.000
G1 X40.050 Y34.843 E0.18654
G1 X159.950 Y34.843 E11.00089
G1 X161.942 Y35.239 E0.18636
G1 X163.631 Y36.367 E0.18636 F1800.000
G1 X164.760 Y38.056 E0.18636
G1 X165.157 Y40.050 E0.18654
G1 X165.157 Y159.950 E11.00089
G1 X164.761 Y161.942 E0.18636
G1 X163.633 Y163.631 E0.18636
G1 X161.944 Y164.760 E0.18636
G1 X159.950 Y165.157 E0.18654
G1 X40.050 Y165.157 E11.00089
G1 X38.058 Y164.761 E0.18636
G1 X36.369 Y163.633 E0.18636
G1 X35.240 Y161.944 E0.18636
G1 X34.843 Y159.950 E0.18654
G1 X34.843 Y40.050 E11.00089
G1 X35.239 Y38.058 E0.18636
G1 X36.326 Y36.431 E0.17948
G1 X36.993 Y36.831 F9000.000
G1 X37.091 Y36.698 E0.01511 F1800.000
G1 X38.731 Y35.778 E0.17255
G1 X40.050 Y35.579 E0.12239
G1 X159.950 Y35.579 E11.00089
G1 X161.789 Y35.974 E0.17255
G1 X163.302 Y37.091 E0.17255 F1800.000
G1 X164.222 Y38.731 E0.17255
G1 X164.421 Y40.050 E0.12239
G1 X164.421 Y159.950 E11.00089
G1 X164.026 Y161.789 E0.17255
G1 X162.909 Y163.302 E0.17255
G1 X161.269 Y164.222 E0.17255
G1 X159.950 Y164.421 E0.12239
G1 X40.050 Y164.421 E11.00089
G1 X38.211 Y164.026 E0.17255
G1 X36.698 Y162.909 E0.17255
G1 X35.778 Y161.269 E0.17255
G1 X35.579 Y159.950 E0.12239
G1 X35.579 Y40.050 E11.00089
G1 X35.974 Y38.211 E0.17255
G1 X36.949 Y36.891 E0.15057
G1 X37.587 Y37.327 F9000.000
G1 X37.810 Y37.061 E0.03179 F1800.000
G1 X40.050 Y36.314 E0.21667
G1 X159.950 Y36.314 E11.00089
G1 X161.621 Y36.709 E0.15755
G1 X162.939 Y37.810 E0.15755 F1800.000
G1 X163.686 Y40.050 E0.21667
G1 X163.686 Y159.950 E11.00089
G1 X163.291 Y161.621 E0.15755
G1 X162.190 Y162.939 E0.15755
G1 X159.950 Y163.686 E0.21667
G1 X40.050 Y163.686 E11.00089
G1 X38.379 Y163.291 E0.15755
G1 X37.061 Y162.190 E0.15755
G1 X36.314 Y159.950 E0.21667
G1 X36.314 Y40.050 E11.00089
G1 X36.709 Y38.379 E0.15755
G1 X37.539 Y37.384 E0.11887
G1 E-3.50000 F2400.00000
G1 X51.496 Y146.101 F9000.000
G1 E3.50000 F2400.00000
G1 X51.908 Y146.287 E0.04148 F1350.000
G1 X52.370 Y146.561 E0.04927
G1 X52.955 Y147.044 E0.06963
G1 X53.438 Y147.628 E0.06949
G1 X53.712 Y148.092 E0.04946
G1 X53.899 Y148.504 E0.04151
G1 X54.105 Y149.217 E0.06808
G1 X54.180 Y150.000 E0.07218
G1 X54.105 Y150.783 E0.07218
G1 X53.898 Y151.496 E0.06809
G1 X53.712 Y151.908 E0.04151
G1 X53.438 Y152.372 E0.04947
G1 X52.955 Y152.955 E0.06944
G1 X52.372 Y153.438 E0.06945
G1 X51.908 Y153.712 E0.04947
G1 X51.496 Y153.898 E0.04150
G1 X50.783 Y154.105 E0.06808
G1 X50.000 Y154.180 E0.07218
G1 X49.217 Y154.105 E0.07218
G1 X48.504 Y153.899 E0.06808
G1 X48.092 Y153.713 E0.04148
G1 X47.630 Y153.439 E0.04927
G1 X47.045 Y152.956 E0.06963
G1 X46.562 Y152.372 E0.06949
G1 X46.288 Y151.908 E0.04946
G1 X46.101 Y151.496 E0.04151
G1 X45.895 Y150.783 E0.06809
G1 X45.820 Y150.000 E0.07218
G1 X45.895 Y149.217 E0.07218
G1 X46.102 Y148.504 E0.06814
G1 X46.289 Y148.089 E0.04171
G1 X46.562 Y147.628 E0.04926
G1 X47.045 Y147.045 E0.06942
G1 X47.628 Y146.562 E0.06945
G1 X48.092 Y146.288 E0.04947
G1 X48.504 Y146.101 E0.04150
G1 X49.216 Y145.895 E0.06805
G1 X49.997 Y145.820 E0.07198 F1350.000
G1 X50.783 Y145.894 E0.07238
G1 X51.424 Y146.081 E0.06124
G1 X51.241 Y146.793 F9000.000
G1 X51.568 Y146.941 E0.03298 F1350.000
G1 X51.946 Y147.165 E0.04025
G1 X52.433 Y147.567 E0.05793
G1 X52.834 Y148.052 E0.05779
G1 X53.059 Y148.431 E0.04044
G1 X53.207 Y148.759 E0.03301
G1 X53.380 Y149.355 E0.05693
G1 X53.441 Y150.000 E0.05942
G1 X53.380 Y150.645 E0.05942
G1 X53.207 Y151.241 E0.05694
G1 X53.059 Y151.569 E0.03301
G1 X52.834 Y151.948 E0.04044
G1 X52.433 Y152.433 E0.05776
G1 X51.948 Y152.834 E0.05776
G1 X51.568 Y153.059 E0.04044
G1 X51.241 Y153.207 E0.03300
G1 X50.645 Y153.380 E0.05693
G1 X50.000 Y153.441 E0.05942
G1 X49.355 Y153.380 E0.05942
G1 X48.759 Y153.207 E0.05693
G1 X48.432 Y153.059 E0.03298
G1 X48.054 Y152.835 E0.04025
G1 X47.567 Y152.433 E0.05793
G1 X47.166 Y151.948 E0.05779
G1 X46.941 Y151.569 E0.04043
G1 X46.793 Y151.241 E0.03301
G1 X46.620 Y150.645 E0.05694
G1 X46.559 Y150.000 E0.05942
G1 X46.620 Y149.355 E0.05942
G1 X46.793 Y148.759 E0.05697
G1 X46.942 Y148.429 E0.03319
G1 X47.166 Y148.052 E0.04024
G1 X47.567 Y147.567 E0.05774
G1 X48.052 Y147.166 E0.05776
G1 X48.431 Y146.941 E0.04044
G1 X48.759 Y146.793 E0.03300
G1 X49.355 Y146.620 E0.05691
G1 X49.998 Y146.559 E0.05923 F1350.000
G1 X50.645 Y146.620 E0.05961
G1 X51.169 Y146.772 E0.05007
G1 X50.985 Y147.485 F9000.000
G1 X51.229 Y147.595 E0.02449 F1350.000
G1 X51.522 Y147.768 E0.03124
G1 X51.910 Y148.089 E0.04624
G1 X52.231 Y148.476 E0.04609
G1 X52.405 Y148.771 E0.03141
G1 X52.515 Y149.015 E0.02450
G1 X52.654 Y149.494 E0.04578
G1 X52.702 Y150.000 E0.04666
G1 X52.654 Y150.506 E0.04666
G1 X52.515 Y150.986 E0.04579
G1 X52.405 Y151.229 E0.02450
G1 X52.230 Y151.524 E0.03141
G1 X51.910 Y151.910 E0.04607
G1 X51.524 Y152.231 E0.04607
G1 X51.229 Y152.405 E0.03141
G1 X50.985 Y152.515 E0.02450
G1 X50.506 Y152.654 E0.04578
G1 X50.000 Y152.702 E0.04666
G1 X49.494 Y152.654 E0.04666
G1 X49.015 Y152.515 E0.04578
G1 X48.771 Y152.405 E0.02449
G1 X48.478 Y152.232 E0.03124
G1 X48.090 Y151.911 E0.04624
G1 X47.769 Y151.524 E0.04609
G1 X47.595 Y151.229 E0.03141
G1 X47.485 Y150.985 E0.02450
G1 X47.346 Y150.506 E0.04578
G1 X47.298 Y150.000 E0.04666
G1 X47.346 Y149.494 E0.04666
G1 X47.485 Y149.014 E0.04580
G1 X47.596 Y148.769 E0.02468
G1 X47.770 Y148.476 E0.03123
G1 X48.090 Y148.090 E0.04606
G1 X48.476 Y147.769 E0.04607
G1 X48.771 Y147.595 E0.03141
G1 X49.014 Y147.485 E0.02450
G1 X49.494 Y147.346 E0.04577
G1 X49.998 Y147.298 E0.04649 F1350.000
G1 X50.506 Y147.346 E0.04683
G1 X50.913 Y147.464 E0.03891
G1 X51.195 Y147.319 F9000.000
G1 X59.520 Y140.426 F9000.000
G1 X59.062 Y139.872 E0.06591 F1350.000
G1 X58.788 Y139.408 E0.04947
G1 X58.601 Y138.996 E0.04151
G1 X58.395 Y138.283 E0.06808
G1 X58.320 Y137.500 E0.07218
G1 X58.395 Y136.717 E0.07218
G1 X58.602 Y136.004 E0.06814
G1 X58.789 Y135.589 E0.04171
G1 X59.062 Y135.128 E0.04925
G1 X59.545 Y134.545 E0.06942
G1 X60.128 Y134.062 E0.06945
G1 X60.592 Y133.788 E0.04947
G1 X61.004 Y133.601 E0.04151
G1 X61.716 Y133.395 E0.06805
G1 X62.497 Y133.320 E0.07198 F1350.000
G1 X63.283 Y133.394 E0.07238
G1 X63.996 Y133.601 E0.06812
G1 X64.408 Y133.787 E0.04148
G1 X64.870 Y134.061 E0.04927
G1 X65.455 Y134.544 E0.06963
G1 X65.938 Y135.128 E0.06950
G1 X66.212 Y135.592 E0.04946
G1 X66.399 Y136.004 E0.04151
G1 X66.605 Y136.717 E0.06808
G1 X66.680 Y137.500 E0.07218
G1 X66.605 Y138.283 E0.07218
G1 X66.398 Y138.996 E0.06813
G1 X66.211 Y139.411 E0.04171
G1 X65.938 Y139.872 E0.04925
G1 X65.455 Y140.455 E0.06942
G1 X64.872 Y140.938 E0.06945
G1 X64.408 Y141.212 E0.04947
G1 X63.996 Y141.398 E0.04150
G1 X63.283 Y141.605 E0.06808
G1 X62.500 Y141.680 E0.07218
G1 X61.717 Y141.605 E0.07218
G1 X61.004 Y141.399 E0.06808
G1 X60.592 Y141.213 E0.04148
G1 X60.130 Y140.939 E0.04927
G1 X59.573 Y140.479 E0.06633
G1 X60.067 Y139.933 F9000.000
G1 X59.666 Y139.448 E0.05779 F1350.000
G1 X59.441 Y139.069 E0.04044
G1 X59.293 Y138.741 E0.03300
G1 X59.120 Y138.145 E0.05693
G1 X59.059 Y137.500 E0.05942
G1 X59.120 Y136.855 E0.05942
G1 X59.293 Y136.259 E0.05697
G1 X59.442 Y135.929 E0.03319
G1 X59.666 Y135.552 E0.04024
G1 X60.067 Y135.067 E0.05774
G1 X60.552 Y134.666 E0.05776
G1 X60.931 Y134.441 E0.04044
G1 X61.259 Y134.293 E0.03300
G1 X61.855 Y134.120 E0.05692
G1 X62.498 Y134.059 E0.05923 F1350.000
G1 X63.145 Y134.120 E0.05961
G1 X63.741 Y134.293 E0.05695
G1 X64.068 Y134.441 E0.03298
G1 X64.446 Y134.665 E0.04026
G1 X64.933 Y135.067 E0.05793
G1 X65.334 Y135.552 E0.05779
G1 X65.559 Y135.931 E0.04044
G1 X65.707 Y136.259 E0.03300
G1 X65.880 Y136.855 E0.05693
G1 X65.941 Y137.500 E0.05942
G1 X65.880 Y138.145 E0.05942
G1 X65.707 Y138.741 E0.05697
G1 X65.558 Y139.071 E0.03319
G1 X65.334 Y139.448 E0.04024
G1 X64.933 Y139.933 E0.05774
G1 X64.448 Y140.334 E0.05776
G1 X64.068 Y140.559 E0.04044
G1 X63.741 Y140.707 E0.03300
G1 X63.145 Y140.880 E0.05693
G1 X62.500 Y140.941 E0.05942
G1 X61.855 Y140.880 E0.05942
G1 X61.259 Y140.707 E0.05693
G1 X60.932 Y140.559 E0.03298
G1 X60.554 Y140.335 E0.04026
G1 X60.125 Y139.981 E0.05105
G1 X60.590 Y139.411 F9000.000
G1 X60.269 Y139.024 E0.04609 F1350.000
G1 X60.095 Y138.729 E0.03141
G1 X59.985 Y138.485 E0.02450
G1 X59.846 Y138.006 E0.04578
G1 X59.798 Y137.500 E0.04666
G1 X59.846 Y136.994 E0.04666
G1 X59.985 Y136.514 E0.04580
G1 X60.096 Y136.269 E0.02468
G1 X60.270 Y135.976 E0.03123
G1 X60.590 Y135.590 E0.04606
G1 X60.976 Y135.269 E0.04607
G1 X61.271 Y135.095 E0.03141
G1 X61.514 Y134.985 E0.02450
G1 X61.994 Y134.846 E0.04578
G1 X62.498 Y134.798 E0.04648 F1350.000
G1 X63.006 Y134.846 E0.04683
G1 X63.485 Y134.985 E0.04579
G1 X63.729 Y135.095 E0.02449
G1 X64.022 Y135.268 E0.03124
G1 X64.410 Y135.589 E0.04624
G1 X64.731 Y135.976 E0.04609
G1 X64.905 Y136.271 E0.03141
G1 X65.015 Y136.515 E0.02450
G1 X65.154 Y136.994 E0.04578
G1 X65.202 Y137.500 E0.04666
G1 X65.154 Y138.006 E0.04666
G1 X65.015 Y138.486 E0.04580
G1 X64.904 Y138.731 E0.02468
G1 X64.730 Y139.024 E0.03123
G1 X64.410 Y139.410 E0.04606
G1 X64.024 Y139.731 E0.04607
G1 X63.729 Y139.905 E0.03141
G1 X63.485 Y140.015 E0.02450
G1 X63.006 Y140.154 E0.04579
G1 X62.500 Y140.202 E0.04666
G1 X61.994 Y140.154 E0.04666
G1 X61.515 Y140.015 E0.04578
G1 X61.271 Y139.905 E0.02449
G1 X60.978 Y139.732 E0.03124
G1 X60.647 Y139.458 E0.03935
G1 X60.103 Y139.525 F9000.000
G1 E-3.50000 F2400.00000
G1 X62.500 Y66.680 F9000.000
G1 E3.50000 F2400.00000
G1 X61.717 Y66.605 E0.07218 F1350.000
G1 X61.004 Y66.399 E0.06808
G1 X60.592 Y66.212 E0.04151
G1 X60.128 Y65.938 E0.04947
G1 X59.545 Y65.455 E0.06944
G1 X59.062 Y64.872 E0.06944
G1 X58.788 Y64.408 E0.04947
G1 X58.601 Y63.996 E0.04151
G1 X58.395 Y63.283 E0.06808
G1 X58.320 Y62.500 E0.07218
G1 X58.395 Y61.716 E0.07222
G1 X58.603 Y61.001 E0.06832
G1 X58.789 Y60.589 E0.04150
G1 X59.062 Y60.128 E0.04923
G1 X59.545 Y59.545 E0.06942
G1 X60.128 Y59.062 E0.06945
G1 X60.592 Y58.788 E0.04944
G1 X61.002 Y58.602 E0.04131
G1 X61.716 Y58.395 E0.06825
G1 X62.497 Y58.320 E0.07201 F1350.000
G1 X63.283 Y58.394 E0.07237
G1 X63.996 Y58.601 E0.06812
G1 X64.408 Y58.788 E0.04151
G1 X64.872 Y59.062 E0.04947
G1 X65.455 Y59.545 E0.06945
G1 X65.938 Y60.128 E0.06944
G1 X66.212 Y60.592 E0.04947
G1 X66.399 Y61.004 E0.04151
G1 X66.605 Y61.717 E0.06808
G1 X66.680 Y62.500 E0.07218
G1 X66.605 Y63.284 E0.07222
G1 X66.397 Y63.999 E0.06832
G1 X66.211 Y64.411 E0.04150
G1 X65.938 Y64.872 E0.04923
G1 X65.455 Y65.455 E0.06942
G1 X64.872 Y65.938 E0.06942
G1 X64.411 Y66.211 E0.04923
G1 X63.999 Y66.397 E0.04150
G1 X63.284 Y66.605 E0.06832
G1 X62.575 Y66.673 E0.06534
G1 X62.500 Y65.941 F9000.000
G1 X61.855 Y65.880 E0.05942 F1350.000
G1 X61.259 Y65.707 E0.05693
G1 X60.931 Y65.559 E0.03301
G1 X60.552 Y65.334 E0.04044
G1 X60.067 Y64.933 E0.05776
G1 X59.666 Y64.448 E0.05776
G1 X59.441 Y64.069 E0.04044
G1 X59.293 Y63.741 E0.03301
G1 X59.120 Y63.145 E0.05693
G1 X59.059 Y62.500 E0.05942
G1 X59.120 Y61.855 E0.05944
G1 X59.294 Y61.257 E0.05714
G1 X59.443 Y60.929 E0.03300
G1 X59.666 Y60.552 E0.04023
G1 X60.067 Y60.067 E0.05774
G1 X60.552 Y59.666 E0.05776
G1 X60.931 Y59.441 E0.04042
G1 X61.257 Y59.294 E0.03282
G1 X61.855 Y59.120 E0.05710
G1 X62.498 Y59.059 E0.05925 F1350.000
G1 X63.144 Y59.120 E0.05960
G1 X63.741 Y59.293 E0.05696
G1 X64.069 Y59.441 E0.03301
G1 X64.448 Y59.666 E0.04044
G1 X64.933 Y60.067 E0.05776
G1 X65.334 Y60.552 E0.05776
G1 X65.559 Y60.931 E0.04044
G1 X65.707 Y61.259 E0.03301
G1 X65.880 Y61.855 E0.05693
G1 X65.941 Y62.500 E0.05942
G1 X65.880 Y63.145 E0.05944
G1 X65.706 Y63.743 E0.05714
G1 X65.557 Y64.071 E0.03300
G1 X65.334 Y64.448 E0.04023
G1 X64.933 Y64.933 E0.05774
G1 X64.448 Y65.334 E0.05774
G1 X64.071 Y65.557 E0.04023
G1 X63.743 Y65.706 E0.03300
G1 X63.145 Y65.880 E0.05714
G1 X62.575 Y65.934 E0.05256
G1 X62.500 Y65.202 F9000.000
G1 X61.994 Y65.154 E0.04666 F1350.000
G1 X61.515 Y65.015 E0.04578
G1 X61.271 Y64.905 E0.02450
G1 X60.976 Y64.730 E0.03141
G1 X60.590 Y64.410 E0.04607
G1 X60.270 Y64.024 E0.04607
G1 X60.095 Y63.729 E0.03141
G1 X59.985 Y63.485 E0.02450
G1 X59.846 Y63.006 E0.04578
G1 X59.798 Y62.500 E0.04666
G1 X59.846 Y61.994 E0.04667
G1 X59.986 Y61.513 E0.04597
G1 X60.096 Y61.269 E0.02450
G1 X60.270 Y60.976 E0.03122
G1 X60.590 Y60.590 E0.04607
G1 X60.976 Y60.269 E0.04607
G1 X61.271 Y60.095 E0.03140
G1 X61.513 Y59.986 E0.02433
G1 X61.994 Y59.846 E0.04595
G1 X62.498 Y59.798 E0.04649 F1350.000
G1 X63.006 Y59.846 E0.04683
G1 X63.485 Y59.985 E0.04579
G1 X63.729 Y60.095 E0.02450
G1 X64.024 Y60.269 E0.03141
G1 X64.410 Y60.590 E0.04607
G1 X64.730 Y60.976 E0.04607
G1 X64.905 Y61.271 E0.03141
G1 X65.015 Y61.515 E0.02450
G1 X65.154 Y61.994 E0.04578
G1 X65.202 Y62.500 E0.04666
G1 X65.154 Y63.006 E0.04667
G1 X65.014 Y63.487 E0.04597
G1 X64.904 Y63.731 E0.02450
G1 X64.730 Y64.024 E0.03123
G1 X64.410 Y64.410 E0.04607
G1 X64.024 Y64.730 E0.04607
G1 X63.731 Y64.904 E0.03123
G1 X63.487 Y65.014 E0.02450
G1 X63.006 Y65.154 E0.04597
G1 X62.575 Y65.195 E0.03978
G1 X62.237 Y65.627 F9000.000
G1 E-3.50000 F2400.00000
G1 X52.608 Y53.243 F9000.000
G1 E3.50000 F2400.00000
G1 X52.372 Y53.438 E0.02808 F1350.000
G1 X51.908 Y53.712 E0.04946
G1 X51.496 Y53.899 E0.04151
G1 X50.783 Y54.105 E0.06809
G1 X50.000 Y54.180 E0.07217
G1 X49.217 Y54.105 E0.07218
G1 X48.504 Y53.899 E0.06809
G1 X48.092 Y53.712 E0.04151
G1 X47.628 Y53.438 E0.04946
G1 X47.045 Y52.955 E0.06945
G1 X46.562 Y52.372 E0.06945
G1 X46.288 Y51.908 E0.04946
G1 X46.101 Y51.496 E0.04151
G1 X45.895 Y50.783 E0.06809
G1 X45.820 Y50.000 E0.07217
G1 X45.895 Y49.216 E0.07222
G1 X46.103 Y48.501 E0.06832
G1 X46.289 Y48.089 E0.04150
G1 X46.562 Y47.628 E0.04923
G1 X47.045 Y47.045 E0.06942
G1 X47.628 Y46.562 E0.06945
G1 X48.092 Y46.288 E0.04944
G1 X48.502 Y46.102 E0.04130
G1 X49.216 Y45.895 E0.06825
G1 X49.997 Y45.820 E0.07201 F1350.000
G1 X50.783 Y45.894 E0.07237
G1 X51.496 Y46.101 E0.06813
G1 X51.908 Y46.288 E0.04151
G1 X52.372 Y46.562 E0.04946
G1 X52.956 Y47.045 E0.06949
G1 X53.439 Y47.630 E0.06964
G1 X53.712 Y48.092 E0.04925
G1 X53.899 Y48.504 E0.04149
G1 X54.105 Y49.217 E0.06809
G1 X54.180 Y50.000 E0.07218
G1 X54.105 Y50.783 E0.07217
G1 X53.899 Y51.496 E0.06809
G1 X53.712 Y51.908 E0.04151
G1 X53.438 Y52.372 E0.04946
G1 X52.955 Y52.955 E0.06945
G1 X52.666 Y53.195 E0.03448
G1 X52.139 Y52.676 F9000.000
G1 X51.948 Y52.834 E0.02278 F1350.000
G1 X51.569 Y53.059 E0.04044
G1 X51.241 Y53.207 E0.03301
G1 X50.645 Y53.380 E0.05694
G1 X50.000 Y53.441 E0.05941
G1 X49.355 Y53.380 E0.05942
G1 X48.759 Y53.207 E0.05694
G1 X48.431 Y53.059 E0.03301
G1 X48.052 Y52.834 E0.04043
G1 X47.567 Y52.433 E0.05776
G1 X47.166 Y51.948 E0.05776
G1 X46.941 Y51.569 E0.04043
G1 X46.793 Y51.241 E0.03301
G1 X46.620 Y50.645 E0.05694
G1 X46.559 Y50.000 E0.05941
G1 X46.620 Y49.355 E0.05945
G1 X46.794 Y48.757 E0.05714
G1 X46.943 Y48.429 E0.03300
G1 X47.166 Y48.052 E0.04023
G1 X47.567 Y47.567 E0.05774
G1 X48.052 Y47.166 E0.05776
G1 X48.431 Y46.941 E0.04042
G1 X48.757 Y46.794 E0.03281
G1 X49.355 Y46.620 E0.05710
G1 X49.998 Y46.559 E0.05925 F1350.000
G1 X50.644 Y46.620 E0.05960
G1 X51.241 Y46.793 E0.05696
G1 X51.569 Y46.941 E0.03301
G1 X51.948 Y47.166 E0.04043
G1 X52.433 Y47.567 E0.05778
G1 X52.835 Y48.054 E0.05794
G1 X53.059 Y48.432 E0.04024
G1 X53.207 Y48.759 E0.03299
G1 X53.380 Y49.355 E0.05694
G1 X53.441 Y50.000 E0.05942
G1 X53.380 Y50.645 E0.05941
G1 X53.207 Y51.241 E0.05694
G1 X53.059 Y51.569 E0.03301
G1 X52.834 Y51.948 E0.04044
G1 X52.433 Y52.433 E0.05776
G1 X52.197 Y52.628 E0.02810
G1 X51.670 Y52.109 F9000.000
G1 X51.524 Y52.230 E0.01748 F1350.000
G1 X51.229 Y52.405 E0.03141
G1 X50.985 Y52.515 E0.02451
G1 X50.506 Y52.654 E0.04579
G1 X50.000 Y52.702 E0.04666
