; generated by Slic3r 1.2.9 on 2016-02-13 at 12:03:30

; external perimeters extrusion width = 0.50mm
; perimeters extrusion width = 0.72mm
; infill extrusion width = 0.72mm
; solid infill extrusion width = 0.72mm
; top infill extrusion width = 0.72mm

M107
M190 S60 ; set bed temperature
M104 S200 ; set temperature
G28 X0 Y0
G28 Z0
G1 Z0.3 F200
G1 X15 Y20 F12000
M109 S200 ; wait for temperature to be reached
G21 ; set units to millimeters
G90 ; use absolute coordinates
M82 ; use absolute distances for extrusion
G92 E0
G1 E-3.20000 F2760.00000
G92 E0
G1 Z0.350 F7800.000
G1 X43.011 Y44.080 F7800.000
G1 E3.20000 F2760.00000
G1 X44.516 Y42.612 E3.37210 F1800.000
G1 X46.764 Y41.514 E3.57685
G1 X49.050 Y41.175 E3.76596
G1 X168.950 Y41.175 E13.57817
G1 X171.420 Y41.573 E13.78292
G1 X173.641 Y42.725 E13.98767 F1800.000
G1 X175.388 Y44.516 E14.19242
G1 X176.486 Y46.764 E14.39717
G1 X176.825 Y49.050 E14.58628
G1 X176.825 Y168.950 E24.39849
G1 X176.427 Y171.420 E24.60324
G1 X175.275 Y173.641 E24.80799
G1 X173.484 Y175.388 E25.01274
G1 X171.236 Y176.486 E25.21749
G1 X168.950 Y176.825 E25.40660
G1 X49.050 Y176.825 E35.21881
G1 X46.580 Y176.427 E35.42356
G1 X44.359 Y175.275 E35.62831
G1 X42.612 Y173.484 E35.83306
G1 X41.514 Y171.236 E36.03781
G1 X41.175 Y168.950 E36.22692
G1 X41.175 Y49.050 E46.03913
G1 X41.573 Y46.580 E46.24388
G1 X42.725 Y44.359 E46.44863
G1 X42.957 Y44.133 E46.47514
G1 X43.409 Y44.518 F7800.000
G1 X45.119 Y42.959 E46.66450 F1800.000
G1 X47.323 Y42.009 E46.86090
G1 X49.050 Y41.800 E47.00325
G1 X168.950 Y41.800 E56.81546
G1 X171.317 Y42.197 E57.01187
G1 X173.424 Y43.346 E57.20827 F1800.000
G1 X175.041 Y45.119 E57.40468
G1 X175.991 Y47.323 E57.60108
G1 X176.200 Y49.050 E57.74344
G1 X176.200 Y168.950 E67.55565
G1 X175.803 Y171.317 E67.75205
G1 X174.654 Y173.424 E67.94846
G1 X172.881 Y175.041 E68.14486
G1 X170.677 Y175.991 E68.34127
G1 X168.950 Y176.200 E68.48362
G1 X49.050 Y176.200 E78.29583
G1 X46.683 Y175.803 E78.49224
G1 X44.576 Y174.654 E78.68864
G1 X42.959 Y172.881 E78.88505
G1 X42.009 Y170.677 E79.08145
G1 X41.800 Y168.950 E79.22381
G1 X41.800 Y49.050 E89.03602
G1 X42.197 Y46.683 E89.23242
G1 X43.354 Y44.568 E89.42969
G1 X43.951 Y44.829 F7800.000
G1 X45.718 Y43.324 E89.61967 F1800.000
G1 X47.870 Y42.531 E89.80736
G1 X49.050 Y42.425 E89.90430
G1 X168.950 Y42.425 E99.71651
G1 X171.209 Y42.822 E99.90420
G1 X173.197 Y43.965 E100.09189 F1800.000
G1 X174.676 Y45.718 E100.27958
G1 X175.469 Y47.870 E100.46726
G1 X175.575 Y49.050 E100.56420
G1 X175.575 Y168.950 E110.37641
G1 X175.178 Y171.209 E110.56410
G1 X174.035 Y173.197 E110.75179
G1 X172.282 Y174.676 E110.93948
G1 X170.130 Y175.469 E111.12717
G1 X168.950 Y175.575 E111.22410
G1 X49.050 Y175.575 E121.03631
G1 X46.791 Y175.178 E121.22400
G1 X44.803 Y174.035 E121.41169
G1 X43.324 Y172.282 E121.59938
G1 X42.531 Y170.130 E121.78707
G1 X42.425 Y168.950 E121.88400
G1 X42.425 Y49.050 E131.69622
G1 X42.822 Y46.791 E131.88390
G1 X43.913 Y44.894 E132.06301
G1 E128.86301 F2760.00000
G92 E0
G1 X49.400 Y49.400 F7800.000
G1 E3.20000 F2760.00000
G1 X168.600 Y49.400 E12.95493 F1800.000
G1 X168.600 Y168.600 E22.70986
G1 X49.400 Y168.600 E32.46479
G1 X49.400 Y49.475 E42.21358
G1 X49.833 Y49.650 F7800.000
G1 X50.025 Y50.025 F7800.000
G1 X167.975 Y50.025 E51.86624 F1800.000
G1 X167.975 Y167.975 E61.51889
G1 X50.025 Y167.975 E71.17154
G1 X50.025 Y50.100 E80.81805
G1 X50.650 Y50.650 F7800.000
G1 X167.350 Y50.650 E90.36843 F1800.000
G1 X167.350 Y167.350 E99.91880
G1 X50.650 Y167.350 E109.46918
G1 X50.650 Y50.725 E119.01342
G1 X156.348 Y59.000 F7800.000
G1 X156.395 Y58.503 E119.05427 F1800.000
G1 X156.533 Y58.030 E119.09461
G1 X156.641 Y57.792 E119.11595
G1 X156.811 Y57.505 E119.14324
G1 X157.125 Y57.125 E119.18362
G1 X157.505 Y56.811 E119.22400
G1 X157.792 Y56.641 E119.25129
G1 X158.030 Y56.533 E119.27263
G1 X158.503 Y56.396 E119.31296
G1 X158.998 Y56.348 E119.35364 F1800.000
G1 X159.497 Y56.395 E119.39465
G1 X159.968 Y56.532 E119.43482
G1 X160.206 Y56.640 E119.45615
G1 X160.493 Y56.809 E119.48345
G1 X160.875 Y57.125 E119.52401
G1 X161.191 Y57.507 E119.56457
G1 X161.360 Y57.794 E119.59187
G1 X161.468 Y58.032 E119.61320
G1 X161.605 Y58.503 E119.65336
G1 X161.652 Y59.000 E119.69420
G1 X161.605 Y59.497 E119.73505
G1 X161.467 Y59.970 E119.77539
G1 X161.359 Y60.208 E119.79673
G1 X161.189 Y60.495 E119.82403
G1 X160.875 Y60.875 E119.86440
G1 X160.495 Y61.189 E119.90478
G1 X160.208 Y61.359 E119.93208
G1 X159.968 Y61.468 E119.95359
G1 X159.497 Y61.605 E119.99376
G1 X159.000 Y61.652 E120.03460
G1 X158.503 Y61.605 E120.07544
G1 X158.032 Y61.468 E120.11560
G1 X157.794 Y61.360 E120.13694
G1 X157.507 Y61.191 E120.16424
G1 X157.125 Y60.875 E120.20479
G1 X156.809 Y60.493 E120.24535
G1 X156.640 Y60.206 E120.27265
G1 X156.532 Y59.968 E120.29399
G1 X156.395 Y59.497 E120.33414
G1 X156.356 Y59.075 E120.36885
G1 X155.924 Y58.737 F7800.000
G1 X155.726 Y58.941 F7800.000
G1 X155.779 Y58.385 E120.41454 F1800.000
G1 X155.946 Y57.813 E120.46335
G1 X156.085 Y57.503 E120.49113
G1 X156.298 Y57.145 E120.52524
G1 X156.681 Y56.681 E120.57447
G1 X157.145 Y56.298 E120.62369
G1 X157.503 Y56.085 E120.65780
G1 X157.813 Y55.946 E120.68558
G1 X158.385 Y55.779 E120.73437
G1 X158.998 Y55.721 E120.78472 F1800.000
G1 X159.614 Y55.779 E120.83541
G1 X160.185 Y55.945 E120.88404
G1 X160.494 Y56.084 E120.91181
G1 X160.853 Y56.296 E120.94593
G1 X161.319 Y56.681 E120.99537
G1 X161.704 Y57.147 E121.04481
G1 X161.916 Y57.506 E121.07893
G1 X162.055 Y57.815 E121.10670
G1 X162.221 Y58.385 E121.15531
G1 X162.279 Y59.000 E121.20581
G1 X162.221 Y59.615 E121.25635
G1 X162.054 Y60.187 E121.30516
G1 X161.915 Y60.497 E121.33293
G1 X161.702 Y60.855 E121.36705
G1 X161.319 Y61.319 E121.41627
G1 X160.855 Y61.702 E121.46550
G1 X160.496 Y61.915 E121.49962
G1 X160.185 Y62.055 E121.52758
G1 X159.614 Y62.221 E121.57622
G1 X159.000 Y62.279 E121.62673
G1 X158.386 Y62.221 E121.67724
G1 X157.815 Y62.055 E121.72585
G1 X157.506 Y61.916 E121.75361
G1 X157.147 Y61.704 E121.78774
G1 X156.681 Y61.319 E121.83717
G1 X156.296 Y60.853 E121.88661
G1 X156.084 Y60.494 E121.92074
G1 X155.945 Y60.185 E121.94851
G1 X155.779 Y59.615 E121.99711
G1 X155.722 Y59.016 E122.04632
G1 X155.104 Y58.882 F7800.000
G1 X155.162 Y58.268 E122.09686 F1800.000
G1 X155.358 Y57.596 E122.15414
G1 X155.530 Y57.215 E122.18835
G1 X155.785 Y56.784 E122.22929
G1 X156.237 Y56.237 E122.28736
G1 X156.784 Y55.785 E122.34543
G1 X157.215 Y55.530 E122.38636
G1 X157.595 Y55.358 E122.42058
G1 X158.267 Y55.162 E122.47783
G1 X158.997 Y55.093 E122.53785 F1800.000
G1 X159.732 Y55.162 E122.59821
G1 X160.402 Y55.357 E122.65530
G1 X160.783 Y55.529 E122.68951
G1 X161.213 Y55.783 E122.73046
G1 X161.763 Y56.237 E122.78877
G1 X162.217 Y56.787 E122.84709
G1 X162.471 Y57.217 E122.88804
G1 X162.643 Y57.598 E122.92225
G1 X162.838 Y58.268 E122.97930
G1 X162.907 Y59.000 E123.03947
G1 X162.838 Y59.732 E123.09969
G1 X162.642 Y60.404 E123.15697
G1 X162.470 Y60.785 E123.19118
G1 X162.215 Y61.216 E123.23212
G1 X161.763 Y61.763 E123.29019
G1 X161.216 Y62.215 E123.34826
G1 X160.785 Y62.470 E123.38921
G1 X160.402 Y62.643 E123.42363
G1 X159.732 Y62.838 E123.48072
G1 X159.000 Y62.907 E123.54090
G1 X158.268 Y62.838 E123.60108
G1 X157.598 Y62.643 E123.65814
G1 X157.217 Y62.471 E123.69234
G1 X156.787 Y62.217 E123.73329
G1 X156.237 Y61.763 E123.79160
G1 X155.783 Y61.213 E123.84992
G1 X155.529 Y60.783 E123.89088
G1 X155.357 Y60.402 E123.92508
G1 X155.162 Y59.732 E123.98213
G1 X155.097 Y58.957 E124.04579
G1 X147.993 Y69.309 F7800.000
G1 X148.375 Y69.625 E124.08634 F1800.000
G1 X148.691 Y70.007 E124.12691
G1 X148.860 Y70.294 E124.15420
G1 X148.968 Y70.532 E124.17553
G1 X149.105 Y71.003 E124.21569
G1 X149.152 Y71.500 E124.25653
G1 X149.105 Y71.997 E124.29739
G1 X148.967 Y72.470 E124.33773
G1 X148.859 Y72.708 E124.35906
G1 X148.689 Y72.995 E124.38636
G1 X148.375 Y73.375 E124.42674
G1 X147.995 Y73.689 E124.46712
G1 X147.706 Y73.860 E124.49459
G1 X147.468 Y73.968 E124.51593
G1 X146.997 Y74.105 E124.55609
G1 X146.500 Y74.152 E124.59693
G1 X146.003 Y74.105 E124.63777
G1 X145.532 Y73.968 E124.67794
G1 X145.294 Y73.860 E124.69927
G1 X145.007 Y73.691 E124.72657
G1 X144.625 Y73.375 E124.76713
G1 X144.309 Y72.993 E124.80769
G1 X144.140 Y72.706 E124.83499
G1 X144.032 Y72.468 E124.85632
G1 X143.895 Y71.997 E124.89648
G1 X143.848 Y71.500 E124.93732
G1 X143.895 Y71.003 E124.97817
G1 X144.033 Y70.530 E125.01851
G1 X144.141 Y70.292 E125.03985
G1 X144.311 Y70.005 E125.06714
G1 X144.625 Y69.625 E125.10752
G1 X145.005 Y69.311 E125.14790
G1 X145.292 Y69.141 E125.17519
G1 X145.530 Y69.033 E125.19653
G1 X146.003 Y68.896 E125.23686
G1 X146.498 Y68.848 E125.27754 F1800.000
G1 X146.997 Y68.895 E125.31855
G1 X147.468 Y69.032 E125.35872
G1 X147.706 Y69.140 E125.38005
G1 X147.928 Y69.271 E125.40122
G1 X148.448 Y69.112 F7800.000
G1 X148.391 Y68.828 F7800.000
G1 X148.819 Y69.181 E125.44664 F1800.000
G1 X149.204 Y69.647 E125.49607
G1 X149.416 Y70.006 E125.53020
G1 X149.555 Y70.315 E125.55796
G1 X149.721 Y70.885 E125.60657
G1 X149.779 Y71.500 E125.65708
G1 X149.721 Y72.115 E125.70761
G1 X149.554 Y72.687 E125.75642
G1 X149.415 Y72.997 E125.78420
G1 X149.202 Y73.355 E125.81832
G1 X148.819 Y73.819 E125.86754
G1 X148.355 Y74.202 E125.91678
G1 X147.994 Y74.416 E125.95109
G1 X147.685 Y74.555 E125.97887
G1 X147.114 Y74.721 E126.02748
G1 X146.500 Y74.779 E126.07799
G1 X145.886 Y74.721 E126.12850
G1 X145.315 Y74.555 E126.17711
G1 X145.006 Y74.416 E126.20488
G1 X144.647 Y74.204 E126.23901
G1 X144.181 Y73.819 E126.28844
G1 X143.796 Y73.353 E126.33788
G1 X143.584 Y72.994 E126.37201
G1 X143.445 Y72.685 E126.39977
G1 X143.279 Y72.115 E126.44838
G1 X143.221 Y71.500 E126.49889
G1 X143.279 Y70.885 E126.54942
G1 X143.446 Y70.313 E126.59823
G1 X143.585 Y70.003 E126.62601
G1 X143.798 Y69.645 E126.66012
G1 X144.181 Y69.181 E126.70935
G1 X144.645 Y68.798 E126.75857
G1 X145.003 Y68.585 E126.79268
G1 X145.313 Y68.446 E126.82046
G1 X145.885 Y68.279 E126.86925
G1 X146.498 Y68.221 E126.91960 F1800.000
G1 X147.114 Y68.279 E126.97029
G1 X147.685 Y68.445 E127.01892
G1 X147.994 Y68.584 E127.04669
G1 X148.331 Y68.783 E127.07869
G1 X148.789 Y68.346 F7800.000
G1 X149.263 Y68.737 E127.12898 F1800.000
G1 X149.717 Y69.287 E127.18729
G1 X149.971 Y69.717 E127.22825
G1 X150.143 Y70.098 E127.26244
G1 X150.338 Y70.768 E127.31950
G1 X150.407 Y71.500 E127.37968
G1 X150.338 Y72.232 E127.43989
G1 X150.142 Y72.904 E127.49717
G1 X149.970 Y73.285 E127.53138
G1 X149.715 Y73.716 E127.57232
G1 X149.263 Y74.263 E127.63039
G1 X148.716 Y74.715 E127.68848
G1 X148.283 Y74.971 E127.72964
G1 X147.902 Y75.143 E127.76387
G1 X147.232 Y75.338 E127.82092
G1 X146.500 Y75.407 E127.88110
G1 X145.768 Y75.338 E127.94128
G1 X145.098 Y75.143 E127.99834
G1 X144.717 Y74.971 E128.03254
G1 X144.287 Y74.717 E128.07350
G1 X143.737 Y74.263 E128.13181
G1 X143.283 Y73.713 E128.19012
G1 X143.029 Y73.283 E128.23108
G1 X142.857 Y72.902 E128.26528
G1 X142.662 Y72.232 E128.32233
G1 X142.593 Y71.500 E128.38251
G1 X142.662 Y70.768 E128.44272
G1 X142.858 Y70.096 E128.50000
G1 X143.030 Y69.715 E128.53422
G1 X143.285 Y69.284 E128.57515
G1 X143.737 Y68.737 E128.63322
G1 X144.284 Y68.285 E128.69129
G1 X144.715 Y68.030 E128.73222
G1 X145.095 Y67.858 E128.76644
G1 X145.767 Y67.662 E128.82370
G1 X146.497 Y67.593 E128.88370 F1800.000
G1 X147.232 Y67.662 E128.94407
G1 X147.902 Y67.857 E129.00117
G1 X148.283 Y68.029 E129.03537
G1 X148.731 Y68.298 E129.07819
G1 X61.605 Y59.497 F7800.000
G1 X61.468 Y59.968 E129.11835 F1800.000
G1 X61.360 Y60.206 E129.13970
G1 X61.189 Y60.495 E129.16717
G1 X60.875 Y60.875 E129.20755
G1 X60.495 Y61.189 E129.24793
G1 X60.206 Y61.360 E129.27540
G1 X59.968 Y61.468 E129.29674
G1 X59.497 Y61.605 E129.33690
G1 X59.000 Y61.652 E129.37775
G1 X58.503 Y61.605 E129.41859
G1 X58.032 Y61.468 E129.45875
G1 X57.794 Y61.360 E129.48009
G1 X57.505 Y61.189 E129.50756
G1 X57.125 Y60.875 E129.54795
G1 X56.809 Y60.493 E129.58850
G1 X56.640 Y60.206 E129.61580
G1 X56.532 Y59.968 E129.63714
G1 X56.395 Y59.497 E129.67730
G1 X56.348 Y59.000 E129.71814
G1 X56.395 Y58.503 E129.75899
G1 X56.533 Y58.030 E129.79933
G1 X56.641 Y57.792 E129.82066
G1 X56.811 Y57.505 E129.84795
G1 X57.125 Y57.125 E129.88833
G1 X57.505 Y56.811 E129.92872
G1 X57.794 Y56.640 E129.95618
G1 X58.030 Y56.533 E129.97735
G1 X58.503 Y56.396 E130.01768
G1 X58.998 Y56.348 E130.05835 F1800.000
G1 X59.497 Y56.395 E130.09936
G1 X59.968 Y56.532 E130.13953
G1 X60.206 Y56.640 E130.16087
G1 X60.495 Y56.811 E130.18834
G1 X60.875 Y57.125 E130.22873
G1 X61.191 Y57.507 E130.26929
G1 X61.360 Y57.794 E130.29658
G1 X61.468 Y58.032 E130.31792
G1 X61.605 Y58.503 E130.35808
G1 X61.652 Y59.000 E130.39892
G1 X61.612 Y59.422 E130.43363
G1 X61.966 Y59.829 F7800.000
G1 X62.227 Y59.556 F7800.000
G1 X62.055 Y60.185 E130.48699 F1800.000
G1 X61.916 Y60.494 E130.51477
G1 X61.702 Y60.855 E130.54908
G1 X61.319 Y61.319 E130.59832
G1 X60.855 Y61.702 E130.64756
G1 X60.494 Y61.916 E130.68187
G1 X60.185 Y62.055 E130.70965
G1 X59.614 Y62.221 E130.75826
G1 X59.000 Y62.279 E130.80877
G1 X58.386 Y62.221 E130.85928
G1 X57.815 Y62.055 E130.90789
G1 X57.506 Y61.916 E130.93568
G1 X57.145 Y61.702 E130.96998
G1 X56.681 Y61.319 E131.01924
G1 X56.296 Y60.853 E131.06866
G1 X56.084 Y60.494 E131.10278
G1 X55.945 Y60.185 E131.13056
G1 X55.779 Y59.614 E131.17917
G1 X55.721 Y59.000 E131.22968
G1 X55.779 Y58.385 E131.28020
G1 X55.946 Y57.813 E131.32902
G1 X56.085 Y57.503 E131.35679
G1 X56.298 Y57.145 E131.39090
G1 X56.681 Y56.681 E131.44013
G1 X57.145 Y56.298 E131.48937
G1 X57.506 Y56.084 E131.52367
G1 X57.813 Y55.945 E131.55126
G1 X58.385 Y55.779 E131.60004
G1 X58.998 Y55.721 E131.65038 F1800.000
G1 X59.614 Y55.779 E131.70107
G1 X60.185 Y55.945 E131.74970
G1 X60.494 Y56.084 E131.77748
G1 X60.855 Y56.298 E131.81179
G1 X61.319 Y56.681 E131.86105
G1 X61.704 Y57.147 E131.91047
G1 X61.916 Y57.506 E131.94459
G1 X62.055 Y57.815 E131.97236
G1 X62.221 Y58.386 E132.02097
G1 X62.279 Y59.000 E132.07148
G1 X62.234 Y59.481 E132.11103
G1 X62.849 Y59.615 F7800.000
G1 X62.838 Y59.732 E132.12068 F1800.000
G1 X62.643 Y60.402 E132.17774
G1 X62.471 Y60.783 E132.21197
G1 X62.215 Y61.216 E132.25312
G1 X61.763 Y61.763 E132.31121
G1 X61.216 Y62.215 E132.36931
G1 X60.783 Y62.471 E132.41046
G1 X60.402 Y62.643 E132.44469
G1 X59.732 Y62.838 E132.50175
G1 X59.000 Y62.907 E132.56192
G1 X58.268 Y62.838 E132.62210
G1 X57.598 Y62.643 E132.67916
G1 X57.217 Y62.471 E132.71339
G1 X56.784 Y62.215 E132.75454
G1 X56.237 Y61.762 E132.81266
G1 X55.783 Y61.213 E132.87095
G1 X55.529 Y60.783 E132.91190
G1 X55.357 Y60.402 E132.94610
G1 X55.162 Y59.732 E133.00316
G1 X55.093 Y59.000 E133.06334
G1 X55.162 Y58.268 E133.12355
G1 X55.358 Y57.595 E133.18083
G1 X55.530 Y57.215 E133.21505
G1 X55.785 Y56.784 E133.25597
G1 X56.237 Y56.237 E133.31405
G1 X56.784 Y55.785 E133.37214
G1 X57.217 Y55.529 E133.41327
G1 X57.596 Y55.358 E133.44730
G1 X58.267 Y55.162 E133.50452
G1 X58.997 Y55.093 E133.56453 F1800.000
G1 X59.732 Y55.162 E133.62490
G1 X60.402 Y55.357 E133.68199
G1 X60.783 Y55.529 E133.71622
G1 X61.216 Y55.785 E133.75737
G1 X61.763 Y56.238 E133.81550
G1 X62.217 Y56.787 E133.87378
G1 X62.471 Y57.217 E133.91473
G1 X62.643 Y57.598 E133.94893
G1 X62.838 Y58.268 E134.00599
G1 X62.907 Y59.000 E134.06617
G1 X62.856 Y59.540 E134.11055
G1 X70.005 Y69.311 F7800.000
G1 X70.294 Y69.140 E134.13802 F1800.000
G1 X70.532 Y69.032 E134.15936
G1 X71.003 Y68.895 E134.19952
G1 X71.498 Y68.848 E134.24018 F1800.000
G1 X71.997 Y68.895 E134.28120
G1 X72.468 Y69.032 E134.32137
G1 X72.706 Y69.140 E134.34270
G1 X72.993 Y69.309 E134.37000
G1 X73.375 Y69.625 E134.41056
G1 X73.691 Y70.007 E134.45112
G1 X73.860 Y70.294 E134.47842
G1 X73.968 Y70.532 E134.49975
G1 X74.105 Y71.003 E134.53991
G1 X74.152 Y71.500 E134.58076
G1 X74.105 Y71.997 E134.62160
G1 X73.968 Y72.468 E134.66176
G1 X73.860 Y72.706 E134.68310
G1 X73.689 Y72.995 E134.71057
G1 X73.375 Y73.375 E134.75095
G1 X72.995 Y73.689 E134.79134
G1 X72.706 Y73.860 E134.81880
G1 X72.468 Y73.968 E134.84015
G1 X71.997 Y74.105 E134.88031
G1 X71.500 Y74.152 E134.92115
G1 X71.003 Y74.105 E134.96199
G1 X70.532 Y73.968 E135.00215
G1 X70.294 Y73.860 E135.02349
