; generated by Slic3r 1.2.9 on 2016-02-11 at 01:08:05

; external perimeters extrusion width = 0.50mm
; perimeters extrusion width = 0.50mm
; infill extrusion width = 0.50mm
; solid infill extrusion width = 0.50mm
; top infill extrusion width = 0.50mm

M107
M190 S57 ; set bed temperature
M104 S200 ; set temperature
G28 ; home all axes
M83;
G10 P0 S195 R160
T0

M109 S200 ; wait for temperature to be reached
G21 ; set units to millimeters
G90 ; use absolute coordinates
M83 ; use relative distances for extrusion
G1 E-3.50000 F2400.00000
G1 Z0.300 F9000.000
G1 X70.930 Y70.369 F9000.000
G1 E3.50000 F2400.00000
G1 X72.619 Y69.240 E0.18636 F1800.000
G1 X74.612 Y68.843 E0.18654
G1 X111.387 Y68.843 E3.37413
G1 X113.971 Y69.529 E0.24524
G1 X127.971 Y77.529 E1.47943 F1800.000
G1 X129.504 Y78.862 E0.18636
G1 X130.411 Y80.679 E0.18636
G1 X130.594 Y82.050 E0.12691
G1 X130.594 Y117.950 E3.29384
G1 X130.198 Y119.942 E0.18636
G1 X129.070 Y121.631 E0.18636
G1 X127.971 Y122.471 E0.12691
G1 X113.971 Y130.471 E1.47943
G1 X111.387 Y131.157 E0.24524
G1 X74.612 Y131.157 E3.37413
G1 X72.620 Y130.761 E0.18636
G1 X70.931 Y129.633 E0.18636
G1 X69.803 Y127.944 E0.18636
G1 X69.406 Y125.950 E0.18654
G1 X69.406 Y74.050 E4.76185
G1 X69.802 Y72.058 E0.18636
G1 X70.888 Y70.431 E0.17948
G1 X71.556 Y70.831 F9000.000
G1 X71.653 Y70.698 E0.01511 F1800.000
G1 X73.294 Y69.778 E0.17255
G1 X74.612 Y69.579 E0.12239
G1 X111.387 Y69.579 E3.37413
G1 X113.606 Y70.168 E0.21059
G1 X127.606 Y78.168 E1.47943 F1800.000
G1 X129.006 Y79.424 E0.17255
G1 X129.859 Y82.050 E0.25337
G1 X129.859 Y117.950 E3.29384
G1 X129.463 Y119.789 E0.17255
G1 X127.606 Y121.832 E0.25337
G1 X113.606 Y129.832 E1.47943
G1 X111.387 Y130.421 E0.21059
G1 X74.612 Y130.421 E3.37413
G1 X72.774 Y130.026 E0.17255
G1 X71.261 Y128.909 E0.17255
G1 X70.340 Y127.269 E0.17255
G1 X70.141 Y125.950 E0.12239
G1 X70.141 Y74.050 E4.76185
G1 X70.537 Y72.211 E0.17255
G1 X71.511 Y70.891 E0.15057
G1 X72.150 Y71.327 F9000.000
G1 X72.372 Y71.061 E0.03179 F1800.000
G1 X74.612 Y70.314 E0.21667
G1 X111.387 Y70.314 E3.37413
G1 X113.241 Y70.807 E0.17594
G1 X127.241 Y78.807 E1.47943 F1800.000
G1 X128.496 Y79.978 E0.15755
G1 X129.123 Y82.050 E0.19859
G1 X129.123 Y117.950 E3.29384
G1 X128.728 Y119.621 E0.15755
G1 X127.241 Y121.193 E0.19859
G1 X113.241 Y129.193 E1.47943
G1 X111.387 Y129.686 E0.17594
G1 X74.612 Y129.686 E3.37413
G1 X72.941 Y129.291 E0.15755
G1 X71.623 Y128.190 E0.15755
G1 X70.877 Y125.950 E0.21667
G1 X70.877 Y74.050 E4.76185
G1 X71.272 Y72.379 E0.15755
G1 X72.102 Y71.384 E0.11887
G1 E-3.50000 F2400.00000
G1 X79.641 Y124.079 F9000.000
G1 E3.50000 F2400.00000
G1 X76.484 Y124.079 E0.28970 F1350.000
G1 X76.484 Y117.487 E0.60475
G1 X76.900 Y117.415 E0.03873
G1 X77.972 Y117.175 E0.10086
G1 X79.028 Y116.868 E0.10086
G1 X79.641 Y116.658 E0.05948
G1 X79.641 Y124.004 E0.67394
G1 E-3.50000 F2400.00000
G1 X79.641 Y83.342 F9000.000
G1 E3.50000 F2400.00000
G1 X79.028 Y83.132 E0.05948 F1350.000
G1 X77.972 Y82.825 E0.10086
G1 X76.900 Y82.585 E0.10086
G1 X76.484 Y82.513 E0.03873
G1 X76.484 Y75.921 E0.60475
G1 X79.641 Y75.921 E0.28970
G1 X79.641 Y83.267 E0.67394
G1 X75.748 Y83.146 F9000.000
G1 X75.748 Y75.186 E0.73038 F1350.000
G1 X80.377 Y75.186 E0.42469
G1 X80.377 Y83.770 E0.78760
G1 X82.032 Y84.613 E0.17042
G1 X82.496 Y84.877 E0.04898
G1 X83.435 Y85.473 E0.10205
G1 X84.327 Y86.122 E0.10124
G1 X85.185 Y86.831 E0.10206
G1 X85.580 Y87.190 E0.04899
G1 X86.372 Y87.983 E0.10287
G1 X86.732 Y88.378 E0.04899
G1 X87.441 Y89.235 E0.10206
G1 X88.089 Y90.128 E0.10124
G1 X88.681 Y91.060 E0.10133
G1 X88.950 Y91.531 E0.04972
G1 X89.459 Y92.530 E0.10286
G1 X89.678 Y93.016 E0.04899
G1 X90.088 Y94.051 E0.10206
G1 X90.429 Y95.101 E0.10134
G1 X90.573 Y95.624 E0.04973
G1 X90.816 Y96.710 E0.10214
G1 X90.909 Y97.244 E0.04972
G1 X91.049 Y98.356 E0.10285
G1 X91.091 Y98.888 E0.04899
G1 X91.126 Y100.000 E0.10206
G1 X91.092 Y101.104 E0.10134
G1 X91.049 Y101.644 E0.04972
G1 X90.910 Y102.748 E0.10203
G1 X90.703 Y103.831 E0.10124
G1 X90.429 Y104.900 E0.10124
G1 X90.088 Y105.950 E0.10124
G1 X89.682 Y106.975 E0.10124
G1 X89.212 Y107.974 E0.10123
G1 X88.680 Y108.941 E0.10124
G1 X88.089 Y109.872 E0.10124
G1 X87.441 Y110.765 E0.10123
G1 X86.737 Y111.615 E0.10124
G1 X85.982 Y112.420 E0.10123
G1 X85.178 Y113.175 E0.10123
G1 X84.327 Y113.878 E0.10124
G1 X83.435 Y114.527 E0.10124
G1 X82.503 Y115.118 E0.10123
G1 X81.528 Y115.654 E0.10206
G1 X80.377 Y116.218 E0.11766
G1 X80.377 Y124.814 E0.78872
G1 X75.748 Y124.814 E0.42469
G1 X75.748 Y116.854 E0.73038
G1 X76.756 Y116.693 E0.09364
G1 X77.789 Y116.462 E0.09715
G1 X78.806 Y116.167 E0.09714
G1 X79.320 Y115.991 E0.04980
G1 X79.827 Y115.799 E0.04980
G1 X80.799 Y115.379 E0.09715
G1 X81.743 Y114.898 E0.09714
G1 X82.214 Y114.629 E0.04981
G1 X82.677 Y114.345 E0.04980
G1 X83.545 Y113.755 E0.09632
G1 X83.986 Y113.424 E0.05063
G1 X84.802 Y112.749 E0.09714
G1 X85.574 Y112.024 E0.09715
G1 X85.952 Y111.634 E0.04981
G1 X86.317 Y111.233 E0.04981
G1 X86.986 Y110.424 E0.09632
G1 X87.318 Y109.983 E0.05063
G1 X87.913 Y109.107 E0.09714
G1 X88.452 Y108.196 E0.09714
G1 X88.710 Y107.708 E0.05062
G1 X89.157 Y106.758 E0.09632
G1 X89.368 Y106.248 E0.05063
G1 X89.724 Y105.260 E0.09633
G1 X89.883 Y104.742 E0.04980
G1 X90.027 Y104.218 E0.04980
G1 X90.256 Y103.194 E0.09633
G1 X90.351 Y102.650 E0.05063
G1 X90.482 Y101.608 E0.09632
G1 X90.525 Y101.058 E0.05062
G1 X90.559 Y100.000 E0.09715
G1 X90.525 Y98.942 E0.09715
G1 X90.482 Y98.392 E0.05061
G1 X90.352 Y97.359 E0.09554
G1 X90.256 Y96.807 E0.05139
G1 X90.027 Y95.782 E0.09636
G1 X89.724 Y94.740 E0.09959
G1 X89.368 Y93.752 E0.09633
G1 X89.157 Y93.242 E0.05063
G1 X88.710 Y92.292 E0.09632
G1 X88.452 Y91.804 E0.05062
G1 X87.913 Y90.893 E0.09714
G1 X87.318 Y90.017 E0.09714
G1 X86.986 Y89.576 E0.05063
G1 X86.317 Y88.767 E0.09632
G1 X85.952 Y88.366 E0.04981
G1 X85.574 Y87.976 E0.04981
G1 X84.802 Y87.251 E0.09715
G1 X83.986 Y86.576 E0.09714
G1 X83.545 Y86.245 E0.05063
G1 X82.677 Y85.655 E0.09632
G1 X81.743 Y85.102 E0.09959
G1 X80.799 Y84.621 E0.09714
G1 X79.827 Y84.201 E0.09715
G1 X78.806 Y83.833 E0.09959
G1 X77.789 Y83.538 E0.09715
G1 X76.756 Y83.307 E0.09715
G1 X75.822 Y83.157 E0.08676
G1 X75.013 Y83.812 F9000.000
G1 X75.013 Y74.450 E0.85896 F1350.000
G1 X81.112 Y74.450 E0.55968
G1 X81.112 Y83.319 E0.81373
G1 X82.381 Y83.965 E0.13065
G1 X82.875 Y84.247 E0.05217
G1 X83.849 Y84.865 E0.10576
G1 X84.779 Y85.540 E0.10548
G1 X85.667 Y86.275 E0.10577
G1 X86.087 Y86.658 E0.05217
G1 X86.905 Y87.475 E0.10605
G1 X87.287 Y87.896 E0.05217
G1 X88.022 Y88.784 E0.10577
G1 X88.698 Y89.714 E0.10548
G1 X89.311 Y90.681 E0.10503
G1 X89.597 Y91.181 E0.05291
G1 X90.122 Y92.211 E0.10605
G1 X90.356 Y92.729 E0.05217
G1 X90.780 Y93.801 E0.10577
G1 X91.134 Y94.890 E0.10504
G1 X91.287 Y95.446 E0.05291
G1 X91.537 Y96.566 E0.10532
G1 X91.637 Y97.134 E0.05290
G1 X91.781 Y98.281 E0.10605
G1 X91.826 Y98.848 E0.05217
G1 X91.862 Y100.000 E0.10577
G1 X91.826 Y101.144 E0.10504
G1 X91.781 Y101.719 E0.05291
G1 X91.637 Y102.863 E0.10576
G1 X91.422 Y103.992 E0.10548
G1 X91.136 Y105.105 E0.10548
G1 X90.780 Y106.199 E0.10548
G1 X90.357 Y107.268 E0.10548
G1 X89.868 Y108.308 E0.10548
G1 X89.314 Y109.315 E0.10548
G1 X88.698 Y110.286 E0.10548
G1 X88.022 Y111.216 E0.10548
G1 X87.289 Y112.102 E0.10548
G1 X86.502 Y112.940 E0.10548
G1 X85.664 Y113.727 E0.10548
G1 X84.779 Y114.460 E0.10548
G1 X83.849 Y115.135 E0.10548
G1 X82.878 Y115.751 E0.10548
G1 X81.868 Y116.307 E0.10577
G1 X81.112 Y116.677 E0.07716
G1 X81.112 Y125.550 E0.81412
G1 X75.013 Y125.550 E0.55968
G1 X75.013 Y116.188 E0.85896
G1 X75.597 Y116.132 E0.05391
G1 X76.612 Y115.972 E0.09429
G1 X77.606 Y115.749 E0.09343
G1 X78.584 Y115.465 E0.09343
G1 X79.551 Y115.117 E0.09430
G1 X80.486 Y114.713 E0.09344
G1 X81.393 Y114.250 E0.09343
G1 X82.278 Y113.727 E0.09430
G1 X83.117 Y113.157 E0.09314
G1 X83.531 Y112.846 E0.04744
G1 X84.316 Y112.197 E0.09343
G1 X85.058 Y111.500 E0.09344
G1 X85.416 Y111.131 E0.04716
G1 X85.762 Y110.751 E0.04716
G1 X86.409 Y109.968 E0.09314
G1 X86.719 Y109.555 E0.04745
G1 X87.291 Y108.713 E0.09343
G1 X87.810 Y107.836 E0.09343
G1 X88.052 Y107.379 E0.04744
G1 X88.484 Y106.461 E0.09314
G1 X88.682 Y105.983 E0.04745
G1 X89.026 Y105.028 E0.09315
G1 X89.313 Y104.041 E0.09429
G1 X89.534 Y103.050 E0.09315
G1 X89.623 Y102.541 E0.04745
G1 X89.750 Y101.533 E0.09314
G1 X89.791 Y101.018 E0.04744
G1 X89.823 Y100.000 E0.09343
G1 X89.791 Y98.982 E0.09344
G1 X89.750 Y98.467 E0.04744
G1 X89.624 Y97.468 E0.09238
G1 X89.534 Y96.950 E0.04820
G1 X89.313 Y95.959 E0.09316
G1 X89.026 Y94.972 E0.09429
G1 X88.682 Y94.017 E0.09315
G1 X88.484 Y93.539 E0.04745
G1 X88.052 Y92.621 E0.09314
G1 X87.810 Y92.164 E0.04744
G1 X87.291 Y91.287 E0.09343
G1 X86.719 Y90.445 E0.09343
G1 X86.409 Y90.032 E0.04745
G1 X85.762 Y89.249 E0.09314
G1 X85.416 Y88.869 E0.04716
G1 X85.058 Y88.500 E0.04716
G1 X84.316 Y87.803 E0.09344
G1 X83.531 Y87.154 E0.09343
G1 X83.117 Y86.843 E0.04744
G1 X82.278 Y86.273 E0.09314
G1 X81.393 Y85.750 E0.09430
G1 X80.486 Y85.287 E0.09343
G1 X79.551 Y84.883 E0.09344
G1 X78.584 Y84.535 E0.09429
G1 X77.606 Y84.251 E0.09343
G1 X76.612 Y84.028 E0.09343
G1 X76.106 Y83.940 E0.04716
G1 X75.087 Y83.819 E0.09415
G1 X75.279 Y83.389 F9000.000
G1 X77.291 Y82.174 F9000.000
G1 X76.933 Y81.815 E0.04696 F1350.000
G1 X76.933 Y80.765 E0.09728
G1 X78.679 Y82.511 E0.22866
G1 X79.192 Y81.974 E0.06880
G1 X76.933 Y79.715 E0.29593
G1 X76.933 Y78.664 E0.09728
G1 X79.192 Y80.924 E0.29593
G1 X79.192 Y79.873 E0.09728
G1 X76.933 Y77.614 E0.29593
G1 X76.933 Y76.564 E0.09728
G1 X79.192 Y78.823 E0.29593
G1 X79.192 Y77.773 E0.09728
G1 X77.790 Y76.370 E0.18370
G1 X78.840 Y76.370 E0.09728
G1 X79.192 Y76.723 E0.04612
G1 E-3.50000 F2400.00000
G1 X79.192 Y117.699 F9000.000
G1 E3.50000 F2400.00000
G1 X78.844 Y117.351 E0.04863 F1350.000
G1 X77.976 Y117.603 E0.08921
G1 X79.192 Y118.819 E0.16979
G1 X79.192 Y119.938 E0.11056
G1 X77.062 Y117.808 E0.29751
G1 X76.933 Y118.799 E0.09867
G1 X79.192 Y121.058 E0.31548
G1 X79.192 Y122.178 E0.11056
G1 X76.933 Y119.919 E0.31548
G1 X76.933 Y121.038 E0.11056
G1 X79.192 Y123.297 E0.31548
G1 X78.405 Y123.630 E0.08439
G1 X76.933 Y122.158 E0.20553
G1 X76.933 Y123.277 E0.11056
G1 X77.285 Y123.630 E0.04917
G1 E-3.50000 F2400.00000
G1 Z0.300 F9000.000
G1 X103.359 Y124.079 F9000.000
G1 E3.50000 F2400.00000
G1 X103.359 Y117.621 E0.59252 F1350.000
G1 X104.226 Y117.511 E0.08019
G1 X105.291 Y117.308 E0.09952
G1 X105.861 Y117.171 E0.05380
G1 X106.917 Y116.864 E0.10086
G1 X107.951 Y116.492 E0.10086
G1 X108.493 Y116.267 E0.05381
G1 X109.516 Y115.786 E0.10374
G1 X109.516 Y124.079 E0.76086
G1 X103.434 Y124.079 E0.55807
G1 X109.675 Y116.079 F9000.000
G1 X109.591 Y115.744 E0.03167 F1350.000
G1 X109.993 Y115.531 E0.04165
G1 X110.919 Y114.984 E0.09871
G1 X111.872 Y114.337 E0.10569
G1 X112.729 Y113.672 E0.09952
G1 X113.175 Y113.291 E0.05379
G1 X113.976 Y112.539 E0.10086
G1 X114.723 Y111.744 E0.10007
G1 X115.109 Y111.292 E0.05456
G1 X115.783 Y110.423 E0.10090
G1 X116.396 Y109.521 E0.10006
G1 X116.707 Y109.014 E0.05457
G1 X117.237 Y108.050 E0.10089
G1 X117.701 Y107.064 E0.10005
G1 X117.929 Y106.514 E0.05458
G1 X118.297 Y105.493 E0.09956
G1 X118.616 Y104.396 E0.10488
G1 X118.852 Y103.337 E0.09951
G1 X118.953 Y102.759 E0.05382
G1 X119.089 Y101.683 E0.09950
G1 X119.135 Y101.099 E0.05380
G1 X119.170 Y100.000 E0.10086
G1 X119.135 Y98.901 E0.10086
G1 X119.089 Y98.317 E0.05379
G1 X118.954 Y97.249 E0.09870
G1 X118.853 Y96.663 E0.05457
G1 X118.618 Y95.613 E0.09876
G1 X118.297 Y94.507 E0.10569
G1 X117.929 Y93.486 E0.09952
G1 X117.705 Y92.944 E0.05381
G1 X117.243 Y91.963 E0.09950
G1 X116.969 Y91.445 E0.05380
G1 X116.409 Y90.499 E0.10085
G1 X115.791 Y89.590 E0.10085
G1 X115.439 Y89.120 E0.05381
G1 X114.739 Y88.274 E0.10085
G1 X113.976 Y87.461 E0.10221
G1 X113.175 Y86.709 E0.10087
G1 X112.729 Y86.328 E0.05379
G1 X111.872 Y85.663 E0.09953
G1 X110.926 Y85.021 E0.10488
G1 X109.993 Y84.469 E0.09951
G1 X109.591 Y84.256 E0.04166
G1 X109.675 Y83.921 E0.03167
G1 X123.516 Y83.921 E1.26998
G1 X123.516 Y116.079 E2.95047
G1 X109.750 Y116.079 E1.26310
G1 E-3.50000 F2400.00000
G1 X109.516 Y84.214 F9000.000
G1 E3.50000 F2400.00000
G1 X108.493 Y83.733 E0.10374 F1350.000
G1 X107.951 Y83.508 E0.05381
G1 X106.931 Y83.141 E0.09952
G1 X106.374 Y82.969 E0.05348
G1 X105.395 Y82.714 E0.09279
G1 X104.746 Y82.580 E0.06084
G1 X103.660 Y82.408 E0.10087
G1 X103.359 Y82.379 E0.02775
G1 X103.359 Y75.921 E0.59252
G1 X109.516 Y75.921 E0.56496
G1 X109.516 Y84.139 E0.75398
G1 X110.252 Y83.186 F9000.000
G1 X124.252 Y83.186 E1.28451 F1350.000
G1 X124.252 Y116.814 E3.08546
G1 X110.252 Y116.814 E1.28451
G1 X110.252 Y124.814 E0.73400
G1 X102.623 Y124.814 E0.69994
G1 X102.623 Y116.951 E0.72143
G1 X103.559 Y116.863 E0.08622
G1 X104.105 Y116.785 E0.05063
G1 X105.136 Y116.588 E0.09633
G1 X105.673 Y116.460 E0.05062
G1 X106.690 Y116.164 E0.09715
G1 X107.686 Y115.806 E0.09715
G1 X108.196 Y115.595 E0.05063
G1 X109.146 Y115.147 E0.09632
G1 X109.633 Y114.889 E0.05062
G1 X110.530 Y114.359 E0.09555
G1 X111.435 Y113.745 E0.10038
G1 X112.264 Y113.101 E0.09634
G1 X112.684 Y112.743 E0.05061
G1 X113.456 Y112.018 E0.09715
G1 X114.175 Y111.253 E0.09637
G1 X114.539 Y110.827 E0.05137
G1 X115.188 Y109.990 E0.09717
G1 X115.778 Y109.122 E0.09636
G1 X116.071 Y108.644 E0.05138
G1 X116.581 Y107.716 E0.09716
G1 X117.028 Y106.766 E0.09636
G1 X117.243 Y106.249 E0.05139
G1 X117.599 Y105.260 E0.09636
G1 X117.758 Y104.742 E0.04980
G1 X117.902 Y104.218 E0.04980
G1 X118.131 Y103.194 E0.09633
G1 X118.226 Y102.650 E0.05063
G1 X118.357 Y101.608 E0.09632
G1 X118.400 Y101.058 E0.05062
G1 X118.434 Y100.000 E0.09715
G1 X118.400 Y98.942 E0.09715
G1 X118.357 Y98.392 E0.05061
G1 X118.227 Y97.359 E0.09554
G1 X118.131 Y96.807 E0.05139
G1 X117.904 Y95.790 E0.09557
G1 X117.599 Y94.740 E0.10037
G1 X117.243 Y93.752 E0.09633
G1 X117.032 Y93.242 E0.05063
G1 X116.585 Y92.292 E0.09632
G1 X116.327 Y91.804 E0.05062
G1 X115.788 Y90.893 E0.09714
G1 X115.193 Y90.017 E0.09714
G1 X114.861 Y89.576 E0.05063
G1 X114.187 Y88.760 E0.09714
G1 X113.456 Y87.982 E0.09797
G1 X112.684 Y87.257 E0.09715
G1 X112.264 Y86.899 E0.05061
G1 X111.435 Y86.255 E0.09634
G1 X110.537 Y85.645 E0.09959
G1 X109.633 Y85.111 E0.09633
G1 X109.146 Y84.852 E0.05062
G1 X108.196 Y84.405 E0.09632
G1 X107.686 Y84.194 E0.05063
G1 X106.698 Y83.839 E0.09633
G1 X106.173 Y83.677 E0.05043
G1 X105.227 Y83.431 E0.08962
G1 X104.614 Y83.303 E0.05753
G1 X103.568 Y83.138 E0.09715
G1 X102.623 Y83.049 E0.08705
G1 X102.623 Y75.186 E0.72143
G1 X110.252 Y75.186 E0.69994
G1 X110.252 Y83.111 E0.72712
G1 X110.987 Y82.450 F9000.000
G1 X124.987 Y82.450 E1.28451 F1350.000
G1 X124.987 Y117.550 E3.22044
G1 X110.987 Y117.550 E1.28451
G1 X110.987 Y125.550 E0.73400
G1 X101.888 Y125.550 E0.83493
G1 X101.888 Y116.247 E0.85360
G1 X102.459 Y116.228 E0.05243
G1 X103.472 Y116.132 E0.09341
G1 X103.984 Y116.059 E0.04744
G1 X104.981 Y115.869 E0.09315
G1 X105.484 Y115.748 E0.04744
G1 X106.462 Y115.464 E0.09344
G1 X107.420 Y115.119 E0.09343
G1 X107.898 Y114.922 E0.04745
G1 X108.817 Y114.489 E0.09314
G1 X109.274 Y114.247 E0.04744
G1 X110.140 Y113.735 E0.09238
G1 X110.577 Y113.448 E0.04791
G1 X110.997 Y113.153 E0.04716
G1 X111.800 Y112.531 E0.09315
G1 X112.193 Y112.195 E0.04743
G1 X112.935 Y111.498 E0.09344
G1 X113.627 Y110.761 E0.09268
G1 X113.968 Y110.362 E0.04819
G1 X114.592 Y109.558 E0.09345
G1 X115.160 Y108.722 E0.09267
G1 X115.435 Y108.274 E0.04820
G1 X115.925 Y107.382 E0.09344
G1 X116.356 Y106.468 E0.09267
G1 X116.557 Y105.983 E0.04820
G1 X116.901 Y105.028 E0.09316
G1 X117.052 Y104.536 E0.04715
G1 X117.188 Y104.041 E0.04715
G1 X117.409 Y103.050 E0.09315
G1 X117.498 Y102.541 E0.04745
G1 X117.625 Y101.533 E0.09314
G1 X117.666 Y101.018 E0.04744
G1 X117.698 Y100.000 E0.09343
G1 X117.666 Y98.982 E0.09344
G1 X117.625 Y98.467 E0.04744
G1 X117.499 Y97.468 E0.09238
G1 X117.409 Y96.950 E0.04820
G1 X117.189 Y95.967 E0.09239
G1 X117.052 Y95.464 E0.04791
G1 X116.901 Y94.972 E0.04716
G1 X116.557 Y94.017 E0.09315
G1 X116.359 Y93.539 E0.04745
G1 X115.927 Y92.621 E0.09314
G1 X115.685 Y92.164 E0.04744
G1 X115.166 Y91.287 E0.09343
G1 X114.594 Y90.445 E0.09343
G1 X114.284 Y90.032 E0.04745
