; generated by Slic3r 1.2.9 on 2016-02-10 at 23:20:15

; external perimeters extrusion width = 0.50mm
; perimeters extrusion width = 0.72mm
; infill extrusion width = 0.72mm
; solid infill extrusion width = 0.72mm
; top infill extrusion width = 0.72mm

M107
M190 S60 ; set bed temperature
M104 S200 ; set temperature
G28 X0 Y0
G28 Z0
G1 Z0.3 F200
G1 X15 Y20 F12000
M109 S200 ; wait for temperature to be reached
G21 ; set units to millimeters
G90 ; use absolute coordinates
M82 ; use absolute distances for extrusion
G92 E0
G1 E-3.20000 F2760.00000
G92 E0
G1 Z0.350 F7800.000
G1 X77.038 Y78.359 F7800.000
G1 E3.20000 F2760.00000
G1 X78.828 Y76.612 E3.40475 F1800.000
G1 X81.077 Y75.514 E3.60950
G1 X83.362 Y75.175 E3.79861
G1 X118.637 Y75.175 E6.68539
G1 X121.888 Y75.877 E6.95751
G1 X137.888 Y83.127 E8.39504 F1800.000
G1 X139.974 Y84.509 E8.59979
G1 X141.521 Y86.475 E8.80454
G1 X142.373 Y88.827 E9.00930
G1 X142.512 Y90.300 E9.13035
G1 X142.512 Y127.700 E12.19104
G1 X142.115 Y130.170 E12.39579
G1 X140.962 Y132.391 E12.60055
G1 X139.172 Y134.138 E12.80530
G1 X137.888 Y134.873 E12.92635
G1 X121.888 Y142.123 E14.36389
G1 X118.637 Y142.825 E14.63600
G1 X83.362 Y142.825 E17.52279
G1 X80.892 Y142.427 E17.72754
G1 X78.672 Y141.275 E17.93229
G1 X76.924 Y139.484 E18.13704
G1 X75.827 Y137.236 E18.34179
G1 X75.488 Y134.950 E18.53090
G1 X75.488 Y83.050 E22.77822
G1 X75.885 Y80.580 E22.98297
G1 X77.003 Y78.426 E23.18158
G1 X77.607 Y78.669 F7800.000
G1 X77.658 Y78.576 E23.19031 F1800.000
G1 X79.431 Y76.959 E23.38672
G1 X81.636 Y76.009 E23.58312
G1 X83.362 Y75.800 E23.72548
G1 X118.637 Y75.800 E26.61226
G1 X121.630 Y76.447 E26.86278
G1 X137.630 Y83.697 E28.30032 F1800.000
G1 X139.622 Y85.035 E28.49672
G1 X141.067 Y86.951 E28.69313
G1 X141.887 Y90.300 E28.97531
G1 X141.887 Y127.700 E32.03599
G1 X141.490 Y130.067 E32.23240
G1 X140.342 Y132.174 E32.42880
G1 X137.630 Y134.303 E32.71098
G1 X121.630 Y141.553 E34.14852
G1 X118.637 Y142.200 E34.39904
G1 X83.362 Y142.200 E37.28582
G1 X80.996 Y141.803 E37.48223
G1 X78.888 Y140.654 E37.67863
G1 X77.271 Y138.881 E37.87504
G1 X76.321 Y136.677 E38.07144
G1 X76.113 Y134.950 E38.21380
G1 X76.113 Y83.050 E42.46112
G1 X76.510 Y80.683 E42.65752
G1 X77.571 Y78.735 E42.83906
G1 X78.169 Y78.992 F7800.000
G1 X78.278 Y78.803 E42.85694 F1800.000
G1 X80.031 Y77.324 E43.04463
G1 X82.183 Y76.531 E43.23232
G1 X83.362 Y76.425 E43.32926
G1 X118.637 Y76.425 E46.21604
G1 X121.372 Y77.016 E46.44497
G1 X137.372 Y84.266 E47.88251 F1800.000
G1 X139.265 Y85.560 E48.07020
G1 X140.604 Y87.422 E48.25788
G1 X141.262 Y90.300 E48.49952
G1 X141.262 Y127.700 E51.56021
G1 X140.865 Y129.959 E51.74790
G1 X139.722 Y131.947 E51.93559
G1 X137.372 Y133.734 E52.17722
G1 X121.372 Y140.984 E53.61476
G1 X118.637 Y141.575 E53.84369
G1 X83.362 Y141.575 E56.73047
G1 X81.104 Y141.178 E56.91816
G1 X79.116 Y140.035 E57.10585
G1 X77.636 Y138.282 E57.29354
G1 X76.844 Y136.130 E57.48123
G1 X76.738 Y134.950 E57.57816
G1 X76.738 Y83.050 E61.82548
G1 X77.135 Y80.791 E62.01317
G1 X78.132 Y79.057 E62.17684
G1 E58.97684 F2760.00000
G92 E0
G1 X90.912 Y134.600 F7800.000
G1 E3.20000 F2760.00000
G1 X83.712 Y134.600 E3.78922 F1800.000
G1 X83.712 Y125.198 E4.55864
G1 X84.331 Y125.178 E4.60924
G1 X85.343 Y125.082 E4.69248
G1 X86.235 Y124.947 E4.76634
G1 X87.346 Y124.700 E4.85948
G1 X88.322 Y124.417 E4.94259
G1 X89.277 Y124.073 E5.02571
G1 X89.753 Y123.876 E5.06783
G1 X90.669 Y123.445 E5.15072
G1 X91.124 Y123.204 E5.19284
G1 X91.996 Y122.688 E5.27573
G1 X92.843 Y122.113 E5.35951
G1 X93.643 Y121.492 E5.44241
G1 X94.034 Y121.158 E5.48452
G1 X94.775 Y120.462 E5.56764
G1 X95.470 Y119.722 E5.65076
G1 X95.804 Y119.331 E5.69288
G1 X96.427 Y118.528 E5.77600
G1 X96.992 Y117.696 E5.85832
G1 X97.267 Y117.249 E5.90122
G1 X97.755 Y116.362 E5.98412
G1 X97.981 Y115.899 E6.02624
G1 X98.384 Y114.967 E6.10936
G1 X98.728 Y114.012 E6.19247
G1 X99.014 Y113.029 E6.27625
G1 X99.235 Y112.040 E6.35914
G1 X99.323 Y111.533 E6.40127
G1 X99.450 Y110.528 E6.48416
G1 X99.491 Y110.015 E6.52628
G1 X99.523 Y109.000 E6.60939
G1 X99.491 Y107.994 E6.69172
G1 X99.450 Y107.472 E6.73462
G1 X99.323 Y106.467 E6.81752
G1 X99.235 Y105.960 E6.85964
G1 X99.014 Y104.971 E6.94253
G1 X98.728 Y103.988 E7.02632
G1 X98.384 Y103.033 E7.10943
G1 X97.981 Y102.101 E7.19254
G1 X97.516 Y101.188 E7.27633
G1 X96.999 Y100.314 E7.35944
G1 X96.428 Y99.474 E7.44255
G1 X96.119 Y99.063 E7.48468
G1 X95.472 Y98.280 E7.56779
G1 X94.775 Y97.538 E7.65113
G1 X94.034 Y96.842 E7.73425
G1 X93.643 Y96.508 E7.77637
G1 X92.843 Y95.887 E7.85926
G1 X91.996 Y95.312 E7.94304
G1 X91.124 Y94.796 E8.02593
G1 X90.669 Y94.555 E8.06806
G1 X89.753 Y94.124 E8.15094
G1 X89.277 Y93.927 E8.19307
G1 X88.322 Y93.583 E8.27618
G1 X87.356 Y93.302 E8.35851
G1 X86.846 Y93.180 E8.40141
G1 X85.860 Y92.992 E8.48352
G1 X85.342 Y92.917 E8.52642
G1 X84.330 Y92.822 E8.60953
G1 X83.712 Y92.802 E8.66013
G1 X83.712 Y83.400 E9.42955
G1 X90.912 Y83.400 E10.01877
G1 X90.912 Y92.288 E10.74616
G1 X92.155 Y92.921 E10.86028
G1 X92.651 Y93.204 E10.90700
G1 X93.627 Y93.823 E11.00157
G1 X94.559 Y94.501 E11.09590
G1 X95.450 Y95.237 E11.19047
G1 X95.872 Y95.622 E11.23720
G1 X96.684 Y96.434 E11.33121
G1 X97.450 Y97.301 E11.42587
G1 X98.160 Y98.216 E11.52066
G1 X98.488 Y98.684 E11.56738
G1 X99.102 Y99.651 E11.66117
G1 X99.662 Y100.669 E11.75629
G1 X100.150 Y101.706 E11.85008
G1 X100.373 Y102.242 E11.89758
G1 X100.764 Y103.330 E11.99214
G1 X101.086 Y104.437 E12.08647
G1 X101.338 Y105.564 E12.18104
G1 X101.436 Y106.127 E12.22776
G1 X101.581 Y107.276 E12.32255
G1 X101.626 Y107.845 E12.36927
G1 X101.662 Y109.009 E12.46461
G1 X101.626 Y110.155 E12.55840
G1 X101.581 Y110.724 E12.60513
G1 X101.436 Y111.873 E12.69992
G1 X101.338 Y112.436 E12.74664
G1 X101.086 Y113.563 E12.84121
G1 X100.764 Y114.670 E12.93555
G1 X100.373 Y115.758 E13.03011
G1 X100.154 Y116.285 E13.07683
G1 X99.662 Y117.331 E13.17140
G1 X99.107 Y118.341 E13.26574
G1 X98.489 Y119.314 E13.36007
G1 X97.812 Y120.247 E13.45441
G1 X97.077 Y121.135 E13.54875
G1 X96.288 Y121.975 E13.64309
G1 X95.447 Y122.764 E13.73743
G1 X94.559 Y123.499 E13.83177
G1 X93.627 Y124.177 E13.92610
G1 X92.653 Y124.794 E14.02044
G1 X91.641 Y125.351 E14.11501
G1 X90.912 Y125.708 E14.18137
G1 X90.912 Y134.525 E14.90293
G1 X90.479 Y134.350 F7800.000
G1 X90.288 Y133.975 F7800.000
G1 X84.337 Y133.975 E15.38987 F1800.000
G1 X84.337 Y125.805 E16.05847
G1 X85.420 Y125.703 E16.14743
G1 X86.346 Y125.562 E16.22410
G1 X87.507 Y125.304 E16.32141
G1 X88.515 Y125.011 E16.40734
G1 X89.503 Y124.656 E16.49326
G1 X90.006 Y124.447 E16.53780
G1 X90.949 Y124.004 E16.62310
G1 X91.430 Y123.749 E16.66763
G1 X92.327 Y123.218 E16.75293
G1 X93.214 Y122.615 E16.84073
G1 X94.038 Y121.977 E16.92603
G1 X94.451 Y121.623 E16.97056
G1 X95.217 Y120.904 E17.05649
G1 X95.936 Y120.139 E17.14242
G1 X96.289 Y119.725 E17.18695
G1 X96.933 Y118.896 E17.27287
G1 X97.517 Y118.035 E17.35800
G1 X97.807 Y117.563 E17.40331
G1 X98.309 Y116.650 E17.48863
G1 X98.549 Y116.161 E17.53317
G1 X98.966 Y115.198 E17.61909
G1 X99.321 Y114.210 E17.70502
G1 X99.621 Y113.179 E17.79282
G1 X99.848 Y112.162 E17.87812
G1 X99.942 Y111.626 E17.92266
G1 X100.072 Y110.592 E18.00795
G1 X100.115 Y110.049 E18.05248
G1 X100.148 Y109.000 E18.13841
G1 X100.115 Y107.960 E18.22354
G1 X100.072 Y107.408 E18.26885
G1 X99.942 Y106.374 E18.35417
G1 X99.848 Y105.838 E18.39871
G1 X99.621 Y104.821 E18.48401
G1 X99.321 Y103.790 E18.57180
G1 X98.966 Y102.802 E18.65773
G1 X98.549 Y101.839 E18.74366
G1 X98.062 Y100.883 E18.83146
G1 X97.527 Y99.979 E18.91739
G1 X96.937 Y99.111 E19.00331
G1 X96.610 Y98.676 E19.04784
G1 X95.941 Y97.867 E19.13377
G1 X95.217 Y97.096 E19.22032
G1 X94.451 Y96.377 E19.30626
G1 X94.038 Y96.023 E19.35078
G1 X93.214 Y95.385 E19.43609
G1 X92.775 Y95.076 E19.47999
G1 X92.327 Y94.782 E19.52389
G1 X91.430 Y94.251 E19.60920
G1 X90.949 Y93.996 E19.65373
G1 X90.006 Y93.553 E19.73902
G1 X89.503 Y93.344 E19.78356
G1 X88.515 Y92.989 E19.86948
G1 X87.516 Y92.698 E19.95461
G1 X86.978 Y92.569 E19.99992
G1 X85.963 Y92.375 E20.08444
G1 X85.415 Y92.297 E20.12976
G1 X84.337 Y92.195 E20.21835
G1 X84.337 Y84.025 E20.88695
G1 X90.288 Y84.025 E21.37390
G1 X90.288 Y92.671 E22.08149
G1 X91.858 Y93.471 E22.22574
G1 X92.329 Y93.740 E22.27005
G1 X93.275 Y94.340 E22.36180
G1 X94.176 Y94.995 E22.45292
G1 X95.040 Y95.709 E22.54468
G1 X95.441 Y96.074 E22.58900
G1 X96.232 Y96.865 E22.68061
G1 X96.965 Y97.696 E22.77124
G1 X97.657 Y98.588 E22.86362
G1 X97.968 Y99.031 E22.90794
G1 X98.564 Y99.970 E22.99892
G1 X99.105 Y100.953 E23.09083
G1 X99.579 Y101.959 E23.18180
G1 X99.790 Y102.468 E23.22689
G1 X100.170 Y103.523 E23.31862
G1 X100.480 Y104.592 E23.40975
G1 X100.725 Y105.686 E23.50150
G1 X100.818 Y106.220 E23.54582
G1 X100.959 Y107.340 E23.63819
G1 X101.002 Y107.879 E23.68249
G1 X101.037 Y109.009 E23.77502
G1 X101.002 Y110.121 E23.86601
G1 X100.959 Y110.660 E23.91033
G1 X100.818 Y111.780 E24.00270
G1 X100.725 Y112.314 E24.04701
G1 X100.480 Y113.408 E24.13877
G1 X100.170 Y114.477 E24.22989
G1 X99.790 Y115.532 E24.32165
G1 X99.583 Y116.032 E24.36596
G1 X99.105 Y117.047 E24.45771
G1 X98.569 Y118.023 E24.54884
G1 X97.972 Y118.963 E24.63996
G1 X97.318 Y119.864 E24.73108
G1 X96.608 Y120.722 E24.82221
G1 X95.846 Y121.533 E24.91333
G1 X95.034 Y122.295 E25.00445
G1 X94.176 Y123.005 E25.09558
G1 X93.275 Y123.660 E25.18670
G1 X92.335 Y124.256 E25.27783
G1 X91.353 Y124.796 E25.36958
G1 X90.288 Y125.318 E25.46663
G1 X90.288 Y133.900 E26.16894
G1 E22.96894 F2760.00000
G92 E0
G1 X89.663 Y92.738 F7800.000
G1 E3.20000 F2760.00000
G1 X88.708 Y92.394 E3.28302 F1800.000
G1 X87.676 Y92.094 E3.37095
G1 X87.110 Y91.958 E3.41866
G1 X86.066 Y91.758 E3.50560
G1 X85.489 Y91.676 E3.55333
G1 X84.962 Y91.626 E3.59661
G1 X84.962 Y84.650 E4.16754
G1 X89.663 Y84.650 E4.55221
G1 X89.663 Y92.663 E5.20795
G1 E2.00795 F2760.00000
G92 E0
G1 X89.663 Y125.262 F7800.000
G1 E3.20000 F2760.00000
G1 X89.663 Y133.350 E3.86188 F1800.000
G1 X84.962 Y133.350 E4.24655
G1 X84.962 Y126.374 E4.81748
G1 X85.496 Y126.323 E4.86136
G1 X86.456 Y126.177 E4.94085
G1 X87.121 Y126.039 E4.99643
G1 X87.667 Y125.909 E5.04233
G1 X88.708 Y125.606 E5.13107
G1 X89.592 Y125.288 E5.20797
G1 X89.975 Y124.959 F7800.000
G1 X91.147 Y124.402 E5.31418 F1800.000
G1 X92.107 Y123.870 E5.40392
G1 X93.025 Y123.292 E5.49275
G1 X93.901 Y122.651 E5.58157
G1 X94.313 Y122.320 E5.62483
G1 X94.746 Y121.956 E5.67106
G1 X95.531 Y121.219 E5.75924
G1 X96.269 Y120.433 E5.84743
G1 X96.963 Y119.588 E5.93691
G1 X97.601 Y118.710 E6.02572
G1 X98.186 Y117.796 E6.11455
G1 X98.709 Y116.845 E6.20339
G1 X98.950 Y116.343 E6.24896
G1 X99.375 Y115.372 E6.33572
G1 X99.746 Y114.340 E6.42547
G1 X100.051 Y113.290 E6.51496
G1 X100.285 Y112.246 E6.60249
G1 X100.378 Y111.714 E6.64666
G1 X100.517 Y110.615 E6.73732
G1 X100.559 Y110.077 E6.78148
G1 X100.592 Y109.004 E6.86932
G1 X100.559 Y107.933 E6.95703
G1 X100.517 Y107.385 E7.00202
G1 X100.378 Y106.286 E7.09268
G1 X100.285 Y105.754 E7.13685
G1 X100.051 Y104.710 E7.22438
G1 X99.746 Y103.660 E7.31386
G1 X99.375 Y102.629 E7.40358
G1 X98.950 Y101.657 E7.49037
G1 X98.709 Y101.156 E7.53592
G1 X98.178 Y100.198 E7.62553
G1 X97.595 Y99.280 E7.71450
G1 X97.299 Y98.852 E7.75709
G1 X96.958 Y98.405 E7.80309
G1 X96.272 Y97.569 E7.89159
G1 X95.531 Y96.787 E7.97976
G1 X95.131 Y96.399 E8.02540
G1 X94.748 Y96.045 E8.06800
G1 X94.313 Y95.680 E8.11449
G1 X93.901 Y95.349 E8.15776
G1 X93.025 Y94.708 E8.24658
G1 X92.097 Y94.124 E8.33632
G1 X91.647 Y93.863 E8.37891
G1 X91.148 Y93.604 E8.42491
G1 X89.975 Y93.035 E8.53159
G1 X85.341 Y90.990 F7800.000
G1 X85.648 Y91.298 E8.57022 F1800.000
G1 X86.795 Y91.485 E8.67352
G1 X85.341 Y90.030 E8.85635
G1 X85.341 Y89.070 E8.94169
G1 X88.029 Y91.758 E9.27964
G1 X89.284 Y92.054 E9.39429
G1 X85.341 Y88.110 E9.89006
G1 X85.341 Y87.150 E9.97541
G1 X89.284 Y91.094 E10.47118
G1 X89.284 Y90.134 E10.55653
G1 X85.341 Y86.190 E11.05230
G1 X85.341 Y85.230 E11.13765
G1 X89.284 Y89.174 E11.63342
G1 X89.284 Y88.214 E11.71877
G1 X86.099 Y85.028 E12.11923
G1 X87.059 Y85.028 E12.20457
G1 X89.284 Y87.254 E12.48433
G1 X89.284 Y86.293 E12.56968
G1 X88.019 Y85.028 E12.72874
G1 X88.979 Y85.028 E12.81409
G1 X89.284 Y85.333 E12.85245
G1 E9.65245 F2760.00000
G92 E0
G1 X89.284 Y126.171 F7800.000
G1 E3.20000 F2760.00000
G1 X88.983 Y125.870 E3.23738 F1800.000
G1 X88.261 Y126.097 E3.30389
G1 X89.284 Y127.120 E3.43099
G1 X89.284 Y128.069 E3.51439
G1 X87.520 Y126.305 E3.73360
G1 X86.746 Y126.479 E3.80338
G1 X89.284 Y129.018 E4.11887
G1 X89.284 Y129.967 E4.20228
G1 X85.938 Y126.620 E4.61817
G1 X85.341 Y126.972 E4.67908
G1 X89.284 Y130.916 E5.16917
G1 X89.284 Y131.865 E5.25257
G1 X85.341 Y127.921 E5.74267
G1 X85.341 Y128.870 E5.82607
G1 X89.284 Y132.814 E6.31616
G1 X88.493 Y132.972 E6.38706
G1 X85.341 Y129.819 E6.77883
G1 X85.341 Y130.768 E6.86223
G1 X87.544 Y132.972 E7.13605
G1 X86.595 Y132.972 E7.21946
G1 X85.341 Y131.718 E7.37533
G1 X85.341 Y132.667 E7.45873
G1 X85.646 Y132.972 E7.49665
G1 E4.29665 F2760.00000
G92 E0
G1 Z0.350 F7800.000
G1 X118.287 Y127.350 F7800.000
G1 E3.20000 F2760.00000
G1 X118.287 Y134.600 E3.79332 F1800.000
G1 X111.087 Y134.600 E4.38254
G1 X111.087 Y125.198 E5.15196
G1 X111.703 Y125.178 E5.20233
G1 X112.216 Y125.138 E5.24445
G1 X113.221 Y125.011 E5.32733
G1 X113.728 Y124.922 E5.36946
G1 X114.719 Y124.701 E5.45257
G1 X115.694 Y124.418 E5.53568
G1 X116.181 Y124.251 E5.57781
G1 X117.125 Y123.877 E5.66092
G1 X118.036 Y123.449 E5.74325
G1 X118.499 Y123.204 E5.78615
G1 X119.371 Y122.688 E5.86905
G1 X120.218 Y122.113 E5.95283
G1 X121.018 Y121.492 E6.03572
G1 X121.409 Y121.158 E6.07784
G1 X122.148 Y120.464 E6.16073
G1 X122.506 Y120.095 E6.20286
G1 X123.171 Y119.340 E6.28518
G1 X123.802 Y118.528 E6.36930
G1 X124.373 Y117.688 E6.45242
G1 X124.642 Y117.249 E6.49454
G1 X125.130 Y116.362 E6.57743
G1 X125.423 Y115.763 E6.63201
G1 X125.760 Y114.966 E6.70280
G1 X126.100 Y114.021 E6.78501
G1 X126.254 Y113.523 E6.82769
G1 X126.389 Y113.029 E6.86959
G1 X126.611 Y112.037 E6.95271
G1 X126.770 Y111.032 E7.03605
G1 X126.865 Y110.021 E7.11916
G1 X126.890 Y109.506 E7.16128
G1 X126.890 Y108.491 E7.24440
G1 X126.826 Y107.474 E7.32773
G1 X126.698 Y106.467 E7.41085
G1 X126.610 Y105.960 E7.45297
G1 X126.388 Y104.969 E7.53609
G1 X126.104 Y103.991 E7.61942
G1 X125.760 Y103.035 E7.70254
G1 X125.563 Y102.560 E7.74466
G1 X125.132 Y101.643 E7.82755
G1 X124.891 Y101.188 E7.86967
G1 X124.374 Y100.314 E7.95279
G1 X123.802 Y99.472 E8.03612
G1 X123.179 Y98.669 E8.11924
G1 X122.845 Y98.278 E8.16136
G1 X122.150 Y97.538 E8.24447
G1 X121.407 Y96.841 E8.32782
G1 X120.625 Y96.193 E8.41093
G1 X120.213 Y95.884 E8.45305
G1 X119.373 Y95.313 E8.53616
G1 X118.497 Y94.795 E8.61950
G1 X117.589 Y94.333 E8.70284
G1 X116.655 Y93.928 E8.78618
G1 X115.697 Y93.583 E8.86952
G1 X114.721 Y93.300 E8.95263
G1 X114.221 Y93.180 E8.99475
G1 X113.226 Y92.990 E9.07764
G1 X112.716 Y92.917 E9.11977
G1 X111.705 Y92.822 E9.20286
G1 X111.087 Y92.802 E9.25347
G1 X111.087 Y83.400 E10.02288
G1 X118.287 Y83.400 E10.61211
G1 X118.287 Y90.650 E11.20542
G1 X134.287 Y90.650 E12.51481
G1 X134.287 Y127.350 E15.51821
G1 X118.363 Y127.350 E16.82146
G1 X117.787 Y127.350 F7800.000
G1 X117.663 Y126.725 F7800.000
G1 X117.663 Y133.975 E17.41478 F1800.000
G1 X111.712 Y133.975 E17.90172
G1 X111.712 Y125.804 E18.57039
G1 X112.279 Y125.760 E18.61694
G1 X113.313 Y125.629 E18.70224
G1 X113.850 Y125.536 E18.74678
G1 X114.874 Y125.306 E18.83270
G1 X115.883 Y125.014 E18.91863
G1 X116.397 Y124.837 E18.96316
G1 X117.374 Y124.451 E19.04908
G1 X118.315 Y124.008 E19.13421
G1 X118.804 Y123.749 E19.17952
G1 X119.702 Y123.218 E19.26484
G1 X120.589 Y122.615 E19.35264
G1 X121.413 Y121.977 E19.43795
G1 X121.826 Y121.623 E19.48247
G1 X122.586 Y120.910 E19.56778
G1 X122.965 Y120.519 E19.61231
G1 X123.653 Y119.739 E19.69744
G1 X124.308 Y118.896 E19.78478
G1 X124.898 Y118.027 E19.87072
G1 X125.182 Y117.563 E19.91525
G1 X125.684 Y116.650 E20.00055
G1 X125.992 Y116.022 E20.05775
G1 X126.342 Y115.194 E20.13135
G1 X126.693 Y114.219 E20.21615
G1 X126.854 Y113.697 E20.26083
G1 X126.996 Y113.179 E20.30476
G1 X127.225 Y112.155 E20.39069
G1 X127.390 Y111.110 E20.47724
G1 X127.489 Y110.065 E20.56316
