; generated by Slic3r 1.2.9 on 2015-09-22 at 20:16:33

; external perimeters extrusion width = 0.50mm
; perimeters extrusion width = 0.50mm
; infill extrusion width = 0.50mm
; solid infill extrusion width = 0.50mm
; top infill extrusion width = 0.50mm

M107
M190 S57 ; set bed temperature
M104 S200 ; set temperature
G28 ; home all axes
M83;
G10 P0 S195 R160
T0

M109 S200 ; wait for temperature to be reached
G21 ; set units to millimeters
G90 ; use absolute coordinates
M83 ; use relative distances for extrusion
G1 E-3.50000 F2400.00000
G1 Z0.300 F9000.000
G1 X37.091 Y56.698 F9000.000
G1 E3.50000 F2400.00000
G1 X38.731 Y55.778 E0.17255 F1800.000
G1 X40.050 Y55.579 E0.12239
G1 X159.950 Y55.579 E11.00089
G1 X161.789 Y55.974 E0.17255
G1 X163.302 Y57.091 E0.17255 F1800.000
G1 X164.222 Y58.731 E0.17255
G1 X164.421 Y60.050 E0.12239
G1 X164.421 Y139.950 E7.33087
G1 X164.026 Y141.789 E0.17255
G1 X162.909 Y143.302 E0.17255
G1 X161.269 Y144.222 E0.17255
G1 X159.950 Y144.421 E0.12239
G1 X40.050 Y144.421 E11.00089
G1 X38.211 Y144.026 E0.17255
G1 X36.698 Y142.909 E0.17255
G1 X35.778 Y141.269 E0.17255
G1 X35.579 Y139.950 E0.12239
G1 X35.579 Y60.050 E7.33087
G1 X35.974 Y58.211 E0.17255
G1 X37.046 Y56.758 E0.16567
G1 X37.693 Y57.201 F9000.000
G1 X37.810 Y57.061 E0.01672 F1800.000
G1 X40.050 Y56.314 E0.21667
G1 X159.950 Y56.314 E11.00089
G1 X161.621 Y56.709 E0.15755
G1 X162.939 Y57.810 E0.15755 F1800.000
G1 X163.686 Y60.050 E0.21667
G1 X163.686 Y139.950 E7.33087
G1 X163.291 Y141.621 E0.15755
G1 X162.190 Y142.939 E0.15755
G1 X159.950 Y143.686 E0.21667
G1 X40.050 Y143.686 E11.00089
G1 X38.379 Y143.291 E0.15755
G1 X37.061 Y142.190 E0.15755
G1 X36.314 Y139.950 E0.21667
G1 X36.314 Y60.050 E7.33087
G1 X36.709 Y58.379 E0.15755
G1 X37.645 Y57.258 E0.13395
G1 E-3.50000 F2400.00000
G1 X41.186 Y138.814 F9000.000
G1 E3.50000 F2400.00000
G1 X41.186 Y61.186 E7.12248 F1350.000
G1 X158.814 Y61.186 E10.79250
G1 X158.814 Y138.814 E7.12248
G1 X41.261 Y138.814 E10.78562
G1 X40.450 Y139.550 F9000.000
G1 X40.450 Y60.450 E7.25747 F1350.000
G1 X159.550 Y60.450 E10.92749
G1 X159.550 Y139.550 E7.25747
G1 X40.525 Y139.550 E10.92060
G1 X40.700 Y139.117 F9000.000
G1 X41.987 Y138.365 F9000.000
G1 X41.635 Y138.013 E0.04574 F1350.000
G1 X41.635 Y136.971 E0.09574
G1 X43.029 Y138.365 E0.18114
G1 X44.071 Y138.365 E0.09574
G1 X41.635 Y135.929 E0.31655
G1 X41.635 Y134.887 E0.09574
G1 X45.113 Y138.365 E0.45195
G1 X46.155 Y138.365 E0.09574
G1 X41.635 Y133.845 E0.58735
G1 X41.635 Y132.804 E0.09574
G1 X47.196 Y138.365 E0.72276
G1 X48.238 Y138.365 E0.09574
G1 X41.635 Y131.762 E0.85816
G1 X41.635 Y130.720 E0.09574
G1 X49.280 Y138.365 E0.99357
G1 X50.322 Y138.365 E0.09574
G1 X41.635 Y129.678 E1.12897
G1 X41.635 Y128.636 E0.09574
G1 X51.364 Y138.365 E1.26437
G1 X52.406 Y138.365 E0.09574
G1 X41.635 Y127.594 E1.39978
G1 X41.635 Y126.552 E0.09574
G1 X53.448 Y138.365 E1.53518
G1 X54.490 Y138.365 E0.09574
G1 X41.635 Y125.510 E1.67058
G1 X41.635 Y124.468 E0.09574
G1 X55.532 Y138.365 E1.80599
G1 X56.574 Y138.365 E0.09574
G1 X41.635 Y123.426 E1.94139
G1 X41.635 Y122.384 E0.09574
G1 X57.616 Y138.365 E2.07680
G1 X58.658 Y138.365 E0.09574
G1 X41.635 Y121.342 E2.21220
G1 X41.635 Y120.300 E0.09574
G1 X59.700 Y138.365 E2.34760
G1 X60.741 Y138.365 E0.09574
G1 X41.635 Y119.259 E2.48301
G1 X41.635 Y118.217 E0.09574
G1 X61.783 Y138.365 E2.61841
G1 X62.825 Y138.365 E0.09574
G1 X41.635 Y117.175 E2.75381
G1 X41.635 Y116.133 E0.09574
G1 X63.867 Y138.365 E2.88922
G1 X64.909 Y138.365 E0.09574
G1 X41.635 Y115.091 E3.02462
G1 X41.635 Y114.049 E0.09574
G1 X65.951 Y138.365 E3.16002
G1 X66.993 Y138.365 E0.09574
G1 X41.635 Y113.007 E3.29543
G1 X41.635 Y111.965 E0.09574
G1 X68.035 Y138.365 E3.43083
G1 X69.077 Y138.365 E0.09574
G1 X41.635 Y110.923 E3.56624
G1 X41.635 Y109.881 E0.09574
G1 X70.119 Y138.365 E3.70164
G1 X71.161 Y138.365 E0.09574
G1 X41.635 Y108.839 E3.83704
G1 X41.635 Y107.797 E0.09574
G1 X72.203 Y138.365 E3.97245
G1 X73.245 Y138.365 E0.09574
G1 X41.635 Y106.755 E4.10785
G1 X41.635 Y105.713 E0.09574
G1 X74.287 Y138.365 E4.24325
G1 X75.328 Y138.365 E0.09574
G1 X41.635 Y104.672 E4.37866
G1 X41.635 Y103.630 E0.09574
G1 X76.370 Y138.365 E4.51406
G1 X77.412 Y138.365 E0.09574
G1 X41.635 Y102.588 E4.64946
G1 X41.635 Y101.546 E0.09574
G1 X78.454 Y138.365 E4.78487
G1 X79.496 Y138.365 E0.09574
G1 X41.635 Y100.504 E4.92027
G1 X41.635 Y99.462 E0.09574
G1 X80.538 Y138.365 E5.05568
G1 X81.580 Y138.365 E0.09574
G1 X41.635 Y98.420 E5.19108
G1 X41.635 Y97.378 E0.09574
G1 X82.622 Y138.365 E5.32648
G1 X83.664 Y138.365 E0.09574
G1 X41.635 Y96.336 E5.46189
G1 X41.635 Y95.294 E0.09574
G1 X84.706 Y138.365 E5.59729
G1 X85.748 Y138.365 E0.09574
G1 X41.635 Y94.252 E5.73269
G1 X41.635 Y93.210 E0.09574
G1 X86.790 Y138.365 E5.86810
G1 X87.832 Y138.365 E0.09574
G1 X41.635 Y92.168 E6.00350
G1 X41.635 Y91.126 E0.09574
G1 X88.874 Y138.365 E6.13890
G1 X89.915 Y138.365 E0.09574
G1 X41.635 Y90.085 E6.27431
G1 X41.635 Y89.043 E0.09574
G1 X90.957 Y138.365 E6.40971
G1 X91.999 Y138.365 E0.09574
G1 X41.635 Y88.001 E6.54512
G1 X41.635 Y86.959 E0.09574
G1 X93.041 Y138.365 E6.68052
G1 X94.083 Y138.365 E0.09574
G1 X41.635 Y85.917 E6.81592
G1 X41.635 Y84.875 E0.09574
G1 X95.125 Y138.365 E6.95133
G1 X96.167 Y138.365 E0.09574
G1 X41.635 Y83.833 E7.08673
G1 X41.635 Y82.791 E0.09574
G1 X97.209 Y138.365 E7.22213
G1 X98.251 Y138.365 E0.09574
G1 X41.635 Y81.749 E7.35754
G1 X41.635 Y80.707 E0.09574
G1 X99.293 Y138.365 E7.49294
G1 X100.335 Y138.365 E0.09574
G1 X41.635 Y79.665 E7.62835
G1 X41.635 Y78.623 E0.09574
G1 X101.377 Y138.365 E7.76375
G1 X102.419 Y138.365 E0.09574
G1 X41.635 Y77.581 E7.89915
G1 X41.635 Y76.539 E0.09574
G1 X103.461 Y138.365 E8.03456
G1 X104.502 Y138.365 E0.09574
G1 X41.635 Y75.498 E8.16996
G1 X41.635 Y74.456 E0.09574
G1 X105.544 Y138.365 E8.30536
G1 X106.586 Y138.365 E0.09574
G1 X41.635 Y73.414 E8.44077
G1 X41.635 Y72.372 E0.09574
G1 X107.628 Y138.365 E8.57617
G1 X108.670 Y138.365 E0.09574
G1 X41.635 Y71.330 E8.71157
G1 X41.635 Y70.288 E0.09574
G1 X109.712 Y138.365 E8.84698
G1 X110.754 Y138.365 E0.09574
G1 X41.635 Y69.246 E8.98238
G1 X41.635 Y68.204 E0.09574
G1 X111.796 Y138.365 E9.11779
G1 X112.838 Y138.365 E0.09574
G1 X41.635 Y67.162 E9.25319
G1 X41.635 Y66.120 E0.09574
G1 X113.880 Y138.365 E9.38859
G1 X114.922 Y138.365 E0.09574
G1 X41.635 Y65.078 E9.52400
G1 X41.635 Y64.036 E0.09574
G1 X115.964 Y138.365 E9.65940
G1 X117.006 Y138.365 E0.09574
G1 X41.635 Y62.994 E9.79480
G1 X41.635 Y61.952 E0.09574
G1 X118.048 Y138.365 E9.93021
G1 X119.089 Y138.365 E0.09574
G1 X42.359 Y61.635 E9.97149
G1 X43.401 Y61.635 E0.09574
G1 X120.131 Y138.365 E9.97149
G1 X121.173 Y138.365 E0.09574
G1 X44.443 Y61.635 E9.97149
G1 X45.485 Y61.635 E0.09574
G1 X122.215 Y138.365 E9.97149
G1 X123.257 Y138.365 E0.09574
G1 X46.527 Y61.635 E9.97149
G1 X47.569 Y61.635 E0.09574
G1 X124.299 Y138.365 E9.97149
G1 X125.341 Y138.365 E0.09574
G1 X48.611 Y61.635 E9.97149
G1 X49.653 Y61.635 E0.09574
G1 X126.383 Y138.365 E9.97149
G1 X127.425 Y138.365 E0.09574
G1 X50.695 Y61.635 E9.97149
G1 X51.736 Y61.635 E0.09574
G1 X128.467 Y138.365 E9.97149
G1 X129.509 Y138.365 E0.09574
G1 X52.778 Y61.635 E9.97149
G1 X53.820 Y61.635 E0.09574
G1 X130.551 Y138.365 E9.97149
G1 X131.593 Y138.365 E0.09574
G1 X54.862 Y61.635 E9.97149
G1 X55.904 Y61.635 E0.09574
G1 X132.635 Y138.365 E9.97149
G1 X133.676 Y138.365 E0.09574
G1 X56.946 Y61.635 E9.97149
G1 X57.988 Y61.635 E0.09574
G1 X134.718 Y138.365 E9.97149
G1 X135.760 Y138.365 E0.09574
G1 X59.030 Y61.635 E9.97149
G1 X60.072 Y61.635 E0.09574
G1 X136.802 Y138.365 E9.97149
G1 X137.844 Y138.365 E0.09574
G1 X61.114 Y61.635 E9.97149
G1 X62.156 Y61.635 E0.09574
G1 X138.886 Y138.365 E9.97149
G1 X139.928 Y138.365 E0.09574
G1 X63.198 Y61.635 E9.97149
G1 X64.240 Y61.635 E0.09574
G1 X140.970 Y138.365 E9.97149
G1 X142.012 Y138.365 E0.09574
G1 X65.282 Y61.635 E9.97149
G1 X66.323 Y61.635 E0.09574
G1 X143.054 Y138.365 E9.97149
G1 X144.096 Y138.365 E0.09574
G1 X67.365 Y61.635 E9.97149
G1 X68.407 Y61.635 E0.09574
G1 X145.138 Y138.365 E9.97149
G1 X146.180 Y138.365 E0.09574
G1 X69.449 Y61.635 E9.97149
G1 X70.491 Y61.635 E0.09574
G1 X147.221 Y138.365 E9.97149
G1 X148.263 Y138.365 E0.09574
G1 X71.533 Y61.635 E9.97149
G1 X72.575 Y61.635 E0.09574
G1 X149.305 Y138.365 E9.97149
G1 X150.347 Y138.365 E0.09574
G1 X73.617 Y61.635 E9.97149
G1 X74.659 Y61.635 E0.09574
G1 X151.389 Y138.365 E9.97149
G1 X152.431 Y138.365 E0.09574
G1 X75.701 Y61.635 E9.97149
G1 X76.743 Y61.635 E0.09574
G1 X153.473 Y138.365 E9.97149
G1 X154.515 Y138.365 E0.09574
G1 X77.785 Y61.635 E9.97149
G1 X78.827 Y61.635 E0.09574
G1 X155.557 Y138.365 E9.97149
G1 X156.599 Y138.365 E0.09574
G1 X79.868 Y61.635 E9.97149
G1 X80.910 Y61.635 E0.09574
G1 X157.641 Y138.365 E9.97149
G1 X158.365 Y138.048 E0.07268
G1 X81.952 Y61.635 E9.93022
G1 X82.994 Y61.635 E0.09574
G1 X158.365 Y137.006 E9.79482
G1 X158.365 Y135.964 E0.09574
G1 X84.036 Y61.635 E9.65942
G1 X85.078 Y61.635 E0.09574
G1 X158.365 Y134.922 E9.52401
G1 X158.365 Y133.880 E0.09574
G1 X86.120 Y61.635 E9.38861
G1 X87.162 Y61.635 E0.09574
G1 X158.365 Y132.838 E9.25321
G1 X158.365 Y131.796 E0.09574
G1 X88.204 Y61.635 E9.11780
G1 X89.246 Y61.635 E0.09574
G1 X158.365 Y130.754 E8.98240
G1 X158.365 Y129.712 E0.09574
G1 X90.288 Y61.635 E8.84699
G1 X91.330 Y61.635 E0.09574
G1 X158.365 Y128.670 E8.71159
G1 X158.365 Y127.628 E0.09574
G1 X92.372 Y61.635 E8.57619
G1 X93.414 Y61.635 E0.09574
G1 X158.365 Y126.586 E8.44078
G1 X158.365 Y125.545 E0.09574
G1 X94.455 Y61.635 E8.30538
G1 X95.497 Y61.635 E0.09574
G1 X158.365 Y124.503 E8.16998
G1 X158.365 Y123.461 E0.09574
G1 X96.539 Y61.635 E8.03457
G1 X97.581 Y61.635 E0.09574
G1 X158.365 Y122.419 E7.89917
G1 X158.365 Y121.377 E0.09574
G1 X98.623 Y61.635 E7.76377
G1 X99.665 Y61.635 E0.09574
G1 X158.365 Y120.335 E7.62836
G1 X158.365 Y119.293 E0.09574
G1 X100.707 Y61.635 E7.49296
G1 X101.749 Y61.635 E0.09574
G1 X158.365 Y118.251 E7.35755
G1 X158.365 Y117.209 E0.09574
G1 X102.791 Y61.635 E7.22215
G1 X103.833 Y61.635 E0.09574
G1 X158.365 Y116.167 E7.08675
G1 X158.365 Y115.125 E0.09574
G1 X104.875 Y61.635 E6.95134
G1 X105.917 Y61.635 E0.09574
G1 X158.365 Y114.083 E6.81594
G1 X158.365 Y113.041 E0.09574
G1 X106.959 Y61.635 E6.68054
G1 X108.001 Y61.635 E0.09574
G1 X158.365 Y111.999 E6.54513
G1 X158.365 Y110.958 E0.09574
G1 X109.042 Y61.635 E6.40973
G1 X110.084 Y61.635 E0.09574
G1 X158.365 Y109.916 E6.27433
G1 X158.365 Y108.874 E0.09574
G1 X111.126 Y61.635 E6.13892
G1 X112.168 Y61.635 E0.09574
G1 X158.365 Y107.832 E6.00352
G1 X158.365 Y106.790 E0.09574
G1 X113.210 Y61.635 E5.86811
G1 X114.252 Y61.635 E0.09574
G1 X158.365 Y105.748 E5.73271
G1 X158.365 Y104.706 E0.09574
G1 X115.294 Y61.635 E5.59731
G1 X116.336 Y61.635 E0.09574
G1 X158.365 Y103.664 E5.46190
G1 X158.365 Y102.622 E0.09574
G1 X117.378 Y61.635 E5.32650
G1 X118.420 Y61.635 E0.09574
G1 X158.365 Y101.580 E5.19110
G1 X158.365 Y100.538 E0.09574
G1 X119.462 Y61.635 E5.05569
G1 X120.504 Y61.635 E0.09574
G1 X158.365 Y99.496 E4.92029
G1 X158.365 Y98.454 E0.09574
G1 X121.546 Y61.635 E4.78489
G1 X122.588 Y61.635 E0.09574
G1 X158.365 Y97.412 E4.64948
G1 X158.365 Y96.371 E0.09574
G1 X123.629 Y61.635 E4.51408
G1 X124.671 Y61.635 E0.09574
G1 X158.365 Y95.329 E4.37867
G1 X158.365 Y94.287 E0.09574
G1 X125.713 Y61.635 E4.24327
G1 X126.755 Y61.635 E0.09574
G1 X158.365 Y93.245 E4.10787
G1 X158.365 Y92.203 E0.09574
G1 X127.797 Y61.635 E3.97246
G1 X128.839 Y61.635 E0.09574
G1 X158.365 Y91.161 E3.83706
G1 X158.365 Y90.119 E0.09574
G1 X129.881 Y61.635 E3.70166
G1 X130.923 Y61.635 E0.09574
G1 X158.365 Y89.077 E3.56625
G1 X158.365 Y88.035 E0.09574
G1 X131.965 Y61.635 E3.43085
G1 X133.007 Y61.635 E0.09574
G1 X158.365 Y86.993 E3.29544
G1 X158.365 Y85.951 E0.09574
G1 X134.049 Y61.635 E3.16004
G1 X135.091 Y61.635 E0.09574
G1 X158.365 Y84.909 E3.02464
G1 X158.365 Y83.867 E0.09574
G1 X136.133 Y61.635 E2.88923
G1 X137.175 Y61.635 E0.09574
G1 X158.365 Y82.825 E2.75383
G1 X158.365 Y81.784 E0.09574
G1 X138.216 Y61.635 E2.61843
G1 X139.258 Y61.635 E0.09574
G1 X158.365 Y80.742 E2.48302
G1 X158.365 Y79.700 E0.09574
G1 X140.300 Y61.635 E2.34762
G1 X141.342 Y61.635 E0.09574
G1 X158.365 Y78.658 E2.21222
G1 X158.365 Y77.616 E0.09574
G1 X142.384 Y61.635 E2.07681
G1 X143.426 Y61.635 E0.09574
G1 X158.365 Y76.574 E1.94141
G1 X158.365 Y75.532 E0.09574
G1 X144.468 Y61.635 E1.80600
G1 X145.510 Y61.635 E0.09574
G1 X158.365 Y74.490 E1.67060
G1 X158.365 Y73.448 E0.09574
G1 X146.552 Y61.635 E1.53520
G1 X147.594 Y61.635 E0.09574
G1 X158.365 Y72.406 E1.39979
G1 X158.365 Y71.364 E0.09574
G1 X148.636 Y61.635 E1.26439
G1 X149.678 Y61.635 E0.09574
G1 X158.365 Y70.322 E1.12899
G1 X158.365 Y69.280 E0.09574
G1 X150.720 Y61.635 E0.99358
G1 X151.762 Y61.635 E0.09574
G1 X158.365 Y68.238 E0.85818
G1 X158.365 Y67.197 E0.09574
G1 X152.803 Y61.635 E0.72278
G1 X153.845 Y61.635 E0.09574
G1 X158.365 Y66.155 E0.58737
G1 X158.365 Y65.113 E0.09574
G1 X154.887 Y61.635 E0.45197
G1 X155.929 Y61.635 E0.09574
G1 X158.365 Y64.071 E0.31656
G1 X158.365 Y63.029 E0.09574
G1 X156.971 Y61.635 E0.18116
G1 X158.013 Y61.635 E0.09574
G1 X158.365 Y61.987 E0.04576
M104 S190 ; set temperature
G1 E-3.50000 F2400.00000
G1 Z0.600 F9000.000
G1 X40.736 Y139.264 F9000.000
G1 E3.50000 F2400.00000
G1 X40.736 Y60.736 E4.26669 F1800.000
G1 X159.264 Y60.736 E6.44001
G1 X159.264 Y139.264 E4.26669
G1 X40.811 Y139.264 E6.43593
G1 X40.300 Y139.700 F9000.000
G1 X40.300 Y60.300 E4.31403 F1800.000
G1 X159.700 Y60.300 E6.48734
G1 X159.700 Y139.700 E4.31403
G1 X40.375 Y139.700 E6.48327
G1 X40.550 Y139.267 F9000.000
G1 X41.835 Y60.993 F9000.000
G1 X40.993 Y61.835 E0.06476 F1800.000
G1 X40.993 Y62.452 E0.03357
G1 X42.452 Y60.993 E0.11224
G1 X43.069 Y60.993 E0.03357
G1 X40.993 Y63.069 E0.15971
G1 X40.993 Y63.686 E0.03357
G1 X43.686 Y60.993 E0.20719
G1 X44.303 Y60.993 E0.03357
G1 X40.993 Y64.303 E0.25466
G1 X40.993 Y64.920 E0.03357
G1 X44.920 Y60.993 E0.30214
G1 X45.537 Y60.993 E0.03357
G1 X40.993 Y65.537 E0.34961
G1 X40.993 Y66.154 E0.03357
G1 X46.154 Y60.993 E0.39709
G1 X46.771 Y60.993 E0.03357
G1 X40.993 Y66.771 E0.44457
G1 X40.993 Y67.388 E0.03357
G1 X47.388 Y60.993 E0.49204
G1 X48.005 Y60.993 E0.03357
G1 X40.993 Y68.005 E0.53952
G1 X40.993 Y68.622 E0.03357
G1 X48.622 Y60.993 E0.58699
G1 X49.239 Y60.993 E0.03357
G1 X40.993 Y69.239 E0.63447
G1 X40.993 Y69.856 E0.03357
G1 X49.856 Y60.993 E0.68194
G1 X50.472 Y60.993 E0.03357
G1 X40.993 Y70.473 E0.72942
G1 X40.993 Y71.089 E0.03357
G1 X51.089 Y60.993 E0.77689
G1 X51.706 Y60.993 E0.03357
G1 X40.993 Y71.706 E0.82437
G1 X40.993 Y72.323 E0.03357
G1 X52.323 Y60.993 E0.87185
G1 X52.940 Y60.993 E0.03357
G1 X40.993 Y72.940 E0.91932
G1 X40.993 Y73.557 E0.03357
G1 X53.557 Y60.993 E0.96680
G1 X54.174 Y60.993 E0.03357
G1 X40.993 Y74.174 E1.01427
G1 X40.993 Y74.791 E0.03357
G1 X54.791 Y60.993 E1.06175
G1 X55.408 Y60.993 E0.03357
G1 X40.993 Y75.408 E1.10922
G1 X40.993 Y76.025 E0.03357
G1 X56.025 Y60.993 E1.15670
G1 X56.642 Y60.993 E0.03357
G1 X40.993 Y76.642 E1.20418
G1 X40.993 Y77.259 E0.03357
G1 X57.259 Y60.993 E1.25165
G1 X57.876 Y60.993 E0.03357
G1 X40.993 Y77.876 E1.29913
G1 X40.993 Y78.493 E0.03357
G1 X58.493 Y60.993 E1.34660
G1 X59.110 Y60.993 E0.03357
G1 X40.993 Y79.110 E1.39408
G1 X40.993 Y79.727 E0.03357
G1 X59.727 Y60.993 E1.44155
G1 X60.344 Y60.993 E0.03357
G1 X40.993 Y80.344 E1.48903
G1 X40.993 Y80.961 E0.03357
G1 X60.961 Y60.993 E1.53651
G1 X61.578 Y60.993 E0.03357
G1 X40.993 Y81.578 E1.58398
G1 X40.993 Y82.195 E0.03357
G1 X62.195 Y60.993 E1.63146
G1 X62.812 Y60.993 E0.03357
G1 X40.993 Y82.812 E1.67893
G1 X40.993 Y83.429 E0.03357
G1 X63.429 Y60.993 E1.72641
G1 X64.046 Y60.993 E0.03357
G1 X40.993 Y84.046 E1.77388
G1 X40.993 Y84.663 E0.03357
G1 X64.663 Y60.993 E1.82136
G1 X65.280 Y60.993 E0.03357
G1 X40.993 Y85.280 E1.86883
G1 X40.993 Y85.897 E0.03357
G1 X65.897 Y60.993 E1.91631
G1 X66.513 Y60.993 E0.03357
G1 X40.993 Y86.513 E1.96379
G1 X40.993 Y87.130 E0.03357
G1 X67.130 Y60.993 E2.01126
G1 X67.747 Y60.993 E0.03357
G1 X40.993 Y87.747 E2.05874
G1 X40.993 Y88.364 E0.03357
G1 X68.364 Y60.993 E2.10621
G1 X68.981 Y60.993 E0.03357
G1 X40.993 Y88.981 E2.15369
G1 X40.993 Y89.598 E0.03357
G1 X69.598 Y60.993 E2.20116
