; generated by Slic3r 1.3.0 on 2019-08-23 at 19:00:58

; external perimeters extrusion width = 0.55mm (4.37mm^3/s)
; perimeters extrusion width = 0.70mm (11.44mm^3/s)
; infill extrusion width = 0.63mm (13.45mm^3/s)
; solid infill extrusion width = 0.70mm (3.81mm^3/s)
; top infill extrusion width = 0.70mm (2.86mm^3/s)

M107
M190 S65 ; set bed temperature and wait for it to be reached
M104 S205 ; set temperature
G28 ; home all axes
G1 Z5 F5000 ; lift nozzle

; Filament gcode

M109 S205 ; set temperature and wait for it to be reached
G21 ; set units to millimeters
G90 ; use absolute coordinates
M82 ; use absolute distances for extrusion
G92 E0
G1 Z0.350 F7800.000
G1 E-2.00000 F2400.00000
G92 E0
G1 X66.175 Y69.309 F7800.000
G1 E2.00000 F2400.00000
G1 F1800
G1 X67.966 Y67.562 E2.22750
G1 X70.214 Y66.464 E2.45500
G1 X72.500 Y66.125 E2.66512
G1 X127.500 Y66.125 E7.66625
G1 X129.970 Y66.523 E7.89375
G1 X132.191 Y67.675 E8.12125
G1 X133.938 Y69.466 E8.34875
G1 X135.036 Y71.714 E8.57625
G1 X135.375 Y74.000 E8.78637
G1 X135.375 Y126.000 E13.51470
G1 X134.977 Y128.470 E13.74220
G1 X133.825 Y130.691 E13.96971
G1 X132.034 Y132.438 E14.19721
G1 X129.786 Y133.536 E14.42471
G1 X127.500 Y133.875 E14.63482
G1 X72.500 Y133.875 E19.63595
G1 X70.030 Y133.477 E19.86345
G1 X67.809 Y132.325 E20.09095
G1 X66.062 Y130.534 E20.31845
G1 X64.964 Y128.286 E20.54595
G1 X64.625 Y126.000 E20.75607
G1 X64.625 Y74.000 E25.48441
G1 X65.023 Y71.530 E25.71191
G1 X66.141 Y69.376 E25.93259
G1 X66.796 Y69.526 F7800.000
G1 F1800
G1 X68.569 Y67.909 E26.15082
G1 X70.773 Y66.959 E26.36905
G1 X72.500 Y66.750 E26.52722
G1 X127.500 Y66.750 E31.52834
G1 X129.867 Y67.147 E31.74657
G1 X131.974 Y68.296 E31.96480
G1 X133.591 Y70.069 E32.18303
G1 X134.541 Y72.273 E32.40126
G1 X134.750 Y74.000 E32.55943
G1 X134.750 Y126.000 E37.28776
G1 X134.353 Y128.367 E37.50599
G1 X133.204 Y130.474 E37.72422
G1 X131.431 Y132.091 E37.94245
G1 X129.227 Y133.041 E38.16067
G1 X127.500 Y133.250 E38.31885
G1 X72.500 Y133.250 E43.31997
G1 X70.133 Y132.853 E43.53820
G1 X68.026 Y131.704 E43.75643
G1 X66.409 Y129.931 E43.97466
G1 X65.459 Y127.727 E44.19288
G1 X65.250 Y126.000 E44.35105
G1 X65.250 Y74.000 E49.07939
G1 X65.647 Y71.633 E49.29762
G1 X66.760 Y69.592 E49.50903
G1 X67.415 Y69.753 F7800.000
G1 F1800
G1 X69.168 Y68.274 E49.71757
G1 X71.320 Y67.481 E49.92611
G1 X72.500 Y67.375 E50.03382
G1 X127.500 Y67.375 E55.03495
G1 X129.759 Y67.772 E55.24349
G1 X131.747 Y68.915 E55.45203
G1 X133.226 Y70.668 E55.66058
G1 X134.019 Y72.820 E55.86912
G1 X134.125 Y74.000 E55.97683
G1 X134.125 Y126.000 E60.70517
G1 X133.728 Y128.259 E60.91371
G1 X132.585 Y130.247 E61.12225
G1 X130.832 Y131.726 E61.33079
G1 X128.680 Y132.519 E61.53933
G1 X127.500 Y132.625 E61.64704
G1 X72.500 Y132.625 E66.64817
G1 X70.241 Y132.228 E66.85671
G1 X68.253 Y131.085 E67.06526
G1 X66.774 Y129.332 E67.27380
G1 X65.981 Y127.180 E67.48234
G1 X65.875 Y126.000 E67.59005
G1 X65.875 Y74.000 E72.31839
G1 X66.272 Y71.741 E72.52693
G1 X67.378 Y69.818 E72.72865
G1 E70.72865 F2400.00000
G92 E0
G1 X125.900 Y124.400 F7800.000
G1 E2.00000 F2400.00000
G1 F1800
G1 X74.100 Y124.400 E6.71019
G1 X74.100 Y75.600 E11.14760
G1 X125.900 Y75.600 E15.85779
G1 X125.900 Y124.325 E20.28837
G1 X126.525 Y125.025 F7800.000
G1 F1800
G1 X73.475 Y125.025 E25.11221
G1 X73.475 Y74.975 E29.66325
G1 X126.525 Y74.975 E34.48709
G1 X126.525 Y124.950 E39.03131
G1 X127.150 Y125.650 F7800.000
G1 F1800
G1 X72.850 Y125.650 E43.96879
G1 X72.850 Y74.350 E48.63348
G1 X127.150 Y74.350 E53.57095
G1 X127.150 Y125.575 E58.22882
G1 X126.666 Y125.525 F7800.000
G1 E56.22882 F2400.00000
G92 E0
G1 X125.032 Y124.018 F7800.000
G1 E2.00000 F2400.00000
G1 F1800
G1 X125.518 Y123.532 E2.06253
G1 X125.518 Y122.648 E2.14289
G1 X124.148 Y124.018 E2.31908
G1 X123.265 Y124.018 E2.39945
G1 X125.518 Y121.765 E2.68929
G1 X125.518 Y120.881 E2.76966
G1 X122.381 Y124.018 E3.17316
G1 X121.497 Y124.018 E3.25353
G1 X125.518 Y119.997 E3.77069
G1 X125.518 Y119.113 E3.85106
G1 X120.613 Y124.018 E4.48188
G1 X119.729 Y124.018 E4.56225
G1 X125.518 Y118.229 E5.30673
G1 X125.518 Y117.346 E5.38710
G1 X118.846 Y124.018 E6.24524
G1 X117.962 Y124.018 E6.32560
G1 X125.518 Y116.462 E7.29740
G1 X125.518 Y115.578 E7.37777
G1 X117.078 Y124.018 E8.46322
G1 X116.194 Y124.018 E8.54359
G1 X125.518 Y114.694 E9.74271
G1 X125.518 Y113.810 E9.82308
G1 X115.310 Y124.018 E11.13585
G1 X114.427 Y124.018 E11.21622
G1 X125.518 Y112.927 E12.64265
G1 X125.518 Y112.043 E12.72302
G1 X113.543 Y124.018 E14.26311
G1 X112.659 Y124.018 E14.34348
G1 X125.518 Y111.159 E15.99723
G1 X125.518 Y110.275 E16.07760
G1 X111.775 Y124.018 E17.84500
G1 X110.891 Y124.018 E17.92537
G1 X125.518 Y109.392 E19.80644
G1 X125.518 Y108.508 E19.88681
G1 X110.008 Y124.018 E21.88153
G1 X109.124 Y124.018 E21.96190
G1 X125.518 Y107.624 E24.07029
G1 X125.518 Y106.740 E24.15066
G1 X108.240 Y124.018 E26.37270
G1 X107.356 Y124.018 E26.45307
G1 X125.518 Y105.856 E28.78877
G1 X125.518 Y104.973 E28.86914
G1 X106.473 Y124.018 E31.31850
G1 X105.589 Y124.018 E31.39887
G1 X125.518 Y104.089 E33.96189
G1 X125.518 Y103.205 E34.04226
G1 X104.705 Y124.018 E36.71894
G1 X103.821 Y124.018 E36.79930
G1 X125.518 Y102.321 E39.58964
G1 X125.518 Y101.437 E39.67001
G1 X102.937 Y124.018 E42.57401
G1 X102.054 Y124.018 E42.65438
G1 X125.518 Y100.554 E45.67203
G1 X125.518 Y99.670 E45.75240
G1 X101.170 Y124.018 E48.88371
G1 X100.286 Y124.018 E48.96408
G1 X125.518 Y98.786 E52.20905
G1 X125.518 Y97.902 E52.28942
G1 X99.402 Y124.018 E55.64805
G1 X98.518 Y124.018 E55.72842
G1 X125.518 Y97.018 E59.20071
G1 X125.518 Y96.135 E59.28108
G1 X97.635 Y124.018 E62.86703
G1 X96.751 Y124.018 E62.94740
G1 X125.518 Y95.251 E66.64701
G1 X125.518 Y94.367 E66.72738
G1 X95.867 Y124.018 E70.54064
G1 X94.983 Y124.018 E70.62101
G1 X125.518 Y93.483 E74.54794
G1 X125.518 Y92.599 E74.62830
G1 X94.099 Y124.018 E78.66889
G1 X93.216 Y124.018 E78.74926
G1 X125.518 Y91.716 E82.90350
G1 X125.518 Y90.832 E82.98387
G1 X92.332 Y124.018 E87.25177
G1 X91.448 Y124.018 E87.33214
G1 X125.518 Y89.948 E91.71370
G1 X125.518 Y89.064 E91.79407
G1 X90.564 Y124.018 E96.28929
G1 X89.680 Y124.018 E96.36966
G1 X125.518 Y88.180 E100.97853
G1 X125.518 Y87.297 E101.05890
G1 X88.797 Y124.018 E105.78144
G1 X87.913 Y124.018 E105.86181
G1 X125.518 Y86.413 E110.69801
G1 X125.518 Y85.529 E110.77837
G1 X87.029 Y124.018 E115.72823
G1 X86.145 Y124.018 E115.80860
G1 X125.518 Y84.645 E120.87211
G1 X125.518 Y83.762 E120.95248
G1 X85.261 Y124.018 E126.12965
G1 X84.378 Y124.018 E126.21002
G1 X125.518 Y82.878 E131.50085
G1 X125.518 Y81.994 E131.58122
G1 X83.494 Y124.018 E136.98571
G1 X82.610 Y124.018 E137.06608
G1 X125.518 Y81.110 E142.58423
G1 X125.518 Y80.226 E142.66460
G1 X81.726 Y124.018 E148.29640
G1 X80.843 Y124.018 E148.37677
G1 X125.518 Y79.343 E154.12224
G1 X125.518 Y78.459 E154.20261
G1 X79.959 Y124.018 E160.06173
G1 X79.075 Y124.018 E160.14210
G1 X125.518 Y77.575 E166.11488
G1 X125.518 Y76.691 E166.19525
G1 X78.191 Y124.018 E172.28170
G1 X77.307 Y124.018 E172.36207
G1 X125.344 Y75.982 E178.53976
G1 X124.460 Y75.982 E178.62013
G1 X76.424 Y124.018 E184.79782
G1 X75.540 Y124.018 E184.87819
G1 X123.577 Y75.982 E191.05588
G1 X122.693 Y75.982 E191.13625
G1 X74.656 Y124.018 E197.31394
G1 X74.482 Y124.018 E197.32980
G1 X74.482 Y123.309 E197.39431
G1 X121.809 Y75.982 E203.48077
G1 X120.925 Y75.982 E203.56114
G1 X74.482 Y122.425 E209.53394
G1 X74.482 Y121.541 E209.61431
G1 X120.041 Y75.982 E215.47345
G1 X119.158 Y75.982 E215.55382
G1 X74.482 Y120.658 E221.29930
G1 X74.482 Y119.774 E221.37967
G1 X118.274 Y75.982 E227.01149
G1 X117.390 Y75.982 E227.09186
G1 X74.482 Y118.890 E232.61002
G1 X74.482 Y118.006 E232.69039
G1 X116.506 Y75.982 E238.09489
G1 X115.622 Y75.982 E238.17526
G1 X74.482 Y117.122 E243.46611
G1 X74.482 Y116.239 E243.54648
G1 X114.739 Y75.982 E248.72367
G1 X113.855 Y75.982 E248.80403
G1 X74.482 Y115.355 E253.86756
G1 X74.482 Y114.471 E253.94793
G1 X112.971 Y75.982 E258.89780
G1 X112.087 Y75.982 E258.97817
G1 X74.482 Y113.587 E263.81438
G1 X74.482 Y112.703 E263.89475
G1 X111.203 Y75.982 E268.61730
G1 X110.320 Y75.982 E268.69767
G1 X74.482 Y111.820 E273.30656
G1 X74.482 Y110.936 E273.38693
G1 X109.436 Y75.982 E277.88217
G1 X108.552 Y75.982 E277.96254
G1 X74.482 Y110.052 E282.34411
G1 X74.482 Y109.168 E282.42448
G1 X107.668 Y75.982 E286.69240
G1 X106.784 Y75.982 E286.77277
G1 X74.482 Y108.284 E290.92702
G1 X74.482 Y107.401 E291.00739
G1 X105.901 Y75.982 E295.04799
G1 X105.017 Y75.982 E295.12836
G1 X74.482 Y106.517 E299.05530
G1 X74.482 Y105.633 E299.13567
G1 X104.133 Y75.982 E302.94895
G1 X103.249 Y75.982 E303.02932
G1 X74.482 Y104.749 E306.72894
G1 X74.482 Y103.866 E306.80931
G1 X102.366 Y75.982 E310.39528
G1 X101.482 Y75.982 E310.47564
G1 X74.482 Y102.982 E313.94795
G1 X74.482 Y102.098 E314.02832
G1 X100.598 Y75.982 E317.38696
G1 X99.714 Y75.982 E317.46733
G1 X74.482 Y101.214 E320.71232
G1 X74.482 Y100.330 E320.79269
G1 X98.830 Y75.982 E323.92402
G1 X97.947 Y75.982 E324.00439
G1 X74.482 Y99.447 E327.02206
G1 X74.482 Y98.563 E327.10243
G1 X97.063 Y75.982 E330.00644
G1 X96.179 Y75.982 E330.08681
G1 X74.482 Y97.679 E332.87716
G1 X74.482 Y96.795 E332.95753
G1 X95.295 Y75.982 E335.63422
G1 X94.411 Y75.982 E335.71459
G1 X74.482 Y95.911 E338.27762
G1 X74.482 Y95.028 E338.35799
G1 X93.528 Y75.982 E340.80737
G1 X92.644 Y75.982 E340.88774
G1 X74.482 Y94.144 E343.22346
G1 X74.482 Y93.260 E343.30382
G1 X91.760 Y75.982 E345.52588
G1 X90.876 Y75.982 E345.60625
G1 X74.482 Y92.376 E347.71465
G1 X74.482 Y91.492 E347.79502
G1 X89.992 Y75.982 E349.78976
G1 X89.109 Y75.982 E349.87013
G1 X74.482 Y90.609 E351.75121
G1 X74.482 Y89.725 E351.83158
G1 X88.225 Y75.982 E353.59900
G1 X87.341 Y75.982 E353.67937
G1 X74.482 Y88.841 E355.33314
G1 X74.482 Y87.957 E355.41350
G1 X86.457 Y75.982 E356.95361
G1 X85.573 Y75.982 E357.03398
G1 X74.482 Y87.073 E358.46043
G1 X74.482 Y86.190 E358.54079
G1 X84.690 Y75.982 E359.85358
G1 X83.806 Y75.982 E359.93395
G1 X74.482 Y85.306 E361.13308
G1 X74.482 Y84.422 E361.21345
G1 X82.922 Y75.982 E362.29892
G1 X82.038 Y75.982 E362.37929
G1 X74.482 Y83.538 E363.35110
G1 X74.482 Y82.654 E363.43147
G1 X81.154 Y75.982 E364.28962
G1 X80.271 Y75.982 E364.36999
G1 X74.482 Y81.771 E365.11448
G1 X74.482 Y80.887 E365.19485
G1 X79.387 Y75.982 E365.82569
G1 X78.503 Y75.982 E365.90606
G1 X74.482 Y80.003 E366.42323
G1 X74.482 Y79.119 E366.50360
G1 X77.619 Y75.982 E366.90712
G1 X76.736 Y75.982 E366.98749
G1 X74.482 Y78.236 E367.27735
G1 X74.482 Y77.352 E367.35772
G1 X75.852 Y75.982 E367.53391
G1 X74.968 Y75.982 E367.61428
G1 X74.482 Y76.468 E367.67679
M104 S200 ; set temperature
M140 S60 ; set bed temperature
G1 Z0.650 F7800.000
G1 X126.029 Y124.529 F7800.000
G1 F3600
G1 X73.971 Y124.529 E371.80381
G1 X73.971 Y75.471 E375.69299
G1 X126.029 Y75.471 E379.82000
G1 X126.029 Y124.454 E383.70323
G1 X126.664 Y125.164 F7800.000
G1 F3600
G1 X73.336 Y125.164 E387.93103
G1 X73.336 Y74.836 E391.92099
G1 X126.664 Y74.836 E396.14879
G1 X126.664 Y125.089 E400.13280
G1 X127.225 Y125.725 F7800.000
G1 F1800
G1 X72.775 Y125.725 E403.43079
G1 X72.775 Y74.275 E406.54707
G1 X127.225 Y74.275 E409.84506
G1 X127.225 Y125.650 E412.95680
G1 X126.741 Y125.600 F7800.000
G1 X125.640 Y76.354 F7800.000
G1 F1200
G1 X125.146 Y75.860 E413.01258
G1 X124.241 Y75.860 E413.08471
G1 X125.640 Y77.259 E413.24249
G1 X125.640 Y78.163 E413.31462
G1 X123.337 Y75.860 E413.57441
G1 X122.433 Y75.860 E413.64653
G1 X125.640 Y79.067 E414.00832
G1 X125.640 Y79.972 E414.08045
G1 X121.528 Y75.860 E414.54424
G1 X120.624 Y75.860 E414.61637
G1 X125.640 Y80.876 E415.18216
G1 X125.640 Y81.780 E415.25429
G1 X119.720 Y75.860 E415.92209
G1 X118.815 Y75.860 E415.99421
G1 X125.640 Y82.685 E416.76402
G1 X125.640 Y83.589 E416.83614
G1 X117.911 Y75.860 E417.70795
G1 X117.007 Y75.860 E417.78007
G1 X125.640 Y84.493 E418.75388
G1 X125.640 Y85.398 E418.82600
G1 X116.102 Y75.860 E419.90181
G1 X115.198 Y75.860 E419.97394
G1 X125.640 Y86.302 E421.15175
G1 X125.640 Y87.206 E421.22388
G1 X114.294 Y75.860 E422.50369
G1 X113.389 Y75.860 E422.57582
G1 X125.640 Y88.111 E423.95764
G1 X125.640 Y89.015 E424.02976
G1 X112.485 Y75.860 E425.51358
G1 X111.581 Y75.860 E425.58571
G1 X125.640 Y89.919 E427.17153
G1 X125.640 Y90.824 E427.24366
G1 X110.676 Y75.860 E428.93148
G1 X109.772 Y75.860 E429.00361
G1 X125.640 Y91.728 E430.79344
G1 X125.640 Y92.632 E430.86557
G1 X108.868 Y75.860 E432.75740
G1 X107.963 Y75.860 E432.82952
G1 X125.640 Y93.537 E434.82336
G1 X125.640 Y94.441 E434.89548
G1 X107.059 Y75.860 E436.99132
G1 X106.155 Y75.860 E437.06345
G1 X125.640 Y95.345 E439.26129
G1 X125.640 Y96.250 E439.33341
G1 X105.250 Y75.860 E441.63326
G1 X104.346 Y75.860 E441.70538
G1 X125.640 Y97.154 E444.10723
G1 X125.640 Y98.058 E444.17935
G1 X103.442 Y75.860 E446.68320
G1 X102.537 Y75.860 E446.75533
G1 X125.640 Y98.963 E449.36118
G1 X125.640 Y99.867 E449.43331
G1 X101.633 Y75.860 E452.14116
G1 X100.729 Y75.860 E452.21329
G1 X125.640 Y100.771 E455.02314
G1 X125.640 Y101.675 E455.09527
G1 X99.825 Y75.860 E458.00713
G1 X98.920 Y75.860 E458.07926
G1 X125.640 Y102.580 E461.09312
G1 X125.640 Y103.484 E461.16524
G1 X98.016 Y75.860 E464.28111
G1 X97.112 Y75.860 E464.35324
G1 X125.640 Y104.388 E467.57110
G1 X125.640 Y105.293 E467.64323
G1 X96.207 Y75.860 E470.96310
G1 X95.303 Y75.860 E471.03523
G1 X125.640 Y106.197 E474.45710
G1 X125.640 Y107.101 E474.52923
G1 X94.399 Y75.860 E478.05310
G1 X93.494 Y75.860 E478.12523
G1 X125.640 Y108.006 E481.75111
G1 X125.640 Y108.910 E481.82323
G1 X92.590 Y75.860 E485.55112
G1 X91.686 Y75.860 E485.62324
G1 X125.640 Y109.814 E489.45313
G1 X125.640 Y110.719 E489.52525
G1 X90.781 Y75.860 E493.45714
G1 X89.877 Y75.860 E493.52927
G1 X125.640 Y111.623 E497.56316
G1 X125.640 Y112.527 E497.63528
G1 X88.973 Y75.860 E501.77117
G1 X88.068 Y75.860 E501.84330
G1 X125.640 Y113.432 E506.08120
G1 X125.640 Y114.336 E506.15332
G1 X87.164 Y75.860 E510.49322
G1 X86.260 Y75.860 E510.56535
G1 X125.640 Y115.240 E515.00725
G1 X125.640 Y116.145 E515.07938
G1 X85.355 Y75.860 E519.62328
G1 X84.451 Y75.860 E519.69541
G1 X125.640 Y117.049 E524.34131
G1 X125.640 Y117.953 E524.41344
G1 X83.547 Y75.860 E529.16135
G1 X82.642 Y75.860 E529.23348
G1 X125.640 Y118.858 E534.08339
G1 X125.640 Y119.762 E534.15551
G1 X81.738 Y75.860 E539.10743
G1 X80.834 Y75.860 E539.17956
G1 X125.640 Y120.666 E544.23347
G1 X125.640 Y121.571 E544.30560
G1 X79.929 Y75.860 E549.46152
G1 X79.025 Y75.860 E549.53365
G1 X125.640 Y122.475 E554.79157
G1 X125.640 Y123.379 E554.86370
G1 X78.121 Y75.860 E560.22363
G1 X77.216 Y75.860 E560.29575
G1 X125.497 Y124.140 E565.74150
G1 X124.593 Y124.140 E565.81363
G1 X76.312 Y75.860 E571.25937
G1 X75.408 Y75.860 E571.33150
G1 X123.688 Y124.140 E576.77725
G1 X122.784 Y124.140 E576.84937
G1 X74.503 Y75.860 E582.29512
G1 X74.360 Y75.860 E582.30657
G1 X74.360 Y76.620 E582.36725
G1 X121.880 Y124.140 E587.72718
G1 X120.975 Y124.140 E587.79931
G1 X74.360 Y77.525 E593.05724
G1 X74.360 Y78.429 E593.12937
G1 X120.071 Y124.140 E598.28530
G1 X119.167 Y124.140 E598.35742
G1 X74.360 Y79.333 E603.41135
G1 X74.360 Y80.238 E603.48348
G1 X118.262 Y124.140 E608.43540
G1 X117.358 Y124.140 E608.50753
G1 X74.360 Y81.142 E613.35745
G1 X74.360 Y82.046 E613.42957
G1 X116.454 Y124.140 E618.17749
G1 X115.549 Y124.140 E618.24962
G1 X74.360 Y82.951 E622.89553
G1 X74.360 Y83.855 E622.96766
G1 X114.645 Y124.140 E627.51157
G1 X113.741 Y124.140 E627.58370
G1 X74.360 Y84.759 E632.02561
G1 X74.360 Y85.664 E632.09773
G1 X112.836 Y124.140 E636.43764
G1 X111.932 Y124.140 E636.50977
G1 X74.360 Y86.568 E640.74767
G1 X74.360 Y87.472 E640.81980
G1 X111.028 Y124.140 E644.95570
G1 X110.123 Y124.140 E645.02783
G1 X74.360 Y88.377 E649.06172
G1 X74.360 Y89.281 E649.13385
G1 X109.219 Y124.140 E653.06575
G1 X108.315 Y124.140 E653.13787
G1 X74.360 Y90.185 E656.96777
G1 X74.360 Y91.090 E657.03989
G1 X107.410 Y124.140 E660.76778
G1 X106.506 Y124.140 E660.83991
G1 X74.360 Y91.994 E664.46580
G1 X74.360 Y92.898 E664.53792
G1 X105.602 Y124.140 E668.06181
G1 X104.697 Y124.140 E668.13393
G1 X74.360 Y93.803 E671.55581
G1 X74.360 Y94.707 E671.62794
G1 X103.793 Y124.140 E674.94782
