; generated by Slic3r 1.2.9 on 2016-01-17 at 16:19:46

; external perimeters extrusion width = 0.50mm
; perimeters extrusion width = 0.50mm
; infill extrusion width = 0.50mm
; solid infill extrusion width = 0.50mm
; top infill extrusion width = 0.50mm

M107
M190 S57 ; set bed temperature
M104 S200 ; set temperature
G28 ; home all axes
M83;
G10 P0 S195 R160
T0

M109 S200 ; wait for temperature to be reached
G21 ; set units to millimeters
G90 ; use absolute coordinates
M83 ; use relative distances for extrusion
G1 E-3.50000 F2400.00000
G1 Z0.300 F9000.000
G1 X37.091 Y56.698 F9000.000
G1 E3.50000 F2400.00000
G1 X38.731 Y55.778 E0.17255 F1800.000
G1 X40.050 Y55.579 E0.12239
G1 X159.950 Y55.579 E11.00089
G1 X161.789 Y55.974 E0.17255
G1 X163.302 Y57.091 E0.17255 F1800.000
G1 X164.222 Y58.731 E0.17255
G1 X164.421 Y60.050 E0.12239
G1 X164.421 Y139.950 E7.33087
G1 X164.026 Y141.789 E0.17255
G1 X162.909 Y143.302 E0.17255
G1 X161.269 Y144.222 E0.17255
G1 X159.950 Y144.421 E0.12239
G1 X40.050 Y144.421 E11.00089
G1 X38.211 Y144.026 E0.17255
G1 X36.698 Y142.909 E0.17255
G1 X35.778 Y141.269 E0.17255
G1 X35.579 Y139.950 E0.12239
G1 X35.579 Y60.050 E7.33087
G1 X35.974 Y58.211 E0.17255
G1 X37.046 Y56.758 E0.16567
G1 X37.693 Y57.201 F9000.000
G1 X37.810 Y57.061 E0.01672 F1800.000
G1 X40.050 Y56.314 E0.21667
G1 X159.950 Y56.314 E11.00089
G1 X161.621 Y56.709 E0.15755
G1 X162.939 Y57.810 E0.15755 F1800.000
G1 X163.686 Y60.050 E0.21667
G1 X163.686 Y139.950 E7.33087
G1 X163.291 Y141.621 E0.15755
G1 X162.190 Y142.939 E0.15755
G1 X159.950 Y143.686 E0.21667
G1 X40.050 Y143.686 E11.00089
G1 X38.379 Y143.291 E0.15755
G1 X37.061 Y142.190 E0.15755
G1 X36.314 Y139.950 E0.21667
G1 X36.314 Y60.050 E7.33087
G1 X36.709 Y58.379 E0.15755
G1 X37.645 Y57.258 E0.13395
G1 E-3.50000 F2400.00000
G1 X126.314 Y105.186 F9000.000
G1 E3.50000 F2400.00000
G1 X126.314 Y100.814 E0.40106 F1350.000
G1 X148.686 Y100.814 E2.05257
G1 X148.686 Y105.186 E0.40106
G1 X126.389 Y105.186 E2.04569
G1 X127.050 Y104.450 F9000.000
G1 X127.050 Y101.550 E0.26608 F1350.000
G1 X147.950 Y101.550 E1.91759
G1 X147.950 Y104.450 E0.26608
G1 X127.125 Y104.450 E1.91070
G1 X126.550 Y104.450 F9000.000
G1 E-3.50000 F2400.00000
G1 X136.186 Y99.186 F9000.000
G1 E3.50000 F2400.00000
G1 X113.814 Y99.186 E2.05257 F1350.000
G1 X113.814 Y94.814 E0.40106
G1 X136.186 Y94.814 E2.05257
G1 X136.186 Y99.111 E0.39418
G1 X135.450 Y98.450 F9000.000
G1 X114.550 Y98.450 E1.91759 F1350.000
G1 X114.550 Y95.550 E0.26608
G1 X135.450 Y95.550 E1.91759
G1 X135.450 Y98.375 E0.25920
G1 X135.450 Y98.950 F9000.000
G1 X123.686 Y100.814 F9000.000
G1 X123.686 Y105.186 E0.40106 F1350.000
G1 X101.314 Y105.186 E2.05257
G1 X101.314 Y100.814 E0.40106
G1 X123.611 Y100.814 E2.04569
G1 X122.950 Y101.550 F9000.000
G1 X122.950 Y104.450 E0.26608 F1350.000
G1 X102.050 Y104.450 E1.91759
G1 X102.050 Y101.550 E0.26608
G1 X122.875 Y101.550 E1.91070
G1 X123.450 Y101.550 F9000.000
G1 X111.186 Y99.186 F9000.000
G1 X88.814 Y99.186 E2.05257 F1350.000
G1 X88.814 Y94.814 E0.40106
G1 X111.186 Y94.814 E2.05257
G1 X111.186 Y99.111 E0.39418
G1 X110.450 Y98.450 F9000.000
G1 X89.550 Y98.450 E1.91759 F1350.000
G1 X89.550 Y95.550 E0.26608
G1 X110.450 Y95.550 E1.91759
G1 X110.450 Y98.375 E0.25920
G1 X110.450 Y98.950 F9000.000
G1 X98.686 Y100.814 F9000.000
G1 X98.686 Y105.186 E0.40106 F1350.000
G1 X76.314 Y105.186 E2.05257
G1 X76.314 Y100.814 E0.40106
G1 X98.611 Y100.814 E2.04569
G1 X97.950 Y101.550 F9000.000
G1 X97.950 Y104.450 E0.26608 F1350.000
G1 X77.050 Y104.450 E1.91759
G1 X77.050 Y101.550 E0.26608
G1 X97.875 Y101.550 E1.91070
G1 X98.450 Y101.550 F9000.000
G1 X86.186 Y99.186 F9000.000
G1 X63.814 Y99.186 E2.05257 F1350.000
G1 X63.814 Y94.814 E0.40106
G1 X86.186 Y94.814 E2.05257
G1 X86.186 Y99.111 E0.39418
G1 X85.450 Y98.450 F9000.000
G1 X64.550 Y98.450 E1.91759 F1350.000
G1 X64.550 Y95.550 E0.26608
G1 X85.450 Y95.550 E1.91759
G1 X85.450 Y98.375 E0.25920
G1 X85.450 Y98.950 F9000.000
G1 X73.676 Y100.814 F9000.000
G1 X73.676 Y105.186 E0.40106 F1350.000
G1 X51.304 Y105.186 E2.05257
G1 X51.304 Y100.814 E0.40106
G1 X73.601 Y100.814 E2.04569
G1 X72.940 Y101.550 F9000.000
G1 X72.940 Y104.450 E0.26608 F1350.000
G1 X52.040 Y104.450 E1.91759
G1 X52.040 Y101.550 E0.26608
G1 X72.865 Y101.550 E1.91070
G1 X73.440 Y101.550 F9000.000
G1 X61.176 Y99.186 F9000.000
G1 X61.176 Y94.814 E0.40106 F1350.000
G1 X41.186 Y94.814 E1.83409
G1 X41.186 Y61.186 E3.08546
G1 X158.814 Y61.186 E10.79250
G1 X158.814 Y94.814 E3.08546
G1 X138.814 Y94.814 E1.83501
G1 X138.814 Y99.186 E0.40106
G1 X158.814 Y99.186 E1.83501
G1 X158.814 Y100.814 E0.14944
G1 X151.314 Y100.814 E0.68813
G1 X151.314 Y105.186 E0.40106
G1 X158.814 Y105.186 E0.68813
G1 X158.814 Y138.814 E3.08546
G1 X41.186 Y138.814 E10.79250
G1 X41.186 Y105.186 E3.08546
G1 X48.686 Y105.186 E0.68813
G1 X48.686 Y100.814 E0.40106
G1 X41.186 Y100.814 E0.68813
G1 X41.186 Y99.186 E0.14944
G1 X61.101 Y99.186 E1.82721
G1 X60.440 Y98.450 F9000.000
G1 X60.440 Y95.550 E0.26608 F1350.000
G1 X40.450 Y95.550 E1.83409
G1 X40.450 Y60.450 E3.22044
G1 X159.550 Y60.450 E10.92749
G1 X159.550 Y95.550 E3.22044
G1 X139.550 Y95.550 E1.83501
G1 X139.550 Y98.450 E0.26608
G1 X159.550 Y98.450 E1.83501
G1 X159.550 Y101.550 E0.28443
G1 X152.050 Y101.550 E0.68813
G1 X152.050 Y104.450 E0.26608
G1 X159.550 Y104.450 E0.68813
G1 X159.550 Y139.550 E3.22044
G1 X40.450 Y139.550 E10.92749
G1 X40.450 Y104.450 E3.22044
G1 X47.950 Y104.450 E0.68813
G1 X47.950 Y101.550 E0.26608
G1 X40.450 Y101.550 E0.68813
G1 X40.450 Y98.450 E0.28443
G1 X60.365 Y98.450 E1.82721
G1 X60.940 Y98.450 F9000.000
G1 X61.543 Y100.000 F9000.000
G1 X50.937 Y100.000 E2.03154 F900.000
G1 X49.053 Y100.000 F9000.000
G1 X41.553 Y100.000 E1.43648 F900.000
G1 X63.447 Y100.000 F9000.000
G1 X74.043 Y100.000 E2.02962 F900.000
G1 X75.947 Y100.000 F9000.000
G1 X86.553 Y100.000 E2.03154 F900.000
G1 X88.447 Y100.000 F9000.000
G1 X99.053 Y100.000 E2.03154 F900.000
G1 X100.947 Y100.000 F9000.000
G1 X111.553 Y100.000 E2.03154 F900.000
G1 X113.447 Y100.000 F9000.000
G1 X124.053 Y100.000 E2.03154 F900.000
G1 X125.947 Y100.000 F9000.000
G1 X136.553 Y100.000 E2.03154 F900.000
G1 X137.003 Y99.289 F9000.000
G1 X137.997 Y100.284 E0.12997 F1350.000
G1 X136.635 Y97.874 F9000.000
G1 X137.997 Y99.236 E0.17803 F1350.000
G1 X138.365 Y98.556 E0.07141
G1 X136.635 Y96.826 E0.22609
G1 X136.635 Y95.778 E0.09679
G1 X138.365 Y97.509 E0.22609
G1 E-3.50000 F2400.00000
G1 X113.365 Y97.651 F9000.000
G1 E3.50000 F2400.00000
G1 X111.635 Y95.920 E0.22609 F1350.000
G1 X111.635 Y96.968 E0.09679
G1 X113.365 Y98.698 E0.22609
G1 X112.997 Y99.378 F9000.000
G1 X111.635 Y98.016 E0.17803 F1350.000
G1 X112.003 Y99.431 F9000.000
G1 X112.937 Y100.365 E0.12207 F1350.000
G1 X111.635 Y94.873 F9000.000
G1 X113.365 Y96.603 E0.22609 F1350.000
G1 X113.365 Y95.556 E0.09679
G1 X79.444 Y61.635 E4.43209
G1 X80.492 Y61.635 E0.09679
G1 X113.365 Y94.508 E4.29521
G1 X114.270 Y94.365 E0.08463
G1 X81.540 Y61.635 E4.27655
G1 X82.587 Y61.635 E0.09679
G1 X115.318 Y94.365 E4.27655
G1 X116.365 Y94.365 E0.09679
G1 X83.635 Y61.635 E4.27655
G1 X84.682 Y61.635 E0.09679
G1 X117.413 Y94.365 E4.27655
G1 X118.460 Y94.365 E0.09679
G1 X85.730 Y61.635 E4.27655
G1 X86.778 Y61.635 E0.09679
G1 X119.508 Y94.365 E4.27655
G1 X120.555 Y94.365 E0.09679
G1 X87.825 Y61.635 E4.27655
G1 X88.873 Y61.635 E0.09679
G1 X121.603 Y94.365 E4.27655
G1 X122.651 Y94.365 E0.09679
G1 X89.920 Y61.635 E4.27655
G1 X90.968 Y61.635 E0.09679
G1 X123.698 Y94.365 E4.27655
G1 X124.746 Y94.365 E0.09679
G1 X92.015 Y61.635 E4.27655
G1 X93.063 Y61.635 E0.09679
G1 X125.793 Y94.365 E4.27655
G1 X126.841 Y94.365 E0.09679
G1 X94.111 Y61.635 E4.27655
G1 X95.158 Y61.635 E0.09679
G1 X127.889 Y94.365 E4.27655
G1 X128.936 Y94.365 E0.09679
G1 X96.206 Y61.635 E4.27655
G1 X97.253 Y61.635 E0.09679
G1 X129.984 Y94.365 E4.27655
G1 X131.031 Y94.365 E0.09679
G1 X98.301 Y61.635 E4.27655
G1 X99.349 Y61.635 E0.09679
G1 X132.079 Y94.365 E4.27655
G1 X133.126 Y94.365 E0.09679
G1 X100.396 Y61.635 E4.27655
G1 X101.444 Y61.635 E0.09679
G1 X134.174 Y94.365 E4.27655
G1 X135.222 Y94.365 E0.09679
G1 X102.491 Y61.635 E4.27655
G1 X103.539 Y61.635 E0.09679
G1 X138.365 Y96.461 E4.55042
G1 X138.365 Y95.414 E0.09679
G1 X104.586 Y61.635 E4.41354
G1 X105.634 Y61.635 E0.09679
G1 X138.365 Y94.366 E4.27666
G1 X139.412 Y94.365 E0.09671
G1 X106.682 Y61.635 E4.27655
G1 X107.729 Y61.635 E0.09679
G1 X140.460 Y94.365 E4.27655
G1 X141.507 Y94.365 E0.09679
G1 X108.777 Y61.635 E4.27655
G1 X109.824 Y61.635 E0.09679
G1 X142.555 Y94.365 E4.27655
G1 X143.602 Y94.365 E0.09679
G1 X110.872 Y61.635 E4.27655
G1 X111.919 Y61.635 E0.09679
G1 X144.650 Y94.365 E4.27655
G1 X145.697 Y94.365 E0.09679
G1 X112.967 Y61.635 E4.27655
G1 X114.015 Y61.635 E0.09679
G1 X146.745 Y94.365 E4.27655
G1 X147.793 Y94.365 E0.09679
G1 X115.062 Y61.635 E4.27655
G1 X116.110 Y61.635 E0.09679
G1 X148.840 Y94.365 E4.27655
G1 X149.888 Y94.365 E0.09679
G1 X117.157 Y61.635 E4.27655
G1 X118.205 Y61.635 E0.09679
G1 X150.935 Y94.365 E4.27655
G1 X151.983 Y94.365 E0.09679
G1 X119.253 Y61.635 E4.27655
G1 X120.300 Y61.635 E0.09679
G1 X153.030 Y94.365 E4.27655
G1 X154.078 Y94.365 E0.09679
G1 X121.348 Y61.635 E4.27655
G1 X122.395 Y61.635 E0.09679
G1 X155.126 Y94.365 E4.27655
G1 X156.173 Y94.365 E0.09679
G1 X123.443 Y61.635 E4.27655
G1 X124.490 Y61.635 E0.09679
G1 X157.221 Y94.365 E4.27655
G1 X158.268 Y94.365 E0.09679
G1 X125.538 Y61.635 E4.27655
G1 X126.586 Y61.635 E0.09679
G1 X158.365 Y93.414 E4.15232
G1 X158.365 Y92.367 E0.09679
G1 X127.633 Y61.635 E4.01544
G1 X128.681 Y61.635 E0.09679
G1 X158.365 Y91.319 E3.87857
G1 X158.365 Y90.272 E0.09679
G1 X129.728 Y61.635 E3.74169
G1 X130.776 Y61.635 E0.09679
G1 X158.365 Y89.224 E3.60481
G1 X158.365 Y88.176 E0.09679
G1 X131.824 Y61.635 E3.46793
G1 X132.871 Y61.635 E0.09679
G1 X158.365 Y87.129 E3.33106
G1 X158.365 Y86.081 E0.09679
G1 X133.919 Y61.635 E3.19418
G1 X134.966 Y61.635 E0.09679
G1 X158.365 Y85.034 E3.05730
G1 X158.365 Y83.986 E0.09679
G1 X136.014 Y61.635 E2.92043
G1 X137.061 Y61.635 E0.09679
G1 X158.365 Y82.939 E2.78355
G1 X158.365 Y81.891 E0.09679
G1 X138.109 Y61.635 E2.64667
G1 X139.157 Y61.635 E0.09679
G1 X158.365 Y80.843 E2.50979
G1 X158.365 Y79.796 E0.09679
G1 X140.204 Y61.635 E2.37292
G1 X141.252 Y61.635 E0.09679
G1 X158.365 Y78.748 E2.23604
G1 X158.365 Y77.701 E0.09679
G1 X142.299 Y61.635 E2.09916
G1 X143.347 Y61.635 E0.09679
G1 X158.365 Y76.653 E1.96229
G1 X158.365 Y75.605 E0.09679
G1 X144.395 Y61.635 E1.82541
G1 X145.442 Y61.635 E0.09679
G1 X158.365 Y74.558 E1.68853
G1 X158.365 Y73.510 E0.09679
G1 X146.490 Y61.635 E1.55165
G1 X147.537 Y61.635 E0.09679
G1 X158.365 Y72.463 E1.41478
G1 X158.365 Y71.415 E0.09679
G1 X148.585 Y61.635 E1.27790
G1 X149.632 Y61.635 E0.09679
G1 X158.365 Y70.368 E1.14102
G1 X158.365 Y69.320 E0.09679
G1 X150.680 Y61.635 E1.00415
G1 X151.728 Y61.635 E0.09679
G1 X158.365 Y68.272 E0.86727
G1 X158.365 Y67.225 E0.09679
G1 X152.775 Y61.635 E0.73039
G1 X153.823 Y61.635 E0.09679
G1 X158.365 Y66.177 E0.59351
G1 X158.365 Y65.130 E0.09679
G1 X154.870 Y61.635 E0.45664
G1 X155.918 Y61.635 E0.09679
G1 X158.365 Y64.082 E0.31976
G1 X158.365 Y63.035 E0.09679
G1 X156.965 Y61.635 E0.18288
G1 X158.013 Y61.635 E0.09679
G1 X158.365 Y61.987 E0.04601
G1 X111.127 Y94.365 F9000.000
G1 X78.397 Y61.635 E4.27655 F1350.000
G1 X77.349 Y61.635 E0.09679
G1 X110.080 Y94.365 E4.27655
G1 X109.032 Y94.365 E0.09679
G1 X76.302 Y61.635 E4.27655
G1 X75.254 Y61.635 E0.09679
G1 X107.984 Y94.365 E4.27655
G1 X106.937 Y94.365 E0.09679
G1 X74.207 Y61.635 E4.27655
G1 X73.159 Y61.635 E0.09679
G1 X105.889 Y94.365 E4.27655
G1 X104.842 Y94.365 E0.09679
G1 X72.111 Y61.635 E4.27655
G1 X71.064 Y61.635 E0.09679
G1 X103.794 Y94.365 E4.27655
G1 X102.747 Y94.365 E0.09679
G1 X70.016 Y61.635 E4.27655
G1 X68.969 Y61.635 E0.09679
G1 X101.699 Y94.365 E4.27655
G1 X100.651 Y94.365 E0.09679
G1 X67.921 Y61.635 E4.27655
G1 X66.873 Y61.635 E0.09679
G1 X99.604 Y94.365 E4.27655
G1 X98.556 Y94.365 E0.09679
G1 X65.826 Y61.635 E4.27655
G1 X64.778 Y61.635 E0.09679
G1 X97.509 Y94.365 E4.27655
G1 X96.461 Y94.365 E0.09679
G1 X63.731 Y61.635 E4.27655
G1 X62.683 Y61.635 E0.09679
G1 X95.413 Y94.365 E4.27655
G1 X94.366 Y94.365 E0.09679
G1 X61.636 Y61.635 E4.27655
G1 X60.588 Y61.635 E0.09679
G1 X93.318 Y94.365 E4.27655
G1 X92.271 Y94.365 E0.09679
G1 X59.540 Y61.635 E4.27655
G1 X58.493 Y61.635 E0.09679
G1 X91.223 Y94.365 E4.27655
G1 X90.176 Y94.365 E0.09679
G1 X57.445 Y61.635 E4.27655
G1 X56.398 Y61.635 E0.09679
G1 X89.128 Y94.365 E4.27655
G1 X88.365 Y94.650 F9000.000
G1 X55.350 Y61.635 E4.31376 F1350.000
G1 X54.302 Y61.635 E0.09679
G1 X88.365 Y95.698 E4.45063
G1 X88.365 Y96.745 E0.09679
G1 X86.635 Y95.015 E0.22609
G1 X85.985 Y94.365 F9000.000
G1 X53.255 Y61.635 E4.27655 F1350.000
G1 X52.207 Y61.635 E0.09679
G1 X84.938 Y94.365 E4.27655
G1 X83.890 Y94.365 E0.09679
G1 X51.160 Y61.635 E4.27655
G1 X50.112 Y61.635 E0.09679
G1 X82.843 Y94.365 E4.27655
G1 X81.795 Y94.365 E0.09679
G1 X49.065 Y61.635 E4.27655
G1 X48.017 Y61.635 E0.09679
G1 X80.747 Y94.365 E4.27655
G1 X79.700 Y94.365 E0.09679
G1 X46.969 Y61.635 E4.27655
G1 X45.922 Y61.635 E0.09679
G1 X78.652 Y94.365 E4.27655
G1 X77.605 Y94.365 E0.09679
G1 X44.874 Y61.635 E4.27655
G1 X43.827 Y61.635 E0.09679
G1 X76.557 Y94.365 E4.27655
G1 X75.509 Y94.365 E0.09679
G1 X42.779 Y61.635 E4.27655
G1 X41.732 Y61.635 E0.09679
G1 X74.462 Y94.365 E4.27655
G1 X73.414 Y94.365 E0.09679
G1 X41.635 Y62.586 E4.15231
G1 X41.635 Y63.633 E0.09679
G1 X72.367 Y94.365 E4.01543
G1 X71.319 Y94.365 E0.09679
G1 X41.635 Y64.681 E3.87855
G1 X41.635 Y65.728 E0.09679
G1 X70.272 Y94.365 E3.74168
G1 X69.224 Y94.365 E0.09679
G1 X41.635 Y66.776 E3.60480
G1 X41.635 Y67.824 E0.09679
G1 X68.176 Y94.365 E3.46792
G1 X67.129 Y94.365 E0.09679
G1 X41.635 Y68.871 E3.33104
G1 X41.635 Y69.919 E0.09679
G1 X66.081 Y94.365 E3.19417
G1 X65.034 Y94.365 E0.09679
G1 X41.635 Y70.966 E3.05729
G1 X41.635 Y72.014 E0.09679
G1 X63.986 Y94.365 E2.92041
G1 X63.365 Y94.792 F9000.000
G1 X41.635 Y73.062 E2.83929 F1350.000
G1 X41.635 Y74.109 E0.09679
G1 X63.365 Y95.839 E2.83929
G1 X63.365 Y96.887 E0.09679
G1 X61.625 Y95.147 E0.22739
G1 X61.625 Y96.194 E0.09679
G1 X63.365 Y97.935 E0.22739
G1 X63.134 Y98.751 E0.07838
G1 X61.625 Y97.242 E0.19716
G1 X61.625 Y98.289 E0.09679
G1 X62.997 Y99.662 E0.17934
G1 X62.653 Y100.365 E0.07234
G1 X61.993 Y99.705 E0.08628
G1 X60.843 Y94.365 F9000.000
G1 X41.635 Y75.157 E2.50978 F1350.000
G1 X41.635 Y76.204 E0.09679
G1 X59.796 Y94.365 E2.37290
G1 X58.748 Y94.365 E0.09679
G1 X41.635 Y77.252 E2.23603
G1 X41.635 Y78.299 E0.09679
G1 X57.701 Y94.365 E2.09915
G1 X56.653 Y94.365 E0.09679
G1 X41.635 Y79.347 E1.96227
G1 X41.635 Y80.395 E0.09679
G1 X55.605 Y94.365 E1.82540
G1 X54.558 Y94.365 E0.09679
G1 X41.635 Y81.442 E1.68852
G1 X41.635 Y82.490 E0.09679
G1 X53.510 Y94.365 E1.55164
G1 X52.463 Y94.365 E0.09679
G1 X41.635 Y83.537 E1.41476
G1 X41.635 Y84.585 E0.09679
G1 X51.415 Y94.365 E1.27789
G1 X50.367 Y94.365 E0.09679
G1 X41.635 Y85.633 E1.14101
G1 X41.635 Y86.680 E0.09679
G1 X49.320 Y94.365 E1.00413
G1 X48.272 Y94.365 E0.09679
G1 X41.635 Y87.728 E0.86726
G1 X41.635 Y88.775 E0.09679
G1 X47.225 Y94.365 E0.73038
G1 X46.177 Y94.365 E0.09679
G1 X41.635 Y89.823 E0.59350
G1 X41.635 Y90.870 E0.09679
G1 X45.130 Y94.365 E0.45662
G1 X44.082 Y94.365 E0.09679
G1 X41.635 Y91.918 E0.31975
G1 X41.635 Y92.966 E0.09679
G1 X43.034 Y94.365 E0.18287
G1 X41.987 Y94.365 E0.09679
G1 X41.635 Y94.013 E0.04599
G1 E-3.50000 F2400.00000
G1 X86.635 Y96.062 F9000.000
G1 E3.50000 F2400.00000
G1 X88.365 Y97.793 E0.22609 F1350.000
G1 X88.276 Y98.751 E0.08891
G1 X86.635 Y97.110 E0.21440
G1 X86.635 Y98.157 E0.09679
G1 X87.997 Y99.520 E0.17803
G1 X87.795 Y100.365 E0.08029
G1 X87.003 Y99.573 E0.10352
G1 X150.947 Y100.000 F9000.000
G1 X158.447 Y100.000 E1.43648 F900.000
G1 X149.053 Y100.000 F9000.000
G1 X138.447 Y100.000 E2.03154 F900.000
G1 X149.135 Y101.994 F9000.000
G1 X150.865 Y103.725 E0.22609 F1350.000
G1 X150.865 Y102.677 E0.09679
G1 X149.437 Y101.249 E0.18659
G1 X149.503 Y100.267 E0.09094
G1 X150.865 Y101.630 E0.17803
G1 X150.497 Y100.214 F9000.000
G1 X149.918 Y99.635 E0.07571 F1350.000
G1 X149.135 Y103.042 F9000.000
