; generated by Slic3r 1.2.6 on 2015-03-29 at 23:49:13

; external perimeters extrusion width = 0.50mm
; perimeters extrusion width = 0.72mm
; infill extrusion width = 0.72mm
; solid infill extrusion width = 0.72mm
; top infill extrusion width = 0.72mm

M107
M190 S60 ; set bed temperature
M104 S210 ; set temperature
G28 X0 Y0
G28 Z0
G1 Z0.3 F200
G1 X15 Y20 F12000
M109 S210 ; wait for temperature to be reached
G21 ; set units to millimeters
G90 ; use absolute coordinates
M82 ; use absolute distances for extrusion
G92 E0
G1 Z0.350 F7800.000
G1 E-3.20000 F2760.00000
G92 E0
G1 X63.420 Y50.369 F7800.000
G1 E3.20000 F2760.00000
G1 X63.918 Y49.781 E3.26305 F1200.000
G1 X64.451 Y49.229 E3.32587
G1 X65.018 Y48.710 E3.38873
G1 X65.370 Y48.419 E3.42613
G1 X65.987 Y47.958 E3.48917
G1 X66.630 Y47.539 E3.55198
G1 X67.580 Y47.016 E3.64070
G1 X68.279 Y46.698 E3.70359
G1 X68.704 Y46.530 E3.74094
G1 X69.735 Y46.195 E3.82967
G1 X70.482 Y46.013 E3.89261
G1 X71.238 Y45.879 E3.95542
G1 X71.692 Y45.822 E3.99293
G1 X72.458 Y45.764 E4.05572
G1 X73.000 Y45.750 E4.10013
G1 X145.227 Y45.754 E10.01094
G1 X146.307 Y45.822 E10.09953 F1200.000
G1 X146.762 Y45.879 E10.13703
G1 X147.516 Y46.013 E10.19972
G1 X148.567 Y46.282 E10.28846
G1 X149.297 Y46.530 E10.35155
G1 X149.721 Y46.698 E10.38887
G1 X150.420 Y47.016 E10.45173
G1 X151.370 Y47.539 E10.54050
G1 X152.013 Y47.958 E10.60330
G1 X152.382 Y48.226 E10.64062
G1 X153.218 Y48.918 E10.72947
G1 X153.771 Y49.451 E10.79229
G1 X154.082 Y49.782 E10.82943
G1 X154.774 Y50.618 E10.91826
G1 X155.042 Y50.987 E10.95558
G1 X155.461 Y51.630 E11.01838
G1 X155.984 Y52.580 E11.10715
G1 X156.302 Y53.279 E11.17002
G1 X156.470 Y53.703 E11.20733
G1 X156.718 Y54.433 E11.27042
G1 X156.987 Y55.482 E11.35902
G1 X157.121 Y56.238 E11.42183
G1 X157.178 Y56.692 E11.45934
G1 X157.236 Y57.457 E11.52213
G1 X157.250 Y58.000 E11.56654
G1 X157.249 Y74.123 E12.88598
G1 X156.249 Y133.123 E17.71504
G1 X156.126 Y134.336 E17.81483
G1 X150.126 Y166.336 E20.47924
G1 X149.299 Y168.589 E20.67564
G1 X147.782 Y170.449 E20.87205
G1 X145.741 Y171.712 E21.06845
G1 X143.000 Y172.250 E21.29706
G1 X75.000 Y172.250 E26.86195
G1 X72.633 Y171.853 E27.05835
G1 X70.526 Y170.704 E27.25476
G1 X68.909 Y168.931 E27.45116
G1 X67.874 Y166.336 E27.67977
G1 X61.874 Y134.336 E30.34418
G1 X61.751 Y133.123 E30.44397
G1 X60.751 Y74.123 E35.27302
G1 X60.754 Y57.772 E36.61109
G1 X60.822 Y56.691 E36.69976
G1 X60.928 Y55.929 E36.76274
G1 X61.082 Y55.173 E36.82585
G1 X61.282 Y54.435 E36.88841
G1 X61.424 Y53.999 E36.92596
G1 X61.821 Y52.995 E37.01435
G1 X62.160 Y52.298 E37.07770
G1 X62.538 Y51.631 E37.14045
G1 X62.782 Y51.246 E37.17780
G1 X63.374 Y50.428 E37.26041
G1 X63.867 Y50.811 F7800.000
G1 X64.178 Y50.432 E37.30054 F1200.000
G1 X64.669 Y49.894 E37.36014
G1 X65.431 Y49.179 E37.44563
G1 X65.753 Y48.913 E37.47981
G1 X66.338 Y48.475 E37.53963
G1 X66.948 Y48.076 E37.59924
G1 X67.584 Y47.716 E37.65906
G1 X68.239 Y47.396 E37.71874
G1 X68.915 Y47.118 E37.77857
G1 X69.909 Y46.795 E37.86408
G1 X70.618 Y46.623 E37.92381
G1 X71.336 Y46.496 E37.98342
G1 X71.751 Y46.444 E38.01770
G1 X72.477 Y46.388 E38.07730
G1 X73.000 Y46.375 E38.12009
G1 X145.207 Y46.378 E44.02930
G1 X146.249 Y46.444 E44.11468 F1200.000
G1 X146.664 Y46.496 E44.14895
G1 X147.380 Y46.623 E44.20846
G1 X148.392 Y46.883 E44.29397
G1 X149.085 Y47.118 E44.35384
G1 X149.472 Y47.271 E44.38794
G1 X150.136 Y47.573 E44.44760
G1 X151.052 Y48.077 E44.53315
G1 X151.662 Y48.475 E44.59275
G1 X151.999 Y48.720 E44.62686
G1 X152.805 Y49.387 E44.71247
G1 X153.329 Y49.893 E44.77209
G1 X153.613 Y50.195 E44.80604
G1 X154.280 Y51.001 E44.89164
G1 X154.525 Y51.338 E44.92574
G1 X154.923 Y51.948 E44.98535
G1 X155.427 Y52.864 E45.07089
G1 X155.729 Y53.528 E45.13056
G1 X155.882 Y53.915 E45.16465
G1 X156.117 Y54.608 E45.22452
G1 X156.377 Y55.618 E45.30991
G1 X156.504 Y56.336 E45.36952
G1 X156.556 Y56.751 E45.40380
G1 X156.612 Y57.477 E45.46339
G1 X156.625 Y58.000 E45.50619
G1 X156.624 Y74.112 E46.82476
G1 X155.624 Y133.112 E51.65382
G1 X155.511 Y134.221 E51.74501
G1 X149.511 Y166.221 E54.40942
G1 X148.705 Y168.368 E54.59711
G1 X147.215 Y170.111 E54.78479
G1 X145.219 Y171.242 E54.97248
G1 X143.000 Y171.625 E55.15680
G1 X75.000 Y171.625 E60.72169
G1 X72.741 Y171.228 E60.90938
G1 X70.753 Y170.085 E61.09707
G1 X69.274 Y168.332 E61.28476
G1 X68.489 Y166.221 E61.46907
G1 X62.489 Y134.221 E64.13348
G1 X62.376 Y133.112 E64.22467
G1 X61.376 Y74.112 E69.05373
G1 X61.378 Y57.792 E70.38932
G1 X61.414 Y57.063 E70.44909
G1 X61.545 Y56.027 E70.53455
G1 X61.692 Y55.310 E70.59443
G1 X61.883 Y54.607 E70.65405
G1 X62.012 Y54.211 E70.68813
G1 X62.395 Y53.243 E70.77331
G1 X62.716 Y52.582 E70.83343
G1 X62.916 Y52.218 E70.86743
G1 X63.299 Y51.597 E70.92712
G1 X63.821 Y50.870 E71.00038
G1 E67.80038 F2760.00000
G92 E0
G1 X132.150 Y160.650 F7800.000
G1 E3.20000 F2760.00000
G1 X141.850 Y160.650 E3.99382 F1200.000
G1 X141.850 Y163.000 E4.18613
G1 X132.150 Y163.000 E4.97995
G1 X132.150 Y160.725 E5.16612
G1 X132.150 Y160.150 F7800.000
G1 E1.96612 F2760.00000
G92 E0
G1 X142.000 Y163.650 F7800.000
G1 X142.000 Y164.000 F7800.000
G1 X142.010 Y164.025 F7800.000
G1 E3.20000 F2760.00000
G1 X131.975 Y164.025 E4.02121 F1200.000
G1 X131.975 Y163.625 E4.05396
G1 X142.025 Y163.625 E4.87644
G1 X142.025 Y163.966 E4.90432
G1 E1.70432 F2760.00000
G92 E0
G1 X142.000 Y164.000 F7800.000
G1 X132.000 Y164.000 F7800.000
G1 X84.995 Y164.025 F7800.000
G1 E3.20000 F2760.00000
G1 X75.975 Y164.025 E3.93816 F1200.000
G1 X75.975 Y163.625 E3.97092
G1 X86.025 Y163.625 E4.79339
G1 X86.025 Y164.025 E4.82615
G1 X85.070 Y164.025 E4.90432 F1200.000
G1 X85.070 Y163.000 F7800.000
G1 X76.150 Y163.000 E5.63429 F1200.000
G1 X76.150 Y160.650 E5.82661
G1 X85.850 Y160.650 E6.62042 F1200.000
G1 X85.850 Y163.000 E6.81274
G1 X85.145 Y163.000 E6.87044
G1 X84.820 Y163.433 F7800.000
G1 E3.67044 F2760.00000
G92 E0
G1 X132.000 Y132.000 F7800.000
G1 X141.500 Y65.000 F7800.000
G1 X141.525 Y64.975 F7800.000
G1 E3.20000 F2760.00000
G1 X141.525 Y57.025 E3.85058 F1200.000
G1 X148.475 Y57.025 E4.41933 F1200.000
G1 X148.475 Y64.975 E5.06991
G1 X141.600 Y64.975 E5.63252
G1 X142.150 Y64.350 F7800.000
G1 X142.150 Y57.650 E6.18083 F1200.000
G1 X147.850 Y57.650 E6.64729 F1200.000
G1 X147.850 Y64.350 E7.19560
G1 X142.225 Y64.350 E7.65593
G1 X141.650 Y64.350 F7800.000
G1 X142.122 Y56.400 F7800.000
G1 X142.000 Y56.400 E7.66590 F1200.000
G1 X142.365 Y55.853 E7.71974
G1 X142.816 Y55.396 E7.77229
G1 X143.341 Y55.034 E7.82445
G1 X143.772 Y54.831 E7.86349
G1 X144.363 Y54.663 E7.91377
G1 X144.977 Y54.601 E7.96425
G1 X145.451 Y54.631 E8.00308
G1 X146.074 Y54.775 E8.05545 F1200.000
G1 X146.659 Y55.034 E8.10779
G1 X146.800 Y55.117 E8.12116
G1 X147.186 Y55.397 E8.16018
G1 X147.633 Y55.851 E8.21237
G1 X148.000 Y56.400 E8.26639
G1 X142.197 Y56.400 E8.74134
G1 X141.310 Y57.053 F7800.000
G1 X140.969 Y59.531 F7800.000
G1 X86.000 Y132.000 F7800.000
G1 X85.400 Y137.946 F7800.000
G1 X85.400 Y159.400 E10.49706 F1200.000
G1 X76.600 Y159.400 E11.21726
G1 X76.600 Y131.400 E13.50869
G1 X70.600 Y131.400 E13.99971
G1 X70.600 Y72.400 E18.82807
G1 X69.601 Y72.400 E18.90982
G1 X69.605 Y65.600 E19.46635
G1 X77.100 Y65.600 E20.07971
G1 X77.100 Y59.600 E20.57073
G1 X80.345 Y59.600 E20.83633
G1 X80.597 Y60.018 E20.87623
G1 X81.180 Y60.906 E20.96324 F1200.000
G1 X81.788 Y61.771 E21.04971
G1 X82.810 Y63.099 E21.18688
G1 X82.494 Y63.415 E21.22347
G1 X87.585 Y68.506 E21.81268
G1 X87.901 Y68.190 E21.84926
G1 X89.229 Y69.212 E21.98642
G1 X90.094 Y69.820 E22.07289
G1 X90.977 Y70.400 E22.15937
G1 X91.878 Y70.952 E22.24584
G1 X92.796 Y71.475 E22.33231
G1 X93.730 Y71.970 E22.41879
G1 X94.679 Y72.435 E22.50526
G1 X95.650 Y72.873 E22.59251
G1 X97.464 Y73.600 E22.75240
G1 X120.536 Y73.600 E24.64055
G1 X122.350 Y72.873 E24.80044
G1 X123.321 Y72.435 E24.88768
G1 X124.270 Y71.970 E24.97416
G1 X125.204 Y71.475 E25.06063
G1 X126.122 Y70.952 E25.14710
G1 X127.023 Y70.400 E25.23358
G1 X127.906 Y69.820 E25.32005
G1 X128.771 Y69.212 E25.40652
G1 X130.099 Y68.190 E25.54369
G1 X130.415 Y68.506 E25.58027
G1 X135.506 Y63.415 E26.16948
G1 X135.190 Y63.099 E26.20607
G1 X136.212 Y61.771 E26.34323
G1 X136.820 Y60.906 E26.42970
G1 X137.403 Y60.018 E26.51671
G1 X137.655 Y59.600 E26.55661
G1 X140.900 Y59.600 E26.82222
G1 X140.900 Y65.600 E27.31323
G1 X148.395 Y65.600 E27.92659
G1 X148.399 Y72.400 E28.48312
G1 X147.400 Y72.400 E28.56487
G1 X147.400 Y131.400 E33.39324
G1 X141.400 Y131.400 E33.88425
G1 X141.400 Y159.400 E36.17568
G1 X132.600 Y159.400 E36.89588
G1 X132.600 Y131.400 E39.18730
G1 X85.400 Y131.400 E43.04996
G1 X85.400 Y137.871 E43.57952
G1 X76.500 Y56.727 F7800.000
G1 X71.867 Y54.803 F7800.000
G1 X72.155 Y54.710 E43.60436 F1200.000
G1 X72.599 Y54.625 E43.64133
G1 X72.977 Y54.601 E43.67235
G1 X73.426 Y54.630 E43.70912
G1 X73.870 Y54.714 E43.74611 F1200.000
G1 X74.228 Y54.831 E43.77692
G1 X74.637 Y55.023 E43.81390
G1 X74.997 Y55.252 E43.84881
G1 X75.325 Y55.524 E43.88372
G1 X75.635 Y55.853 E43.92070
G1 X76.000 Y56.400 E43.97455
G1 X69.972 Y56.400 E44.46791
G1 X70.396 Y55.816 E44.52700
G1 X70.853 Y55.365 E44.57953
G1 X71.385 Y55.010 E44.63188
G1 X71.795 Y54.827 E44.66866
G1 X71.795 Y57.025 F7800.000
G1 X76.475 Y57.025 E45.05163 F1200.000
G1 X76.475 Y64.975 E45.70221
G1 X69.525 Y64.975 E46.27096
G1 X69.525 Y57.025 E46.92154
G1 X71.720 Y57.025 E47.10118 F1200.000
G1 X71.720 Y57.650 F7800.000
G1 X75.850 Y57.650 E47.43915 F1200.000
G1 X75.850 Y64.350 E47.98745
G1 X70.150 Y64.350 E48.45392
G1 X70.150 Y57.650 E49.00223
G1 X71.645 Y57.650 E49.12459 F1200.000
G1 X71.970 Y57.217 F7800.000
G1 X69.111 Y56.999 F7800.000
G1 X69.197 Y56.665 E49.15281 F1200.000
G1 X69.360 Y56.287 E49.18651
G1 X69.603 Y55.844 E49.22786
G1 X69.908 Y55.425 E49.27027
G1 X70.056 Y55.256 E49.28867
G1 X70.447 Y54.890 E49.33251
G1 X70.622 Y54.753 E49.35068
G1 X71.075 Y54.466 E49.39454
G1 X71.286 Y54.358 E49.41399
G1 X71.504 Y54.264 E49.43342
G1 X71.999 Y54.103 E49.47602
G1 X72.511 Y54.006 E49.51862
G1 X72.747 Y53.983 E49.53804
G1 X72.987 Y53.976 E49.55770
G1 X73.504 Y54.008 E49.60010
G1 X74.016 Y54.106 E49.64271 F1200.000
G1 X74.244 Y54.172 E49.66215
G1 X74.467 Y54.253 E49.68157
G1 X74.938 Y54.474 E49.72418
G1 X75.365 Y54.745 E49.76553
G1 X75.754 Y55.067 E49.80688
G1 X76.110 Y55.447 E49.84948
G1 X76.247 Y55.622 E49.86766
G1 X76.526 Y56.062 E49.91026
G1 X76.741 Y56.519 E49.95161
G1 X76.905 Y57.025 E49.99516
G1 X76.991 Y57.496 E50.03432
G1 X77.085 Y58.975 E50.15561
G1 X80.699 Y58.975 E50.45137
G1 X81.126 Y59.685 E50.51918
G1 X81.697 Y60.555 E50.60437
G1 X82.294 Y61.403 E50.68923
G1 X82.916 Y62.233 E50.77410
G1 X83.647 Y63.145 E50.86981
G1 X83.377 Y63.415 E50.90106
G1 X87.585 Y67.623 E51.38799
G1 X87.855 Y67.353 E51.41924
G1 X88.767 Y68.084 E51.51494
G1 X89.597 Y68.706 E51.59981
G1 X90.445 Y69.303 E51.68467
G1 X91.312 Y69.872 E51.76954
G1 X92.196 Y70.414 E51.85441
G1 X93.097 Y70.928 E51.93927
G1 X94.013 Y71.413 E52.02414
G1 X94.945 Y71.869 E52.10901
G1 X95.895 Y72.298 E52.19435
G1 X97.584 Y72.975 E52.34327
G1 X120.416 Y72.975 E54.21170
G1 X122.105 Y72.298 E54.36063
G1 X123.055 Y71.869 E54.44597
G1 X123.987 Y71.413 E54.53083
G1 X124.903 Y70.928 E54.61570
G1 X125.804 Y70.414 E54.70057
G1 X126.688 Y69.872 E54.78544
G1 X127.555 Y69.303 E54.87030
G1 X128.403 Y68.706 E54.95517
G1 X129.233 Y68.084 E55.04003
G1 X130.145 Y67.353 E55.13574
G1 X130.415 Y67.623 E55.16699
G1 X134.623 Y63.415 E55.65391
G1 X134.353 Y63.145 E55.68517
G1 X135.084 Y62.233 E55.78087
G1 X135.706 Y61.403 E55.86574
G1 X136.303 Y60.555 E55.95061
G1 X136.874 Y59.685 E56.03580
G1 X137.301 Y58.975 E56.10360
G1 X140.916 Y58.975 E56.39937
G1 X141.009 Y57.480 E56.52191
G1 X141.044 Y57.261 E56.54010
G1 X141.197 Y56.665 E56.59044
G1 X141.253 Y56.533 E56.60220
G1 X141.474 Y56.062 E56.64479
G1 X141.753 Y55.622 E56.68739
G1 X141.890 Y55.447 E56.70557
G1 X142.256 Y55.056 E56.74941
G1 X142.425 Y54.908 E56.76782
G1 X142.857 Y54.594 E56.81147
G1 X143.048 Y54.481 E56.82966
G1 X143.533 Y54.253 E56.87352
G1 X143.742 Y54.178 E56.89169
G1 X144.246 Y54.048 E56.93429
G1 X144.762 Y53.983 E56.97689
G1 X144.987 Y53.976 E56.99529
G1 X145.519 Y54.009 E57.03893
G1 X145.739 Y54.044 E57.05712
G1 X146.258 Y54.178 E57.10099
G1 X146.467 Y54.253 E57.11916
G1 X146.952 Y54.481 E57.16302
G1 X147.143 Y54.594 E57.18120
G1 X147.577 Y54.909 E57.22506
G1 X147.744 Y55.056 E57.24325
G1 X148.109 Y55.445 E57.28692
G1 X148.247 Y55.622 E57.30531
G1 X148.534 Y56.075 E57.34914
G1 X148.797 Y56.651 E57.40100
G1 X148.906 Y57.025 E57.43287
G1 X148.994 Y57.511 E57.47327
G1 X149.015 Y57.732 E57.49147
G1 X149.025 Y73.025 E58.74300
G1 X148.025 Y73.025 E58.82478
G1 X148.025 Y132.025 E63.65314
G1 X142.025 Y132.025 E64.14416
G1 X142.025 Y160.025 E66.43559
G1 X131.975 Y160.025 E67.25807
G1 X131.975 Y132.025 E69.54949
G1 X86.025 Y132.025 E73.30987
G1 X86.025 Y160.025 E75.60129
G1 X75.975 Y160.025 E76.42377
G1 X75.975 Y132.025 E78.71519
G1 X69.975 Y132.025 E79.20621
G1 X69.975 Y73.025 E84.03457
G1 X68.975 Y73.025 E84.11636
G1 X68.985 Y57.748 E85.36662
G1 X69.048 Y57.246 E85.40799
G1 X69.093 Y57.072 E85.42269
G1 X68.488 Y56.917 F7800.000
G1 X68.578 Y56.563 E85.45255 F1200.000
G1 X68.793 Y56.020 E85.50033
G1 X69.074 Y55.509 E85.54811
G1 X69.419 Y55.034 E85.59613
G1 X69.607 Y54.821 E85.61936
G1 X70.040 Y54.414 E85.66804
G1 X70.263 Y54.242 E85.69104
G1 X70.765 Y53.923 E85.73972
G1 X71.020 Y53.793 E85.76318
G1 X71.283 Y53.679 E85.78663
G1 X71.844 Y53.497 E85.83486
G1 X72.423 Y53.386 E85.88310
G1 X72.708 Y53.359 E85.90654
G1 X72.997 Y53.350 E85.93022
G1 X73.583 Y53.387 E85.97824
G1 X74.162 Y53.498 E86.02647 F1200.000
G1 X74.437 Y53.578 E86.04993
G1 X74.707 Y53.675 E86.07338
G1 X75.240 Y53.926 E86.12162
G1 X75.733 Y54.239 E86.16939
G1 X76.183 Y54.611 E86.21718
G1 X76.586 Y55.040 E86.26541
G1 X76.758 Y55.263 E86.28842
G1 X77.074 Y55.760 E86.33664
G1 X77.323 Y56.288 E86.38443
G1 X77.503 Y56.844 E86.43221
G1 X77.613 Y57.417 E86.47999
G1 X77.671 Y58.350 E86.55647
G1 X81.052 Y58.350 E86.83313
G1 X81.655 Y59.352 E86.92883
G1 X82.214 Y60.204 E87.01221
G1 X82.799 Y61.036 E87.09547
G1 X83.410 Y61.850 E87.17873
G1 X84.046 Y62.644 E87.26200
G1 X84.501 Y63.176 E87.31927
G1 X84.261 Y63.415 E87.34702
G1 X87.585 Y66.739 E87.73166
G1 X87.824 Y66.499 E87.75940
G1 X88.356 Y66.954 E87.81667
G1 X89.150 Y67.590 E87.89994
G1 X89.964 Y68.201 E87.98320
G1 X90.796 Y68.786 E88.06646
G1 X91.647 Y69.344 E88.14972
G1 X92.514 Y69.876 E88.23298
G1 X93.398 Y70.380 E88.31624
G1 X94.297 Y70.856 E88.39950
G1 X95.211 Y71.304 E88.48276
G1 X96.140 Y71.723 E88.56619
G1 X97.705 Y72.350 E88.70415
G1 X120.295 Y72.350 E90.55286
G1 X121.860 Y71.723 E90.69083
G1 X122.789 Y71.304 E90.77426
G1 X123.703 Y70.856 E90.85752
G1 X124.602 Y70.380 E90.94078
G1 X125.486 Y69.876 E91.02404
G1 X126.353 Y69.344 E91.10730
G1 X127.204 Y68.786 E91.19056
G1 X128.036 Y68.201 E91.27382
G1 X128.850 Y67.590 E91.35708
G1 X129.644 Y66.954 E91.44035
G1 X130.176 Y66.499 E91.49762
G1 X130.415 Y66.739 E91.52536
G1 X133.739 Y63.415 E91.91000
G1 X133.499 Y63.176 E91.93775
G1 X133.954 Y62.644 E91.99502
G1 X134.590 Y61.850 E92.07829
G1 X135.201 Y61.036 E92.16155
G1 X135.786 Y60.204 E92.24481
G1 X136.345 Y59.352 E92.32819
G1 X136.948 Y58.350 E92.42389
G1 X140.329 Y58.350 E92.70055
G1 X140.388 Y57.412 E92.77748
G1 X140.432 Y57.134 E92.80048
G1 X140.579 Y56.560 E92.84895
G1 X140.675 Y56.293 E92.87218
G1 X140.926 Y55.760 E92.92041
G1 X141.242 Y55.263 E92.96864
G1 X141.414 Y55.040 E92.99164
G1 X141.821 Y54.607 E93.04032
G1 X142.034 Y54.419 E93.06355
G1 X142.513 Y54.071 E93.11201
G1 X142.755 Y53.928 E93.13502
G1 X143.293 Y53.675 E93.18370
G1 X143.558 Y53.580 E93.20670
G1 X144.129 Y53.433 E93.25494
G1 X144.714 Y53.359 E93.30317
G1 X144.997 Y53.350 E93.32639
G1 X145.588 Y53.388 E93.37486
G1 X145.866 Y53.432 E93.39786
G1 X146.442 Y53.580 E93.44655
G1 X146.707 Y53.675 E93.46955
G1 X147.245 Y53.928 E93.51824
G1 X147.487 Y54.071 E93.54124
G1 X147.968 Y54.421 E93.58992
G1 X148.179 Y54.607 E93.61293
G1 X148.584 Y55.038 E93.66140
G1 X148.758 Y55.263 E93.68462
G1 X149.077 Y55.765 E93.73329
G1 X149.205 Y56.015 E93.75630
G1 X149.423 Y56.566 E93.80477
G1 X149.502 Y56.838 E93.82800
G1 X149.614 Y57.423 E93.87667
