; generated by Slic3r 1.2.6 on 2015-03-29 at 18:46:40

; external perimeters extrusion width = 0.50mm
; perimeters extrusion width = 0.72mm
; infill extrusion width = 0.72mm
; solid infill extrusion width = 0.72mm
; top infill extrusion width = 0.72mm

M107
M190 S60 ; set bed temperature
M104 S210 ; set temperature
G28 X0 Y0
G28 Z0
G1 Z0.3 F200
G1 X15 Y20 F12000
M109 S210 ; wait for temperature to be reached
G21 ; set units to millimeters
G90 ; use absolute coordinates
M82 ; use absolute distances for extrusion
G92 E0
G1 Z0.350 F7800.000
G1 E-3.20000 F2760.00000
G92 E0
G1 X63.420 Y50.369 F7800.000
G1 E3.20000 F2760.00000
G1 X63.918 Y49.781 E3.26305 F1200.000
G1 X64.451 Y49.229 E3.32587
G1 X65.018 Y48.710 E3.38873
G1 X65.370 Y48.419 E3.42613
G1 X65.987 Y47.958 E3.48917
G1 X66.630 Y47.539 E3.55198
G1 X67.580 Y47.016 E3.64070
G1 X68.279 Y46.698 E3.70359
G1 X68.704 Y46.530 E3.74094
G1 X69.735 Y46.195 E3.82967
G1 X70.482 Y46.013 E3.89261
G1 X71.238 Y45.879 E3.95542
G1 X71.692 Y45.822 E3.99293
G1 X72.458 Y45.764 E4.05572
G1 X73.000 Y45.750 E4.10013
G1 X145.227 Y45.754 E10.01094
G1 X146.307 Y45.822 E10.09953 F1200.000
G1 X146.762 Y45.879 E10.13703
G1 X147.516 Y46.013 E10.19972
G1 X148.567 Y46.282 E10.28846
G1 X149.297 Y46.530 E10.35155
G1 X149.721 Y46.698 E10.38887
G1 X150.420 Y47.016 E10.45173
G1 X151.370 Y47.539 E10.54050
G1 X152.013 Y47.958 E10.60330
G1 X152.382 Y48.226 E10.64062
G1 X153.218 Y48.918 E10.72947
G1 X153.771 Y49.451 E10.79229
G1 X154.082 Y49.782 E10.82943
G1 X154.774 Y50.618 E10.91826
G1 X155.042 Y50.987 E10.95558
G1 X155.461 Y51.630 E11.01838
G1 X155.984 Y52.580 E11.10715
G1 X156.302 Y53.279 E11.17002
G1 X156.470 Y53.703 E11.20733
G1 X156.718 Y54.433 E11.27042
G1 X156.987 Y55.482 E11.35902
G1 X157.121 Y56.238 E11.42183
G1 X157.178 Y56.692 E11.45934
G1 X157.236 Y57.457 E11.52213
G1 X157.250 Y58.000 E11.56654
G1 X157.249 Y74.123 E12.88598
G1 X156.249 Y133.123 E17.71504
G1 X156.126 Y134.336 E17.81483
G1 X150.126 Y166.336 E20.47924
G1 X149.299 Y168.589 E20.67564
G1 X147.782 Y170.449 E20.87205
G1 X145.741 Y171.712 E21.06845
G1 X143.000 Y172.250 E21.29706
G1 X75.000 Y172.250 E26.86195
G1 X72.633 Y171.853 E27.05835
G1 X70.526 Y170.704 E27.25476
G1 X68.909 Y168.931 E27.45116
G1 X67.874 Y166.336 E27.67977
G1 X61.874 Y134.336 E30.34418
G1 X61.751 Y133.123 E30.44397
G1 X60.751 Y74.123 E35.27302
G1 X60.754 Y57.772 E36.61109
G1 X60.822 Y56.691 E36.69976
G1 X60.928 Y55.929 E36.76274
G1 X61.082 Y55.173 E36.82585
G1 X61.282 Y54.435 E36.88841
G1 X61.424 Y53.999 E36.92596
G1 X61.821 Y52.995 E37.01435
G1 X62.160 Y52.298 E37.07770
G1 X62.538 Y51.631 E37.14045
G1 X62.782 Y51.246 E37.17780
G1 X63.374 Y50.428 E37.26041
G1 X63.867 Y50.811 F7800.000
G1 X64.178 Y50.432 E37.30054 F1200.000
G1 X64.669 Y49.894 E37.36014
G1 X65.431 Y49.179 E37.44563
G1 X65.753 Y48.913 E37.47981
G1 X66.338 Y48.475 E37.53963
G1 X66.948 Y48.076 E37.59924
G1 X67.584 Y47.716 E37.65906
G1 X68.239 Y47.396 E37.71874
G1 X68.915 Y47.118 E37.77857
G1 X69.909 Y46.795 E37.86408
G1 X70.618 Y46.623 E37.92381
G1 X71.336 Y46.496 E37.98342
G1 X71.751 Y46.444 E38.01770
G1 X72.477 Y46.388 E38.07730
G1 X73.000 Y46.375 E38.12009
G1 X145.207 Y46.378 E44.02930
G1 X146.249 Y46.444 E44.11468 F1200.000
G1 X146.664 Y46.496 E44.14895
G1 X147.380 Y46.623 E44.20845
G1 X148.392 Y46.883 E44.29397
G1 X149.085 Y47.118 E44.35384
G1 X149.472 Y47.271 E44.38794
G1 X150.136 Y47.573 E44.44760
G1 X151.052 Y48.077 E44.53315
G1 X151.662 Y48.475 E44.59275
G1 X151.999 Y48.720 E44.62686
G1 X152.805 Y49.387 E44.71247
G1 X153.329 Y49.893 E44.77209
G1 X153.613 Y50.195 E44.80604
G1 X154.280 Y51.001 E44.89164
G1 X154.525 Y51.338 E44.92574
G1 X154.923 Y51.948 E44.98534
G1 X155.427 Y52.864 E45.07089
G1 X155.729 Y53.528 E45.13056
G1 X155.882 Y53.915 E45.16465
G1 X156.117 Y54.608 E45.22452
G1 X156.377 Y55.618 E45.30991
G1 X156.504 Y56.336 E45.36952
G1 X156.556 Y56.751 E45.40380
G1 X156.612 Y57.477 E45.46339
G1 X156.625 Y58.000 E45.50619
G1 X156.624 Y74.112 E46.82476
G1 X155.624 Y133.112 E51.65382
G1 X155.511 Y134.221 E51.74501
G1 X149.511 Y166.221 E54.40942
G1 X148.705 Y168.368 E54.59711
G1 X147.215 Y170.111 E54.78479
G1 X145.220 Y171.242 E54.97248
G1 X143.000 Y171.625 E55.15680
G1 X75.000 Y171.625 E60.72169
G1 X72.741 Y171.228 E60.90938
G1 X70.753 Y170.085 E61.09707
G1 X69.274 Y168.332 E61.28476
G1 X68.489 Y166.221 E61.46907
G1 X62.489 Y134.221 E64.13348
G1 X62.376 Y133.112 E64.22467
G1 X61.376 Y74.112 E69.05373
G1 X61.378 Y57.792 E70.38932
G1 X61.414 Y57.063 E70.44909
G1 X61.545 Y56.027 E70.53454
G1 X61.692 Y55.310 E70.59443
G1 X61.883 Y54.607 E70.65405
G1 X62.012 Y54.211 E70.68813
G1 X62.395 Y53.243 E70.77331
G1 X62.716 Y52.582 E70.83343
G1 X62.916 Y52.218 E70.86743
G1 X63.299 Y51.597 E70.92712
G1 X63.821 Y50.870 E71.00038
G1 E67.80038 F2760.00000
G92 E0
G1 X132.400 Y160.650 F7800.000
G1 E3.20000 F2760.00000
G1 X141.600 Y160.650 E3.95290 F1200.000
G1 X141.600 Y163.000 E4.14521
G1 X132.400 Y163.000 E4.89811
G1 X132.400 Y160.725 E5.08429
G1 X132.400 Y160.150 F7800.000
G1 X132.000 Y163.650 F7800.000
G1 X132.000 Y164.000 F7800.000
G1 X140.237 Y164.025 F7800.000
G1 X131.975 Y164.025 E5.76044 F1200.000
G1 X131.975 Y163.625 E5.79319
G1 X142.025 Y163.625 E6.61567
G1 X142.025 Y164.025 E6.64842
G1 X140.312 Y164.025 E6.78861 F1200.000
G1 E3.58861 F2760.00000
G92 E0
G1 X86.000 Y164.000 F7800.000
G1 X86.000 Y163.650 F7800.000
G1 X76.731 Y163.625 F7800.000
G1 E3.20000 F2760.00000
G1 X86.025 Y163.625 E3.96063 F1200.000
G1 X86.025 Y164.025 E3.99338
G1 X75.975 Y164.025 E4.81586 F1200.000
G1 X75.975 Y163.625 E4.84861
G1 X76.656 Y163.625 E4.90432
G1 X76.656 Y163.000 F7800.000
G1 X76.400 Y163.000 E4.92524 F1200.000
G1 X76.400 Y160.650 E5.11756
G1 X85.600 Y160.650 E5.87045 F1200.000
G1 X85.600 Y163.000 E6.06277
G1 X76.731 Y163.000 E6.78861
G1 X76.528 Y163.221 F7800.000
G1 E3.58861 F2760.00000
G92 E0
G1 X132.000 Y160.000 F7800.000
G1 X141.550 Y65.000 F7800.000
G1 X141.575 Y64.975 F7800.000
G1 E3.20000 F2760.00000
G1 X141.575 Y57.325 E3.82603 F1200.000
G1 X148.225 Y57.325 E4.37023 F1200.000
G1 X148.225 Y64.975 E4.99626
G1 X141.650 Y64.975 E5.53432
G1 X142.200 Y64.350 F7800.000
G1 X142.200 Y57.950 E6.05807 F1200.000
G1 X147.600 Y57.950 E6.49999 F1200.000
G1 X147.600 Y64.350 E7.02374
G1 X142.275 Y64.350 E7.45952
G1 X141.700 Y64.350 F7800.000
G1 X142.201 Y56.083 F7800.000
G1 X142.365 Y55.853 E7.48261 F1200.000
G1 X142.816 Y55.396 E7.53515
G1 X143.341 Y55.034 E7.58732
G1 X143.772 Y54.831 E7.62636
G1 X144.363 Y54.663 E7.67663
G1 X144.811 Y54.607 E7.71359
G1 X145.451 Y54.631 E7.76595
G1 X146.074 Y54.775 E7.81832 F1200.000
G1 X146.228 Y54.831 E7.83166
G1 X146.659 Y55.034 E7.87070
G1 X147.186 Y55.397 E7.92305
G1 X147.633 Y55.851 E7.97524
G1 X147.735 Y55.982 E7.98880
G1 X147.990 Y56.385 E8.02780
G1 X148.151 Y56.700 E8.05678
G1 X141.865 Y56.700 E8.57124
G1 X142.023 Y56.363 E8.60170
G1 X142.161 Y56.146 E8.62278
G1 X130.415 Y68.506 F7800.000
G1 X135.506 Y63.415 E9.21199 F1200.000
G1 X135.268 Y63.177 E9.23956
G1 X136.301 Y61.835 E9.37812
G1 X136.910 Y60.968 E9.46487
G1 X137.496 Y60.076 E9.55223
G1 X137.782 Y59.600 E9.59766
G1 X140.950 Y59.600 E9.85693
G1 X140.950 Y65.600 E10.34795
G1 X148.395 Y65.600 E10.95721
G1 X148.399 Y72.400 E11.51374
G1 X147.400 Y72.400 E11.59550
G1 X147.400 Y131.400 E16.42386
G1 X141.400 Y131.400 E16.91488
G1 X141.400 Y159.400 E19.20630
G1 X132.600 Y159.400 E19.92650
G1 X132.600 Y131.400 E22.21793
G1 X85.400 Y131.400 E26.08058
G1 X85.400 Y159.400 E28.37200
G1 X76.600 Y159.400 E29.09220
G1 X76.600 Y131.400 E31.38363
G1 X70.600 Y131.400 E31.87465
G1 X70.600 Y72.400 E36.70301
G1 X69.601 Y72.400 E36.78477
G1 X69.605 Y65.600 E37.34129
G1 X76.850 Y65.600 E37.93419
G1 X76.850 Y59.600 E38.42521
G1 X80.218 Y59.600 E38.70085
G1 X80.504 Y60.076 E38.74627
G1 X81.090 Y60.968 E38.83363 F1200.000
G1 X81.699 Y61.835 E38.92038
G1 X82.732 Y63.177 E39.05896
G1 X82.494 Y63.415 E39.08653
G1 X87.585 Y68.506 E39.67574
G1 X87.823 Y68.268 E39.70330
G1 X89.165 Y69.301 E39.84186
G1 X90.032 Y69.910 E39.92862
G1 X90.918 Y70.492 E40.01537
G1 X91.823 Y71.047 E40.10224
G1 X92.795 Y71.599 E40.19373
G1 X93.680 Y72.068 E40.27564
G1 X94.632 Y72.534 E40.36239
G1 X95.603 Y72.973 E40.44964
G1 X97.150 Y73.600 E40.58622
G1 X120.850 Y73.600 E42.52572
G1 X122.397 Y72.973 E42.66231
G1 X123.368 Y72.534 E42.74956
G1 X124.320 Y72.068 E42.83631
G1 X125.257 Y71.571 E42.92307
G1 X126.178 Y71.046 E43.00982
G1 X127.082 Y70.492 E43.09658
G1 X127.968 Y69.910 E43.18333
G1 X128.835 Y69.301 E43.27009
G1 X130.177 Y68.268 E43.40867
G1 X130.362 Y68.453 E43.43008
G1 X88.304 Y89.102 F7800.000
G1 X76.641 Y59.012 F7800.000
G1 X76.194 Y56.736 F7800.000
G1 X70.779 Y55.434 F7800.000
G1 X70.982 Y55.265 E43.45167 F1200.000
G1 X71.385 Y55.010 E43.49071
G1 X71.726 Y54.849 E43.52154
G1 X72.155 Y54.710 E43.55851
G1 X72.599 Y54.625 E43.59547
G1 X72.786 Y54.607 E43.61086
G1 X72.977 Y54.601 E43.62651
G1 X73.426 Y54.630 E43.66328
G1 X73.870 Y54.714 E43.70027 F1200.000
G1 X74.228 Y54.831 E43.73108
G1 X74.637 Y55.023 E43.76806
G1 X74.997 Y55.252 E43.80297
G1 X75.325 Y55.524 E43.83788
G1 X75.635 Y55.853 E43.87486
G1 X75.977 Y56.363 E43.92515
G1 X76.135 Y56.700 E43.95561
G1 X69.846 Y56.700 E44.47033
G1 X70.132 Y56.180 E44.51894
G1 X70.396 Y55.816 E44.55573
G1 X70.725 Y55.486 E44.59387
G1 X70.725 Y57.325 F7800.000
G1 X76.225 Y57.325 E45.04398 F1200.000
G1 X76.225 Y64.975 E45.67001
G1 X69.575 Y64.975 E46.21421
G1 X69.575 Y57.325 E46.84024
G1 X70.650 Y57.325 E46.92819 F1200.000
G1 X70.650 Y57.950 F7800.000
G1 X75.600 Y57.950 E47.33330 F1200.000
G1 X75.600 Y64.350 E47.85705
G1 X70.200 Y64.350 E48.29897
G1 X70.200 Y57.950 E48.82272
G1 X70.575 Y57.950 E48.85339 F1200.000
G1 X70.900 Y57.517 F7800.000
G1 X68.985 Y57.949 F7800.000
G1 X68.985 Y57.748 E48.86988 F1200.000
G1 X69.048 Y57.246 E48.91124
G1 X69.174 Y56.757 E48.95259
G1 X69.360 Y56.287 E48.99394
G1 X69.603 Y55.844 E49.03529
G1 X69.908 Y55.425 E49.07769
G1 X70.056 Y55.256 E49.09609
G1 X70.447 Y54.890 E49.13993
G1 X70.622 Y54.753 E49.15811
G1 X71.075 Y54.466 E49.20197
G1 X71.286 Y54.358 E49.22141
G1 X71.504 Y54.264 E49.24085
G1 X71.999 Y54.103 E49.28345
G1 X72.511 Y54.006 E49.32604
G1 X72.747 Y53.983 E49.34546
G1 X72.987 Y53.976 E49.36512
G1 X73.504 Y54.009 E49.40752
G1 X74.016 Y54.106 E49.45013 F1200.000
G1 X74.244 Y54.172 E49.46957
G1 X74.467 Y54.253 E49.48900
G1 X74.938 Y54.474 E49.53161
G1 X75.365 Y54.745 E49.57295
G1 X75.754 Y55.067 E49.61430
G1 X76.110 Y55.447 E49.65690
G1 X76.247 Y55.622 E49.67508
G1 X76.526 Y56.062 E49.71768
G1 X76.741 Y56.519 E49.75903
G1 X76.897 Y57.000 E49.80038
G1 X76.991 Y57.496 E49.84172
G1 X77.085 Y58.975 E49.96301
G1 X80.572 Y58.975 E50.24839
G1 X81.033 Y59.743 E50.32172
G1 X81.607 Y60.617 E50.40724
G1 X82.205 Y61.468 E50.49239
G1 X82.830 Y62.300 E50.57753
G1 X83.569 Y63.223 E50.67438
G1 X83.377 Y63.415 E50.69660
G1 X87.585 Y67.623 E51.18353
G1 X87.777 Y67.431 E51.20575
G1 X88.700 Y68.170 E51.30258
G1 X89.532 Y68.795 E51.38773
G1 X90.383 Y69.393 E51.47288
G1 X91.253 Y69.965 E51.55803
G1 X92.141 Y70.509 E51.64324
G1 X93.096 Y71.051 E51.73313
G1 X93.964 Y71.511 E51.81347
G1 X94.898 Y71.968 E51.89862
G1 X95.850 Y72.398 E51.98407
G1 X97.272 Y72.975 E52.10968
G1 X120.728 Y72.975 E54.02924
G1 X122.150 Y72.398 E54.15485
G1 X123.102 Y71.968 E54.24030
G1 X124.036 Y71.511 E54.32545
G1 X124.956 Y71.024 E54.41060
G1 X125.860 Y70.508 E54.49575
G1 X126.747 Y69.965 E54.58090
G1 X127.617 Y69.393 E54.66605
G1 X128.468 Y68.795 E54.75119
G1 X129.300 Y68.170 E54.83634
G1 X130.223 Y67.431 E54.93319
G1 X130.415 Y67.623 E54.95540
G1 X134.623 Y63.415 E55.44233
G1 X134.431 Y63.223 E55.46455
G1 X135.170 Y62.300 E55.56139
G1 X135.795 Y61.468 E55.64654
G1 X136.393 Y60.617 E55.73168
G1 X136.967 Y59.743 E55.81720
G1 X137.428 Y58.975 E55.89053
G1 X140.916 Y58.975 E56.17592
G1 X141.009 Y57.480 E56.29845
G1 X141.044 Y57.261 E56.31664
G1 X141.177 Y56.744 E56.36031
G1 X141.253 Y56.533 E56.37870
G1 X141.474 Y56.062 E56.42129
G1 X141.753 Y55.622 E56.46389
G1 X141.890 Y55.447 E56.48206
G1 X142.256 Y55.056 E56.52591
G1 X142.425 Y54.908 E56.54431
G1 X142.857 Y54.594 E56.58797
G1 X143.048 Y54.481 E56.60615
G1 X143.533 Y54.253 E56.65002
G1 X143.742 Y54.178 E56.66819
G1 X144.246 Y54.048 E56.71079
G1 X144.762 Y53.983 E56.75339
G1 X144.987 Y53.976 E56.77178
G1 X145.519 Y54.009 E56.81543
G1 X145.739 Y54.044 E56.83362
G1 X146.258 Y54.178 E56.87748
G1 X146.467 Y54.253 E56.89566
G1 X146.952 Y54.481 E56.93952
G1 X147.143 Y54.594 E56.95770
G1 X147.577 Y54.909 E57.00156
G1 X147.744 Y55.056 E57.01975
G1 X148.109 Y55.445 E57.06341
G1 X148.247 Y55.622 E57.08181
G1 X148.534 Y56.075 E57.12564
G1 X148.635 Y56.273 E57.14383
G1 X148.831 Y56.769 E57.18749
G1 X148.894 Y56.985 E57.20589
G1 X148.994 Y57.511 E57.24972
G1 X149.015 Y57.732 E57.26792
G1 X149.025 Y73.025 E58.51945
G1 X148.025 Y73.025 E58.60123
G1 X148.025 Y132.025 E63.42959
G1 X142.025 Y132.025 E63.92061
G1 X142.025 Y160.025 E66.21204
G1 X131.975 Y160.025 E67.03452
G1 X131.975 Y132.025 E69.32594
G1 X86.025 Y132.025 E73.08632
G1 X86.025 Y160.025 E75.37774
G1 X75.975 Y160.025 E76.20022
G1 X75.975 Y132.025 E78.49164
G1 X69.975 Y132.025 E78.98266
G1 X69.975 Y73.025 E83.81102
G1 X68.975 Y73.025 E83.89281
G1 X68.985 Y58.024 E85.12045
G1 X68.360 Y58.024 F7800.000
G1 X68.360 Y57.708 E85.14627 F1200.000
G1 X68.433 Y57.129 E85.19406
G1 X68.578 Y56.563 E85.24184
G1 X68.793 Y56.020 E85.28962
G1 X69.074 Y55.509 E85.33740
G1 X69.419 Y55.034 E85.38542
G1 X69.607 Y54.821 E85.40864
G1 X70.040 Y54.414 E85.45732
G1 X70.263 Y54.242 E85.48032
G1 X70.765 Y53.923 E85.52901
G1 X71.020 Y53.793 E85.55247
G1 X71.283 Y53.679 E85.57592
G1 X71.844 Y53.497 E85.62415
G1 X72.423 Y53.386 E85.67238
G1 X72.708 Y53.359 E85.69583
G1 X72.997 Y53.350 E85.71951
G1 X73.583 Y53.387 E85.76752
G1 X74.162 Y53.498 E85.81576 F1200.000
G1 X74.437 Y53.578 E85.83921
G1 X74.707 Y53.675 E85.86267
G1 X75.240 Y53.926 E85.91090
G1 X75.733 Y54.239 E85.95868
G1 X76.183 Y54.611 E86.00647
G1 X76.586 Y55.040 E86.05470
G1 X76.758 Y55.263 E86.07770
G1 X77.074 Y55.760 E86.12593
G1 X77.323 Y56.288 E86.17372
G1 X77.503 Y56.844 E86.22150
G1 X77.613 Y57.417 E86.26928
G1 X77.671 Y58.350 E86.34576
G1 X80.925 Y58.350 E86.61207
G1 X81.562 Y59.411 E86.71331
G1 X82.123 Y60.265 E86.79698
G1 X82.710 Y61.100 E86.88052
G1 X83.323 Y61.917 E86.96406
G1 X83.962 Y62.714 E87.04761
G1 X84.423 Y63.253 E87.10573
G1 X84.261 Y63.415 E87.12449
G1 X87.585 Y66.739 E87.50913
G1 X87.747 Y66.577 E87.52789
G1 X88.286 Y67.038 E87.58600
G1 X89.083 Y67.677 E87.66955
G1 X89.900 Y68.290 E87.75309
G1 X90.735 Y68.877 E87.83664
G1 X91.588 Y69.437 E87.92018
G1 X92.459 Y69.971 E88.00374
G1 X93.397 Y70.503 E88.09202
G1 X94.247 Y70.954 E88.17080
G1 X95.164 Y71.403 E88.25434
G1 X96.096 Y71.824 E88.33799
G1 X97.394 Y72.350 E88.45264
G1 X120.606 Y72.350 E90.35225
G1 X121.904 Y71.824 E90.46690
G1 X122.836 Y71.403 E90.55055
G1 X123.753 Y70.954 E90.63409
G1 X124.655 Y70.476 E90.71763
G1 X125.542 Y69.970 E90.80117
G1 X126.412 Y69.437 E90.88472
G1 X127.265 Y68.877 E90.96826
G1 X128.100 Y68.290 E91.05180
G1 X128.917 Y67.677 E91.13534
G1 X129.714 Y67.038 E91.21889
G1 X130.253 Y66.577 E91.27701
G1 X130.415 Y66.739 E91.29576
G1 X133.739 Y63.415 E91.68040
G1 X133.577 Y63.253 E91.69917
G1 X134.038 Y62.714 E91.75728
G1 X134.677 Y61.917 E91.84083
G1 X135.290 Y61.100 E91.92437
G1 X135.877 Y60.265 E92.00791
G1 X136.438 Y59.411 E92.09159
G1 X137.075 Y58.350 E92.19283
G1 X140.329 Y58.350 E92.45914
G1 X140.388 Y57.412 E92.53607
G1 X140.432 Y57.134 E92.55907
G1 X140.579 Y56.560 E92.60754
G1 X140.675 Y56.293 E92.63076
G1 X140.926 Y55.760 E92.67900
G1 X141.242 Y55.263 E92.72722
G1 X141.414 Y55.040 E92.75023
G1 X141.821 Y54.607 E92.79891
G1 X142.034 Y54.419 E92.82214
G1 X142.513 Y54.071 E92.87060
G1 X142.755 Y53.928 E92.89360
G1 X143.294 Y53.675 E92.94229
G1 X143.558 Y53.580 E92.96529
G1 X144.129 Y53.433 E93.01353
G1 X144.714 Y53.359 E93.06176
G1 X144.997 Y53.350 E93.08498
G1 X145.588 Y53.388 E93.13344
G1 X145.866 Y53.432 E93.15645
G1 X146.442 Y53.580 E93.20514
G1 X146.707 Y53.675 E93.22814
G1 X147.245 Y53.928 E93.27682
G1 X147.487 Y54.071 E93.29983
G1 X147.968 Y54.421 E93.34851
G1 X148.179 Y54.607 E93.37151
