; generated by Slic3r 1.2.9 on 2015-07-12 at 19:22:03

; external perimeters extrusion width = 0.50mm
; perimeters extrusion width = 0.50mm
; infill extrusion width = 0.50mm
; solid infill extrusion width = 0.50mm
; top infill extrusion width = 0.50mm

M107
M190 S57 ; set bed temperature
M104 S200 ; set temperature
G28 ; home all axes
M83;
G10 P0 S195 R160
T0

M109 S200 ; wait for temperature to be reached
G21 ; set units to millimeters
G90 ; use absolute coordinates
M83 ; use relative distances for extrusion
G1 E-3.50000 F2400.00000
G1 Z0.300 F9000.000
G1 X74.591 Y84.211 F9000.000
G1 E3.50000 F2400.00000
G1 X76.231 Y83.290 E0.17255 F1200.000
G1 X77.550 Y83.091 E0.12239
G1 X122.450 Y83.091 E4.11960
G1 X124.289 Y83.487 E0.17255
G1 X125.802 Y84.603 E0.17255 F1200.000
G1 X126.722 Y86.244 E0.17255
G1 X126.921 Y87.562 E0.12239
G1 X126.921 Y112.462 E2.28459
G1 X126.526 Y114.301 E0.17255
G1 X125.409 Y115.814 E0.17255
G1 X123.769 Y116.735 E0.17255
G1 X122.450 Y116.934 E0.12239
G1 X77.550 Y116.934 E4.11960
G1 X75.711 Y116.538 E0.17255
G1 X74.198 Y115.422 E0.17255
G1 X73.278 Y113.781 E0.17255
G1 X73.079 Y112.462 E0.12239
G1 X73.079 Y87.562 E2.28459
G1 X73.474 Y85.724 E0.17255
G1 X74.546 Y84.271 E0.16567
G1 X75.193 Y84.713 F9000.000
G1 X75.310 Y84.573 E0.01672 F1200.000
G1 X77.550 Y83.827 E0.21667
G1 X122.450 Y83.827 E4.11960
G1 X124.121 Y84.222 E0.15755
G1 X125.439 Y85.322 E0.15755 F1200.000
G1 X126.186 Y87.562 E0.21667
G1 X126.186 Y112.462 E2.28459
G1 X125.791 Y114.134 E0.15755
G1 X124.690 Y115.452 E0.15755
G1 X122.450 Y116.198 E0.21667
G1 X77.550 Y116.198 E4.11960
G1 X75.879 Y115.803 E0.15755
G1 X74.561 Y114.703 E0.15755
G1 X73.814 Y112.462 E0.21667
G1 X73.814 Y87.562 E2.28459
G1 X74.209 Y85.891 E0.15755
G1 X75.145 Y84.771 E0.13395
G1 E-3.50000 F2400.00000
G1 X121.314 Y111.327 F9000.000
G1 E3.50000 F2400.00000
G1 X78.686 Y111.327 E3.91121 F900.000
G1 X78.686 Y103.698 E0.69994
G1 X121.314 Y103.698 E3.91121
G1 X121.314 Y111.252 E0.69306
G1 X122.050 Y112.062 F9000.000
G1 X77.950 Y112.062 E4.04620 F900.000
G1 X77.950 Y102.962 E0.83493
G1 X122.050 Y102.962 E4.04620
G1 X122.050 Y111.987 E0.82805
G1 X121.617 Y111.812 F9000.000
G1 X120.865 Y104.499 F9000.000
G1 X120.513 Y104.147 E0.04661 F900.000
G1 X119.452 Y104.147 E0.09933
G1 X120.865 Y105.561 E0.18708
G1 X120.865 Y106.622 E0.09933
G1 X118.391 Y104.147 E0.32755
G1 X117.329 Y104.147 E0.09933
G1 X120.865 Y107.683 E0.46803
G1 X120.865 Y108.744 E0.09933
G1 X116.268 Y104.147 E0.60850
G1 X115.207 Y104.147 E0.09933
G1 X120.865 Y109.806 E0.74898
G1 X120.851 Y110.852 E0.09797
G1 X114.146 Y104.147 E0.88751
G1 X113.084 Y104.147 E0.09933
G1 X119.815 Y110.878 E0.89087
G1 X118.753 Y110.878 E0.09933
G1 X112.023 Y104.147 E0.89087
G1 X110.962 Y104.147 E0.09933
G1 X117.692 Y110.878 E0.89087
G1 X116.631 Y110.878 E0.09933
G1 X109.901 Y104.147 E0.89087
G1 X108.839 Y104.147 E0.09933
G1 X115.570 Y110.878 E0.89087
G1 X114.508 Y110.878 E0.09933
G1 X107.778 Y104.147 E0.89087
G1 X106.717 Y104.147 E0.09933
G1 X113.447 Y110.878 E0.89087
G1 X112.386 Y110.878 E0.09933
G1 X105.655 Y104.147 E0.89087
G1 X104.594 Y104.147 E0.09933
G1 X111.325 Y110.878 E0.89087
G1 X110.263 Y110.878 E0.09933
G1 X103.533 Y104.147 E0.89087
G1 X102.472 Y104.147 E0.09933
G1 X109.202 Y110.878 E0.89087
G1 X108.141 Y110.878 E0.09933
G1 X101.410 Y104.147 E0.89087
G1 X100.349 Y104.147 E0.09933
G1 X107.080 Y110.878 E0.89087
G1 X106.018 Y110.878 E0.09933
G1 X99.288 Y104.147 E0.89087
G1 X98.227 Y104.147 E0.09933
G1 X104.957 Y110.878 E0.89087
G1 X103.896 Y110.878 E0.09933
G1 X97.165 Y104.147 E0.89087
G1 X96.104 Y104.147 E0.09933
G1 X102.835 Y110.878 E0.89087
G1 X101.773 Y110.878 E0.09933
G1 X95.043 Y104.147 E0.89087
G1 X93.982 Y104.147 E0.09933
G1 X100.712 Y110.878 E0.89087
G1 X99.651 Y110.878 E0.09933
G1 X92.920 Y104.147 E0.89087
G1 X91.859 Y104.147 E0.09933
G1 X98.590 Y110.878 E0.89087
G1 X97.528 Y110.878 E0.09933
G1 X90.798 Y104.147 E0.89087
G1 X89.737 Y104.147 E0.09933
G1 X96.467 Y110.878 E0.89087
G1 X95.406 Y110.878 E0.09933
G1 X88.675 Y104.147 E0.89087
G1 X87.614 Y104.147 E0.09933
G1 X94.344 Y110.878 E0.89087
G1 X93.283 Y110.878 E0.09933
G1 X86.553 Y104.147 E0.89087
G1 X85.492 Y104.147 E0.09933
G1 X92.222 Y110.878 E0.89087
G1 X91.161 Y110.878 E0.09933
G1 X84.430 Y104.147 E0.89087
G1 X83.369 Y104.147 E0.09933
G1 X90.099 Y110.878 E0.89087
G1 X89.038 Y110.878 E0.09933
G1 X82.308 Y104.147 E0.89087
G1 X81.247 Y104.147 E0.09933
G1 X87.977 Y110.878 E0.89087
G1 X86.916 Y110.878 E0.09933
G1 X80.185 Y104.147 E0.89087
G1 X79.149 Y104.173 E0.09698
G1 X85.854 Y110.878 E0.88751
G1 X84.793 Y110.878 E0.09933
G1 X79.135 Y105.219 E0.74897
G1 X79.135 Y106.281 E0.09933
G1 X83.732 Y110.878 E0.60850
G1 X82.671 Y110.878 E0.09933
G1 X79.135 Y107.342 E0.46802
G1 X79.135 Y108.403 E0.09933
G1 X81.609 Y110.878 E0.32755
G1 X80.548 Y110.878 E0.09933
G1 X79.135 Y109.464 E0.18708
G1 X79.135 Y110.526 E0.09933
G1 X79.487 Y110.878 E0.04660
G1 E-3.50000 F2400.00000
G1 X121.314 Y96.327 F9000.000
G1 E3.50000 F2400.00000
G1 X120.429 Y96.327 E0.08120 F900.000
G1 X120.429 Y88.698 E0.69994
G1 X121.314 Y88.698 E0.08120
G1 X121.314 Y96.252 E0.69306
G1 X122.050 Y97.062 F9000.000
G1 X119.694 Y97.062 E0.21618 F900.000
G1 X119.694 Y87.962 E0.83493
G1 X122.050 Y87.962 E0.21618
G1 X122.050 Y96.987 E0.82805
G1 X121.617 Y96.812 F9000.000
G1 X120.872 Y95.959 F9000.000
G1 X120.872 Y89.066 E0.63245 F600.000
G1 E-3.50000 F2400.00000
G1 X103.683 Y93.221 F9000.000
G1 E3.50000 F2400.00000
G1 X103.569 Y93.665 E0.04205 F900.000
G1 X103.485 Y93.899 E0.02277
G1 X103.290 Y94.314 E0.04206
G1 X103.163 Y94.527 E0.02277
G1 X102.893 Y94.899 E0.04211
G1 X102.723 Y95.091 E0.02356
G1 X102.391 Y95.403 E0.04182
G1 X102.010 Y95.679 E0.04321
G1 X101.603 Y95.903 E0.04264
G1 X101.153 Y96.081 E0.04436
G1 X100.703 Y96.197 E0.04264
G1 X100.242 Y96.255 E0.04264
G1 X99.994 Y96.263 E0.02277
G1 X99.536 Y96.234 E0.04206
G1 X99.291 Y96.195 E0.02278
G1 X98.841 Y96.080 E0.04264
G1 X98.409 Y95.909 E0.04264
G1 X98.188 Y95.796 E0.02277
G1 X97.795 Y95.547 E0.04264
G1 X97.437 Y95.251 E0.04264
G1 X97.262 Y95.075 E0.02277
G1 X96.969 Y94.722 E0.04206
G1 X96.710 Y94.314 E0.04436
G1 X96.513 Y93.893 E0.04264
G1 X96.368 Y93.450 E0.04279
G1 X96.287 Y93.070 E0.03560
G1 X96.249 Y92.514 E0.05120
G1 X96.278 Y92.049 E0.04274
G1 X96.317 Y91.804 E0.02277
G1 X96.431 Y91.360 E0.04205
G1 X96.515 Y91.126 E0.02278
G1 X96.710 Y90.711 E0.04206
G1 X96.975 Y90.296 E0.04519
G1 X97.262 Y89.950 E0.04124
G1 X97.437 Y89.774 E0.02276
G1 X97.795 Y89.478 E0.04264
G1 X98.188 Y89.229 E0.04264
G1 X98.409 Y89.116 E0.02277
G1 X98.835 Y88.948 E0.04206
G1 X99.073 Y88.878 E0.02277
G1 X99.530 Y88.791 E0.04263
G1 X99.985 Y88.762 E0.04182 F900.000
G1 X100.241 Y88.770 E0.02356
G1 X100.703 Y88.828 E0.04268
G1 X101.144 Y88.941 E0.04182
G1 X101.603 Y89.122 E0.04519
G1 X102.004 Y89.343 E0.04206
G1 X102.210 Y89.482 E0.02277
G1 X102.568 Y89.778 E0.04264
G1 X102.886 Y90.117 E0.04268
G1 X103.043 Y90.321 E0.02356
G1 X103.287 Y90.706 E0.04181
G1 X103.485 Y91.126 E0.04267
G1 X103.571 Y91.368 E0.02356
G1 X103.683 Y91.804 E0.04123
G1 X103.722 Y92.049 E0.02276
G1 X103.751 Y92.512 E0.04264
G1 X103.695 Y93.147 E0.05848
G1 X104.026 Y93.525 F9000.000
G1 E-3.50000 F2400.00000
G1 X97.584 Y96.327 F9000.000
G1 E3.50000 F2400.00000
G1 X93.686 Y96.327 E0.35768 F900.000
G1 X93.686 Y88.698 E0.69994
G1 X97.584 Y88.698 E0.35768
G1 X96.942 Y89.230 E0.07649
G1 X96.717 Y89.454 E0.02910
G1 X96.387 Y89.853 E0.04753
G1 X96.060 Y90.367 E0.05590
G1 X95.835 Y90.844 E0.04843
G1 X95.727 Y91.143 E0.02915
G1 X95.596 Y91.654 E0.04840
G1 X95.546 Y91.968 E0.02913
G1 X95.512 Y92.515 E0.05035
G1 X95.557 Y93.173 E0.06047
G1 X95.657 Y93.641 E0.04392
G1 X95.827 Y94.165 E0.05051
G1 X96.060 Y94.658 E0.05007
G1 X96.381 Y95.164 E0.05497
G1 X96.717 Y95.571 E0.04843
G1 X96.942 Y95.795 E0.02913
G1 X97.526 Y96.279 E0.06961
G1 X92.950 Y95.962 F9000.000
G1 X88.050 Y95.962 E0.44958 F900.000
G1 X88.050 Y89.062 E0.63308
G1 X92.950 Y89.062 E0.44958
G1 X92.950 Y95.887 E0.62620
G1 X92.950 Y96.462 F9000.000
G1 X87.314 Y96.327 F9000.000
G1 X85.929 Y96.327 E0.12708 F900.000
G1 X85.929 Y88.698 E0.69994
G1 X87.314 Y88.698 E0.12708
G1 X87.314 Y96.252 E0.69306
G1 X102.481 Y96.327 F9000.000
G1 X103.251 Y95.604 E0.09694 F900.000
G1 X103.468 Y95.360 E0.02995
G1 X103.779 Y94.932 E0.04856
G1 X103.940 Y94.658 E0.02913
G1 X104.165 Y94.181 E0.04843
G1 X104.273 Y93.882 E0.02915
G1 X104.404 Y93.371 E0.04840
G1 X104.454 Y93.057 E0.02913
G1 X104.488 Y92.512 E0.05008
G1 X104.454 Y91.968 E0.05008
G1 X104.404 Y91.654 E0.02910
G1 X104.276 Y91.153 E0.04750
G1 X104.166 Y90.845 E0.02996
G1 X103.933 Y90.351 E0.05016
G1 X103.646 Y89.898 E0.04916
G1 X103.447 Y89.640 E0.02996
G1 X103.072 Y89.241 E0.05019
G1 X102.416 Y88.698 E0.07814
G1 X106.314 Y88.698 E0.35768
G1 X106.314 Y96.327 E0.69994
G1 X102.556 Y96.327 E0.34487
G1 X107.050 Y95.962 F9000.000
G1 X107.050 Y89.062 E0.63308 F900.000
G1 X111.950 Y89.062 E0.44958
G1 X111.950 Y95.962 E0.63308
G1 X107.125 Y95.962 E0.44270
G1 X106.550 Y95.962 F9000.000
G1 X112.686 Y96.327 F9000.000
G1 X112.686 Y88.698 E0.69994 F900.000
G1 X114.071 Y88.698 E0.12707
G1 X114.071 Y96.327 E0.69994
G1 X112.761 Y96.327 E0.12019
G1 X114.806 Y97.062 F9000.000
G1 X85.194 Y97.062 E2.71696 F900.000
G1 X85.194 Y87.962 E0.83493
G1 X114.806 Y87.962 E2.71696
G1 X114.806 Y96.987 E0.82805
G1 X114.373 Y96.812 F9000.000
G1 X113.378 Y95.959 F9000.000
G1 X113.378 Y89.066 E1.32025 F600.000
G1 X112.318 Y88.512 F9000.000
G1 X106.682 Y88.512 E0.51707 F600.000
G1 X105.865 Y89.499 F9000.000
G1 X105.513 Y89.147 E0.06250 F900.000
G1 X104.090 Y89.147 E0.17865
G1 X105.865 Y90.923 E0.31514
G1 X105.183 Y91.663 E0.12643
G1 X104.823 Y91.303 E0.06388
G1 X104.856 Y92.512 F9000.000
G1 X105.947 Y92.512 E0.10002 F600.000
G1 X105.865 Y93.714 F9000.000
G1 X105.513 Y93.362 E0.05652 F900.000
G1 X104.711 Y93.846 E0.10639
G1 X105.865 Y95.001 E0.18531
G1 X105.455 Y95.878 E0.10987
G1 X104.334 Y94.756 E0.18000
G1 X103.822 Y95.531 E0.10542
G1 X104.168 Y95.878 E0.05560
G1 X102.348 Y95.916 F9000.000
G1 X101.811 Y96.318 E0.06156 F600.000
G1 X101.485 Y96.529 E0.03559
G1 X100.789 Y96.626 E0.06448
G1 X100.272 Y96.658 E0.04756
G1 X99.488 Y96.647 E0.07189
G1 X98.656 Y96.554 E0.07682
G1 X98.229 Y96.301 E0.04561
G1 X97.868 Y96.056 E0.03995
G1 X95.237 Y93.983 F9000.000
G1 X94.881 Y93.627 E0.05878 F900.000
G1 X94.135 Y94.203 E0.10996
G1 X95.809 Y95.878 E0.27621
G1 X94.487 Y95.878 E0.15424
G1 X94.135 Y95.526 E0.05808
G1 X93.318 Y96.512 F9000.000
G1 X87.682 Y96.512 E0.51707 F600.000
G1 X86.622 Y95.959 F9000.000
G1 X86.622 Y89.066 E1.32025 F600.000
G1 X87.682 Y88.512 F9000.000
G1 X93.318 Y88.512 E0.51707 F600.000
G1 X94.135 Y91.319 F9000.000
G1 X94.487 Y91.671 E0.05667 F900.000
G1 X95.289 Y91.181 E0.10700
G1 X94.135 Y90.027 E0.18584
G1 X94.546 Y89.147 E0.11063
G1 X95.667 Y90.268 E0.18048
G1 X95.837 Y89.147 E0.12909
G1 X96.184 Y89.494 E0.05577
G1 X97.868 Y88.969 F9000.000
G1 X98.229 Y88.724 E0.03995 F600.000
G1 X98.656 Y88.471 E0.04561
G1 X99.474 Y88.378 E0.07555
G1 X99.979 Y88.362 E0.04633
G1 X100.780 Y88.398 E0.07357
G1 X101.343 Y88.472 E0.05212
G1 X101.789 Y88.735 E0.04747
G1 X102.130 Y88.967 E0.03788
G1 E-3.50000 F2400.00000
G1 X95.148 Y92.917 F9000.000
G1 E3.50000 F2400.00000
G1 X95.135 Y92.821 E0.00889 F600.000
G1 X95.100 Y92.767 E0.00590
G1 X94.799 Y92.513 E0.03607
G1 X94.053 Y92.524 E0.06843
G1 E-3.50000 F2400.00000
G1 X106.682 Y96.512 F9000.000
G1 E3.50000 F2400.00000
G1 X112.318 Y96.512 E0.51707 F600.000
G1 E-3.50000 F2400.00000
G1 X79.571 Y96.327 F9000.000
G1 E3.50000 F2400.00000
G1 X78.686 Y96.327 E0.08120 F900.000
G1 X78.686 Y88.698 E0.69994
G1 X79.571 Y88.698 E0.08120
G1 X79.571 Y96.252 E0.69306
G1 X80.306 Y97.062 F9000.000
G1 X77.950 Y97.062 E0.21619 F900.000
G1 X77.950 Y87.962 E0.83493
G1 X80.306 Y87.962 E0.21619
G1 X80.306 Y96.987 E0.82805
G1 X79.873 Y96.812 F9000.000
G1 X79.128 Y95.959 F9000.000
G1 X79.128 Y89.066 E0.63245 F600.000
M104 S190 ; set temperature
G1 E-3.50000 F2400.00000
G1 Z0.600 F9000.000
G1 X78.236 Y103.248 F9000.000
G1 E3.50000 F2400.00000
G1 X121.764 Y103.248 E2.36504 F1800.000
G1 X121.764 Y111.777 E0.46339
G1 X78.236 Y111.777 E2.36504
G1 X78.236 Y103.323 E0.45932
G1 X77.800 Y102.812 F9000.000
G1 X122.200 Y102.812 E2.41238 F1800.000
G1 X122.200 Y112.212 E0.51073
G1 X77.800 Y112.212 E2.41238
G1 X77.800 Y102.887 E0.50665
G1 X78.233 Y103.062 F9000.000
G1 X78.718 Y103.506 F9000.000
G1 X78.493 Y103.731 E0.01729 F1800.000
G1 X78.493 Y104.348 E0.03355
G1 X79.335 Y103.506 E0.06474
G1 X79.952 Y103.506 E0.03355
G1 X78.493 Y104.964 E0.11219
G1 X78.493 Y105.581 E0.03355
G1 X80.569 Y103.506 E0.15964
G1 X81.185 Y103.506 E0.03355
G1 X78.493 Y106.198 E0.20709
G1 X78.493 Y106.815 E0.03355
G1 X81.802 Y103.506 E0.25454
G1 X82.419 Y103.506 E0.03355
G1 X78.493 Y107.431 E0.30198
G1 X78.493 Y108.048 E0.03355
G1 X83.036 Y103.506 E0.34943
G1 X83.653 Y103.506 E0.03355
G1 X78.493 Y108.665 E0.39688
G1 X78.493 Y109.282 E0.03355
G1 X84.269 Y103.506 E0.44433
G1 X84.886 Y103.506 E0.03355
G1 X78.493 Y109.899 E0.49178
G1 X78.493 Y110.515 E0.03355
G1 X85.503 Y103.506 E0.53923
G1 X86.120 Y103.506 E0.03355
G1 X78.493 Y111.132 E0.58668
G1 X78.723 Y111.519 E0.02448
G1 X86.736 Y103.506 E0.61644
G1 X87.353 Y103.506 E0.03355
G1 X79.340 Y111.519 E0.61644
G1 X79.957 Y111.519 E0.03355
G1 X87.970 Y103.506 E0.61644
G1 X88.587 Y103.506 E0.03355
G1 X80.574 Y111.519 E0.61644
G1 X81.191 Y111.519 E0.03355
G1 X89.204 Y103.506 E0.61644
G1 X89.820 Y103.506 E0.03355
G1 X81.807 Y111.519 E0.61644
G1 X82.424 Y111.519 E0.03355
G1 X90.437 Y103.506 E0.61644
G1 X91.054 Y103.506 E0.03355
G1 X83.041 Y111.519 E0.61644
G1 X83.658 Y111.519 E0.03355
G1 X91.671 Y103.506 E0.61644
G1 X92.288 Y103.506 E0.03355
G1 X84.274 Y111.519 E0.61644
G1 X84.891 Y111.519 E0.03355
G1 X92.904 Y103.506 E0.61644
G1 X93.521 Y103.506 E0.03355
G1 X85.508 Y111.519 E0.61644
G1 X86.125 Y111.519 E0.03355
G1 X94.138 Y103.506 E0.61644
G1 X94.755 Y103.506 E0.03355
G1 X86.742 Y111.519 E0.61644
G1 X87.358 Y111.519 E0.03355
G1 X95.371 Y103.506 E0.61644
G1 X95.988 Y103.506 E0.03355
G1 X87.975 Y111.519 E0.61644
G1 X88.592 Y111.519 E0.03355
G1 X96.605 Y103.506 E0.61644
G1 X97.222 Y103.506 E0.03355
G1 X89.209 Y111.519 E0.61644
G1 X89.826 Y111.519 E0.03355
G1 X97.839 Y103.506 E0.61644
G1 X98.455 Y103.506 E0.03355
G1 X90.442 Y111.519 E0.61644
G1 X91.059 Y111.519 E0.03355
G1 X99.072 Y103.506 E0.61644
G1 X99.689 Y103.506 E0.03355
G1 X91.676 Y111.519 E0.61644
G1 X92.293 Y111.519 E0.03355
G1 X100.306 Y103.506 E0.61644
G1 X100.923 Y103.506 E0.03355
G1 X92.910 Y111.519 E0.61644
G1 X93.526 Y111.519 E0.03355
G1 X101.539 Y103.506 E0.61644
G1 X102.156 Y103.506 E0.03355
G1 X94.143 Y111.519 E0.61644
G1 X94.760 Y111.519 E0.03355
G1 X102.773 Y103.506 E0.61644
G1 X103.390 Y103.506 E0.03355
G1 X95.377 Y111.519 E0.61644
G1 X95.993 Y111.519 E0.03355
G1 X104.007 Y103.506 E0.61644
G1 X104.623 Y103.506 E0.03355
G1 X96.610 Y111.519 E0.61644
G1 X97.227 Y111.519 E0.03355
G1 X105.240 Y103.506 E0.61644
G1 X105.857 Y103.506 E0.03355
G1 X97.844 Y111.519 E0.61644
G1 X98.461 Y111.519 E0.03355
G1 X106.474 Y103.506 E0.61644
G1 X107.090 Y103.506 E0.03355
G1 X99.077 Y111.519 E0.61644
G1 X99.694 Y111.519 E0.03355
G1 X107.707 Y103.506 E0.61644
G1 X108.324 Y103.506 E0.03355
G1 X100.311 Y111.519 E0.61644
G1 X100.928 Y111.519 E0.03355
G1 X108.941 Y103.506 E0.61644
G1 X109.558 Y103.506 E0.03355
G1 X101.545 Y111.519 E0.61644
G1 X102.161 Y111.519 E0.03355
G1 X110.174 Y103.506 E0.61644
G1 X110.791 Y103.506 E0.03355
G1 X102.778 Y111.519 E0.61644
G1 X103.395 Y111.519 E0.03355
G1 X111.408 Y103.506 E0.61644
G1 X112.025 Y103.506 E0.03355
G1 X104.012 Y111.519 E0.61644
G1 X104.628 Y111.519 E0.03355
G1 X112.642 Y103.506 E0.61644
G1 X113.258 Y103.506 E0.03355
G1 X105.245 Y111.519 E0.61644
G1 X105.862 Y111.519 E0.03355
G1 X113.875 Y103.506 E0.61644
G1 X114.492 Y103.506 E0.03355
G1 X106.479 Y111.519 E0.61644
G1 X107.096 Y111.519 E0.03355
G1 X115.109 Y103.506 E0.61644
G1 X115.725 Y103.506 E0.03355
G1 X107.712 Y111.519 E0.61644
G1 X108.329 Y111.519 E0.03355
G1 X116.342 Y103.506 E0.61644
G1 X116.959 Y103.506 E0.03355
G1 X108.946 Y111.519 E0.61644
G1 X109.563 Y111.519 E0.03355
