; generated by Slic3r 1.2.9 on 2016-10-09 at 19:01:07

; external perimeters extrusion width = 0.50mm
; perimeters extrusion width = 0.72mm
; infill extrusion width = 0.72mm
; solid infill extrusion width = 0.72mm
; top infill extrusion width = 0.72mm

M107
M190 S60 ; set bed temperature
M104 S200 ; set temperature
G28 X0 Y0
G28 Z0
G1 Z0.3 F200
G1 X15 Y20 F12000
M109 S200 ; wait for temperature to be reached
G21 ; set units to millimeters
G90 ; use absolute coordinates
M82 ; use absolute distances for extrusion
G92 E0
G1 E-3.20000 F2760.00000
G92 E0
G1 Z0.350 F7800.000
G1 X97.501 Y92.332 F7800.000
G1 E3.20000 F2760.00000
G1 X97.833 Y92.000 E3.23837 F600.000
G1 X98.544 Y91.353 E3.31707
G1 X99.295 Y90.751 E3.39586
G1 X99.700 Y90.456 E3.43689
G1 X100.500 Y89.932 E3.51511
G1 X101.336 Y89.455 E3.59390
G1 X102.200 Y89.032 E3.67262
G1 X102.630 Y88.846 E3.71097
G1 X103.530 Y88.506 E3.78974
G1 X104.001 Y88.353 E3.83023
G1 X104.929 Y88.099 E3.90897
G1 X105.871 Y87.904 E3.98771
G1 X106.824 Y87.769 E4.06647
G1 X107.291 Y87.725 E4.10486
G1 X108.253 Y87.679 E4.18363
G1 X109.215 Y87.694 E4.26241
G1 X110.175 Y87.769 E4.34119 F600.000
G1 X110.672 Y87.832 E4.38221
G1 X111.614 Y87.997 E4.46044
G1 X112.550 Y88.222 E4.53922
G1 X113.469 Y88.505 E4.61798
G1 X114.369 Y88.846 E4.69673
G1 X115.246 Y89.242 E4.77545
G1 X115.664 Y89.455 E4.81384
G1 X116.103 Y89.697 E4.85483
G1 X116.918 Y90.197 E4.93308
G1 X117.705 Y90.750 E5.01183
G1 X118.075 Y91.038 E5.05019
G1 X118.808 Y91.662 E5.12897
G1 X119.494 Y92.327 E5.20719
G1 X119.838 Y92.692 E5.24821
G1 X120.463 Y93.425 E5.32700
G1 X121.040 Y94.195 E5.40578
G1 X121.303 Y94.582 E5.44411
G1 X121.803 Y95.397 E5.52231
G1 X122.045 Y95.836 E5.56334
G1 X122.257 Y96.253 E5.60164
G1 X122.654 Y97.130 E5.68041
G1 X122.995 Y98.031 E5.75924
G1 X123.340 Y99.176 E5.85712
G1 X125.574 Y107.817 E6.58752
G1 X125.825 Y109.788 E6.75013
G1 X125.825 Y115.664 E7.23097
G1 X125.503 Y117.890 E7.41504
G1 X123.503 Y124.676 E7.99401
G1 X122.424 Y126.933 E8.19876
G1 X120.691 Y128.738 E8.40351
G1 X118.479 Y129.907 E8.60826
G1 X115.950 Y130.325 E8.81804
G1 X101.050 Y130.325 E10.03740
G1 X98.580 Y129.927 E10.24216
G1 X96.359 Y128.775 E10.44691
G1 X94.612 Y126.984 E10.65166
G1 X93.514 Y124.736 E10.85641
G1 X93.175 Y122.450 E11.04551
G1 X93.175 Y103.001 E12.63717
G1 X93.225 Y101.791 E12.73625
G1 X93.269 Y101.324 E12.77463
G1 X93.403 Y100.379 E12.85278
G1 X93.599 Y99.428 E12.93221
G1 X93.851 Y98.507 E13.01033
G1 X94.006 Y98.030 E13.05136
G1 X94.346 Y97.130 E13.13013
G1 X94.532 Y96.700 E13.16848
G1 X94.956 Y95.835 E13.24729
G1 X95.428 Y95.005 E13.32544
G1 X95.697 Y94.582 E13.36647
G1 X95.960 Y94.195 E13.40480
G1 X96.538 Y93.425 E13.48355
G1 X96.853 Y93.044 E13.52404
G1 X97.450 Y92.387 E13.59667
G1 X97.905 Y92.814 F7800.000
G1 X98.274 Y92.442 E13.63957 F600.000
G1 X98.957 Y91.822 E13.71506
G1 X99.308 Y91.531 E13.75234
G1 X100.045 Y90.977 E13.82781
G1 X100.433 Y90.714 E13.86621
G1 X101.221 Y90.231 E13.94177
G1 X102.037 Y89.799 E14.01734
G1 X102.878 Y89.420 E14.09290
G1 X103.742 Y89.093 E14.16846
G1 X104.175 Y88.953 E14.20573
G1 X105.065 Y88.709 E14.28126
G1 X105.969 Y88.522 E14.35679
G1 X106.883 Y88.391 E14.43235
G1 X107.350 Y88.347 E14.47073
G1 X108.272 Y88.304 E14.54629
G1 X109.195 Y88.319 E14.62185
G1 X110.116 Y88.391 E14.69742 F600.000
G1 X110.574 Y88.449 E14.73524
G1 X111.477 Y88.607 E14.81025
G1 X112.375 Y88.822 E14.88581
G1 X113.258 Y89.093 E14.96136
G1 X114.121 Y89.419 E15.03690
G1 X114.962 Y89.799 E15.11241
G1 X115.380 Y90.012 E15.15080
G1 X115.779 Y90.231 E15.18803
G1 X116.567 Y90.713 E15.26361
G1 X117.322 Y91.244 E15.33915
G1 X117.692 Y91.531 E15.37751
G1 X118.394 Y92.131 E15.45308
G1 X119.053 Y92.770 E15.52815
G1 X119.369 Y93.106 E15.56590
G1 X119.969 Y93.808 E15.64147
G1 X120.523 Y94.546 E15.71703
G1 X120.787 Y94.933 E15.75536
G1 X121.265 Y95.715 E15.83035
G1 X121.488 Y96.120 E15.86817
G1 X121.701 Y96.537 E15.90647
G1 X122.080 Y97.378 E15.98203
G1 X122.407 Y98.243 E16.05764
G1 X122.735 Y99.333 E16.15080
G1 X124.969 Y107.973 E16.88119
G1 X125.200 Y109.788 E17.03090
G1 X125.200 Y115.664 E17.51174
G1 X124.904 Y117.713 E17.68120
G1 X122.904 Y124.499 E18.26018
G1 X121.854 Y126.657 E18.45658
G1 X120.157 Y128.354 E18.65299
G1 X117.999 Y129.404 E18.84939
G1 X115.950 Y129.700 E19.01878
G1 X101.050 Y129.700 E20.23814
G1 X98.683 Y129.303 E20.43455
G1 X96.576 Y128.154 E20.63095
G1 X94.959 Y126.381 E20.82736
G1 X94.009 Y124.177 E21.02376
G1 X93.800 Y122.450 E21.16612
G1 X93.800 Y103.001 E22.75778
G1 X93.847 Y101.850 E22.85203
G1 X93.891 Y101.383 E22.89041
G1 X94.020 Y100.476 E22.96536
G1 X94.209 Y99.565 E23.04156
G1 X94.453 Y98.675 E23.11703
G1 X94.593 Y98.242 E23.15430
G1 X94.920 Y97.378 E23.22986
G1 X95.106 Y96.948 E23.26820
G1 X95.512 Y96.119 E23.34379
G1 X95.966 Y95.323 E23.41874
G1 X96.214 Y94.933 E23.45656
G1 X96.477 Y94.546 E23.49488
G1 X97.031 Y93.808 E23.57043
G1 X97.322 Y93.457 E23.60771
G1 X97.854 Y92.869 E23.67259
G1 X98.309 Y93.296 F7800.000
G1 X98.716 Y92.884 E23.72001 F600.000
G1 X99.370 Y92.290 E23.79230
G1 X99.691 Y92.025 E23.82637
G1 X100.396 Y91.494 E23.89863
G1 X100.784 Y91.230 E23.93702
G1 X101.539 Y90.769 E24.00937
G1 X102.320 Y90.356 E24.08173
G1 X103.126 Y89.993 E24.15408
G1 X103.954 Y89.681 E24.22642
G1 X104.350 Y89.553 E24.26049
G1 X105.202 Y89.319 E24.33280
G1 X106.067 Y89.139 E24.40513
G1 X106.942 Y89.013 E24.47747
G1 X107.409 Y88.969 E24.51584
G1 X108.292 Y88.928 E24.58819
G1 X109.176 Y88.943 E24.66054
G1 X109.591 Y88.969 E24.69460 F600.000
G1 X110.470 Y89.065 E24.76695
G1 X111.341 Y89.217 E24.83930
G1 X112.201 Y89.422 E24.91165
G1 X113.046 Y89.681 E24.98399
G1 X113.873 Y89.993 E25.05632
G1 X114.679 Y90.356 E25.12863
G1 X115.097 Y90.569 E25.16701
G1 X115.467 Y90.772 E25.20158
G1 X116.215 Y91.230 E25.27340
G1 X116.939 Y91.738 E25.34573
G1 X117.309 Y92.025 E25.38408
G1 X117.981 Y92.600 E25.45643
G1 X118.611 Y93.211 E25.52823
G1 X118.900 Y93.519 E25.56283
G1 X119.475 Y94.191 E25.63519
G1 X120.006 Y94.897 E25.70754
G1 X120.270 Y95.285 E25.74587
G1 X120.727 Y96.033 E25.81765
G1 X120.931 Y96.403 E25.85225
G1 X121.144 Y96.820 E25.89056
G1 X121.507 Y97.626 E25.96290
G1 X121.819 Y98.454 E26.03530
G1 X122.130 Y99.489 E26.12372
G1 X124.364 Y108.130 E26.85412
G1 X124.575 Y109.788 E26.99092
G1 X124.575 Y115.664 E27.47176
G1 X124.305 Y117.537 E27.62662
G1 X122.305 Y124.323 E28.20559
G1 X121.285 Y126.377 E28.39328
G1 X119.627 Y127.961 E28.58097
G1 X117.527 Y128.884 E28.76866
G1 X115.950 Y129.075 E28.89866
G1 X101.050 Y129.075 E30.11803
G1 X98.791 Y128.678 E30.30572
G1 X96.803 Y127.535 E30.49341
G1 X95.324 Y125.782 E30.68109
G1 X94.531 Y123.630 E30.86878
G1 X94.425 Y122.450 E30.96572
G1 X94.425 Y103.001 E32.55738
G1 X94.469 Y101.909 E32.64682
G1 X94.513 Y101.442 E32.68519
G1 X94.638 Y100.574 E32.75693
G1 X94.819 Y99.701 E32.82992
G1 X95.053 Y98.850 E32.90218
G1 X95.181 Y98.454 E32.93624
G1 X95.493 Y97.626 E33.00858
G1 X95.679 Y97.197 E33.04692
G1 X96.069 Y96.403 E33.11930
G1 X96.504 Y95.642 E33.19104
G1 X96.730 Y95.284 E33.22564
G1 X96.994 Y94.897 E33.26397
G1 X97.525 Y94.191 E33.33630
G1 X98.258 Y93.351 E33.42749
G1 E30.22749 F2760.00000
G92 E0
G1 X103.324 Y98.140 F7800.000
G1 E3.20000 F2760.00000
G1 X103.640 Y97.824 E3.23650 F600.000
G1 X103.974 Y97.530 E3.27299
G1 X104.332 Y97.252 E3.31004
G1 X104.696 Y97.005 E3.34600
G1 X105.080 Y96.778 E3.38250
G1 X105.477 Y96.576 E3.41900
G1 X105.886 Y96.399 E3.45551
G1 X106.306 Y96.248 E3.49201
G1 X106.734 Y96.123 E3.52851
G1 X107.169 Y96.026 E3.56499
G1 X107.617 Y95.956 E3.60204
G1 X108.054 Y95.914 E3.63801
G1 X108.500 Y95.900 E3.67451
G1 X108.946 Y95.914 E3.71101
G1 X109.390 Y95.956 E3.74751 F600.000
G1 X109.830 Y96.026 E3.78401
G1 X110.266 Y96.123 E3.82051
G1 X110.694 Y96.248 E3.85701
G1 X111.114 Y96.399 E3.89351
G1 X111.523 Y96.576 E3.93001
G1 X111.920 Y96.778 E3.96651
G1 X112.304 Y97.005 E4.00302
G1 X112.673 Y97.256 E4.03952
G1 X113.026 Y97.530 E4.07602
G1 X113.360 Y97.824 E4.11252
G1 X113.676 Y98.140 E4.14902
G1 X113.970 Y98.474 E4.18552
G1 X114.244 Y98.827 E4.22202
G1 X114.495 Y99.196 E4.25852
G1 X114.722 Y99.580 E4.29502
G1 X114.924 Y99.977 E4.33152
G1 X115.101 Y100.386 E4.36802
G1 X115.250 Y100.800 E4.40399
G1 X115.377 Y101.235 E4.44104
G1 X115.474 Y101.670 E4.47753
G1 X115.543 Y102.104 E4.51349
G1 X115.586 Y102.554 E4.55054
G1 X115.600 Y103.006 E4.58754
G1 X115.600 Y110.138 E5.17119
G1 X117.600 Y110.138 E5.33487
G1 X117.600 Y115.314 E5.75842
G1 X115.600 Y115.314 E5.92210
G1 X115.600 Y122.100 E6.47745
G1 X113.400 Y122.100 E6.65749
G1 X113.400 Y121.400 E6.71478
G1 X114.900 Y121.400 E6.83753
G1 X114.900 Y118.600 E7.06668
G1 X112.150 Y118.600 E7.29173
G1 X112.150 Y105.447 E8.36811
G1 X112.357 Y105.120 E8.39980
G1 X112.589 Y104.625 E8.44454
G1 X112.687 Y104.355 E8.46806
G1 X112.823 Y103.825 E8.51284
G1 X112.892 Y103.276 E8.55806
G1 X112.892 Y102.724 E8.60328
G1 X112.824 Y102.187 E8.64755
G1 X112.762 Y101.906 E8.67112
G1 X112.683 Y101.635 E8.69421
G1 X112.482 Y101.126 E8.73898
G1 X112.216 Y100.642 E8.78421
G1 X111.894 Y100.199 E8.82899
G1 X111.704 Y99.984 E8.85251
G1 X111.305 Y99.609 E8.89728
G1 X110.858 Y99.284 E8.94251
G1 X110.379 Y99.021 E8.98729
G1 X110.115 Y98.907 E9.01081
G1 X109.600 Y98.739 E9.05514
G1 X109.319 Y98.677 E9.07866
G1 X108.776 Y98.608 E9.12343
G1 X108.229 Y98.608 E9.16823
G1 X107.937 Y98.636 E9.19225
G1 X107.406 Y98.738 E9.23651
G1 X106.885 Y98.907 E9.28128
G1 X106.621 Y99.021 E9.30481
G1 X106.142 Y99.284 E9.34958
G1 X105.695 Y99.609 E9.39481
G1 X105.292 Y99.987 E9.44003
G1 X104.940 Y100.413 E9.48526
G1 X104.644 Y100.880 E9.53049
G1 X104.411 Y101.375 E9.57526
G1 X104.313 Y101.645 E9.59878
G1 X104.179 Y102.169 E9.64305
G1 X104.108 Y102.723 E9.68877
G1 X104.108 Y103.276 E9.73401
G1 X104.176 Y103.813 E9.77827
G1 X104.317 Y104.365 E9.82491
G1 X104.516 Y104.869 E9.86923
G1 X104.646 Y105.124 E9.89272
G1 X104.850 Y105.447 E9.92396
G1 X104.850 Y118.600 E11.00034
G1 X102.100 Y118.600 E11.22539
G1 X102.100 Y121.400 E11.45453
G1 X103.600 Y121.400 E11.57729
G1 X103.600 Y122.100 E11.63457
G1 X101.400 Y122.100 E11.81461
G1 X101.400 Y103.006 E13.37718
G1 X101.414 Y102.554 E13.41419
G1 X101.456 Y102.110 E13.45070
G1 X101.526 Y101.670 E13.48720
G1 X101.623 Y101.234 E13.52370
G1 X101.748 Y100.806 E13.56020
G1 X101.899 Y100.386 E13.59670
G1 X102.076 Y99.977 E13.63320
G1 X102.275 Y99.585 E13.66917
G1 X102.506 Y99.196 E13.70621
G1 X102.756 Y98.827 E13.74270
G1 X103.030 Y98.474 E13.77920
G1 X103.275 Y98.196 E13.80956
G1 X103.758 Y98.246 F7800.000
G1 X103.744 Y98.609 F7800.000
G1 X104.068 Y98.280 E13.84738 F600.000
G1 X104.373 Y98.012 E13.88063
G1 X104.699 Y97.758 E13.91446
G1 X105.031 Y97.533 E13.94723
G1 X105.381 Y97.326 E13.98052
G1 X105.743 Y97.142 E14.01381
G1 X106.117 Y96.980 E14.04709
G1 X106.499 Y96.842 E14.08038
G1 X106.890 Y96.729 E14.11367
G1 X107.286 Y96.640 E14.14692
G1 X107.695 Y96.576 E14.18075
G1 X108.093 Y96.538 E14.21353
G1 X108.500 Y96.525 E14.24681
G1 X108.907 Y96.538 E14.28010
G1 X109.311 Y96.576 E14.31338 F600.000
G1 X109.713 Y96.640 E14.34667
G1 X110.110 Y96.729 E14.37996
G1 X110.501 Y96.842 E14.41324
G1 X110.883 Y96.980 E14.44653
G1 X111.257 Y97.142 E14.47982
G1 X111.619 Y97.326 E14.51310
G1 X111.969 Y97.533 E14.54639
G1 X112.306 Y97.762 E14.57968
G1 X112.627 Y98.011 E14.61296
G1 X112.932 Y98.280 E14.64625
G1 X113.220 Y98.568 E14.67954
G1 X113.489 Y98.873 E14.71282
G1 X113.738 Y99.194 E14.74611
G1 X113.967 Y99.531 E14.77940
G1 X114.174 Y99.881 E14.81268
G1 X114.358 Y100.243 E14.84597
G1 X114.520 Y100.617 E14.87926
G1 X114.656 Y100.993 E14.91203
G1 X114.771 Y101.390 E14.94586
G1 X114.860 Y101.787 E14.97912
G1 X114.923 Y102.182 E15.01189
G1 X114.962 Y102.594 E15.04572
G1 X114.975 Y103.016 E15.08029
G1 X114.975 Y110.763 E15.71428
G1 X116.975 Y110.763 E15.87795
G1 X116.975 Y114.689 E16.19923
G1 X114.975 Y114.689 E16.36291
G1 X114.975 Y117.975 E16.63183
G1 X112.775 Y117.975 E16.81189
G1 X112.775 Y105.628 E17.82236
G1 X112.906 Y105.420 E17.84242
G1 X113.167 Y104.864 E17.89271
G1 X113.285 Y104.539 E17.92105
G1 X113.438 Y103.942 E17.97146
G1 X113.517 Y103.316 E18.02312
G1 X113.517 Y102.685 E18.07477
G1 X113.441 Y102.080 E18.12463
G1 X113.275 Y101.432 E18.17934
G1 X113.048 Y100.860 E18.22974
G1 X112.744 Y100.306 E18.28141
G1 X112.382 Y99.808 E18.33181
G1 X112.153 Y99.548 E18.36016
G1 X111.704 Y99.127 E18.41056
G1 X111.194 Y98.756 E18.46222
G1 X110.654 Y98.459 E18.51263
G1 X110.336 Y98.321 E18.54097
G1 X109.765 Y98.136 E18.59012
G1 X109.427 Y98.060 E18.61847
G1 X108.816 Y97.983 E18.66887
G1 X108.199 Y97.983 E18.71933
G1 X107.848 Y98.017 E18.74818
G1 X107.250 Y98.131 E18.79804
G1 X106.664 Y98.321 E18.84843
G1 X106.346 Y98.459 E18.87678
G1 X105.806 Y98.756 E18.92718
G1 X105.296 Y99.127 E18.97884
G1 X104.836 Y99.559 E19.03050
G1 X104.433 Y100.045 E19.08217
G1 X104.095 Y100.578 E19.13383
G1 X103.833 Y101.136 E19.18423
G1 X103.715 Y101.461 E19.21256
G1 X103.564 Y102.052 E19.26244
G1 X103.483 Y102.684 E19.31460
G1 X103.483 Y103.315 E19.36629
G1 X103.559 Y103.920 E19.41615
G1 X103.725 Y104.568 E19.47086
G1 X103.946 Y105.126 E19.52001
G1 X104.103 Y105.433 E19.54824
G1 X104.225 Y105.628 E19.56705
G1 X104.225 Y117.975 E20.57751
G1 X102.025 Y117.975 E20.75757
G1 X102.025 Y103.016 E21.98176
G1 X102.038 Y102.593 E22.01637
G1 X102.076 Y102.189 E22.04965
G1 X102.140 Y101.787 E22.08294
G1 X102.229 Y101.390 E22.11623
G1 X102.342 Y100.999 E22.14951
G1 X102.480 Y100.617 E22.18280
G1 X102.642 Y100.243 E22.21609
G1 X102.823 Y99.886 E22.24886
G1 X103.034 Y99.530 E22.28269
G1 X103.262 Y99.194 E22.31595
G1 X103.694 Y98.666 E22.37182
G1 X103.600 Y110.587 F7800.000
G1 X103.600 Y117.350 E22.92531 F600.000
G1 X102.650 Y117.350 E23.00309
G1 X102.650 Y104.248 E24.07533
G1 X102.984 Y104.211 E24.10283
G1 X103.027 Y104.404 E24.11898
G1 X103.133 Y104.770 E24.15019 F600.000
G1 X103.376 Y105.383 E24.20416
G1 X103.600 Y105.808 E24.24348
G1 X103.600 Y110.512 E24.62840
G1 E21.42840 F2760.00000
G92 E0
G1 X113.400 Y112.421 F7800.000
G1 E3.20000 F2760.00000
G1 X113.400 Y105.808 E3.74112 F600.000
G1 X113.745 Y105.104 E3.80534
G1 X113.883 Y104.722 E3.83851
G1 X114.022 Y104.178 E3.88449
G1 X114.350 Y104.220 E3.91154
G1 X114.350 Y111.388 E4.49817 F600.000
G1 X116.350 Y111.388 E4.66184
G1 X116.350 Y114.064 E4.88084
G1 X114.350 Y114.064 E5.04452
G1 X114.350 Y117.350 E5.31344
G1 X113.400 Y117.350 E5.39123
G1 X113.400 Y112.496 E5.78851
G1 X113.875 Y111.700 F7800.000
G1 X113.875 Y105.944 E6.25959 F600.000
G1 X114.021 Y105.289 E6.31449
G1 X114.213 Y103.887 F7800.000
G1 X114.246 Y103.335 E6.41045 F600.000
G1 X114.240 Y102.640 E6.53116
G1 X114.157 Y101.975 E6.64734
G1 X114.069 Y101.571 E6.71913
G1 X113.953 Y101.180 E6.78992
G1 X113.704 Y100.551 E6.90724
G1 X113.356 Y99.919 E7.03254
G1 X112.930 Y99.335 E7.15784
G1 X112.659 Y99.031 E7.22850
G1 X112.166 Y98.569 E7.34582
G1 X111.581 Y98.144 E7.47112
G1 X110.948 Y97.797 E7.59642
G1 X110.610 Y97.651 E7.66037
G1 X110.275 Y97.536 E7.72175
G1 X109.937 Y97.432 E7.78314
G1 X109.577 Y97.352 E7.84709
G1 X108.861 Y97.260 E7.97239
G1 X108.500 Y97.254 E8.03505
G1 X108.145 Y97.261 E8.09670
G1 X107.785 Y97.295 E8.15935
G1 X107.095 Y97.424 E8.28126
G1 X106.426 Y97.638 E8.40297
G1 X106.052 Y97.797 E8.47363
G1 X105.419 Y98.144 E8.59893
G1 X105.128 Y98.348 E8.66057
G1 X104.834 Y98.569 E8.72438
G1 X104.291 Y99.083 E8.85402
G1 X103.847 Y99.620 E8.97486
G1 X103.474 Y100.207 E9.09569
G1 X103.172 Y100.841 E9.21746
G1 X103.029 Y101.230 E9.28934
G1 X102.851 Y101.922 E9.41342
G1 X102.760 Y102.639 E9.53872
G1 X102.754 Y103.335 E9.65952
G1 X102.789 Y103.918 E9.76093
G1 X102.979 Y105.277 F7800.000
G1 X103.125 Y105.938 E9.81632 F600.000
G1 X103.125 Y117.038 E10.72468
G1 E7.52468 F2760.00000
G92 E0
G1 X113.875 Y117.038 F7800.000
G1 E3.20000 F2760.00000
G1 X113.875 Y113.752 E3.46893 F600.000
G1 X114.083 Y113.373 F7800.000
G1 X113.778 Y113.068 E3.51141 F600.000
G1 X113.853 Y112.079 E3.60905
G1 X115.459 Y113.685 E3.83273
G1 X115.972 Y113.135 E3.90679
G1 X114.604 Y111.767 E4.09728
G1 X115.667 Y111.767 E4.20193
G1 X115.972 Y112.072 E4.24441
G1 E1.04441 F2760.00000
G92 E0
G1 Z0.650 F7800.000
G1 X117.700 Y112.072 F7800.000
G1 E3.20000 F2760.00000
G1 X117.700 Y115.601 E3.37260 F900.051
