; generated by Slic3r 1.2.9 on 2016-10-09 at 18:58:18

; external perimeters extrusion width = 0.50mm
; perimeters extrusion width = 0.72mm
; infill extrusion width = 0.72mm
; solid infill extrusion width = 0.72mm
; top infill extrusion width = 0.72mm

M107
M190 S60 ; set bed temperature
M104 S200 ; set temperature
G28 X0 Y0
G28 Z0
G1 Z0.3 F200
G1 X15 Y20 F12000
M109 S200 ; wait for temperature to be reached
G21 ; set units to millimeters
G90 ; use absolute coordinates
M82 ; use absolute distances for extrusion
G92 E0
G1 E-3.20000 F2760.00000
G92 E0
G1 Z0.350 F7800.000
G1 X73.833 Y75.500 F7800.000
G1 E3.20000 F2760.00000
G1 X74.544 Y74.853 E3.27870 F600.000
G1 X74.925 Y74.537 E3.31919
G1 X75.694 Y73.961 E3.39787
G1 X76.082 Y73.697 E3.43627
G1 X76.902 Y73.193 E3.51505
G1 X77.336 Y72.955 E3.55553
G1 X78.200 Y72.532 E3.63426
G1 X78.630 Y72.346 E3.67261
G1 X79.530 Y72.006 E3.75138
G1 X80.001 Y71.853 E3.79187
G1 X80.929 Y71.599 E3.87061
G1 X81.871 Y71.404 E3.94934
G1 X82.824 Y71.269 E4.02811
G1 X83.291 Y71.225 E4.06650
G1 X84.500 Y71.175 E4.16551
G1 X132.747 Y71.179 E8.11391
G1 X133.709 Y71.225 E8.19269 F600.000
G1 X134.666 Y71.331 E8.27145
G1 X135.128 Y71.404 E8.30977
G1 X136.071 Y71.599 E8.38854
G1 X136.999 Y71.853 E8.46731
G1 X137.910 Y72.164 E8.54609
G1 X138.799 Y72.532 E8.62486
G1 X139.664 Y72.955 E8.70364
G1 X140.500 Y73.432 E8.78241
G1 X141.305 Y73.960 E8.86119
G1 X142.075 Y74.538 E8.93997
G1 X142.456 Y74.853 E8.98046
G1 X143.168 Y75.501 E9.05923
G1 X143.500 Y75.833 E9.09760
G1 X144.147 Y76.544 E9.17632
G1 X144.749 Y77.295 E9.25508
G1 X145.303 Y78.082 E9.33389
G1 X145.803 Y78.897 E9.41209
G1 X146.045 Y79.336 E9.45312
G1 X146.257 Y79.753 E9.49142
G1 X146.654 Y80.630 E9.57019
G1 X146.992 Y81.524 E9.64842
G1 X147.147 Y82.001 E9.68945
G1 X147.340 Y82.676 E9.74692
G1 X149.574 Y91.317 E10.47731
G1 X149.825 Y93.288 E10.63993
G1 X149.825 Y132.164 E13.82138
G1 X149.503 Y134.390 E14.00544
G1 X147.503 Y141.176 E14.58441
G1 X146.424 Y143.433 E14.78917
G1 X144.691 Y145.238 E14.99392
G1 X142.479 Y146.407 E15.19867
G1 X139.950 Y146.825 E15.40844
G1 X77.050 Y146.825 E20.55597
G1 X74.580 Y146.427 E20.76072
G1 X72.359 Y145.275 E20.96547
G1 X70.612 Y143.484 E21.17022
G1 X69.514 Y141.236 E21.37497
G1 X69.175 Y138.950 E21.56408
G1 X69.175 Y86.501 E25.85634
G1 X69.194 Y85.784 E25.91498
G1 X69.268 Y84.832 E25.99318
G1 X69.331 Y84.334 E26.03422
G1 X69.404 Y83.871 E26.07259
G1 X69.599 Y82.928 E26.15140
G1 X69.851 Y82.007 E26.22951
G1 X70.006 Y81.530 E26.27055
G1 X70.346 Y80.630 E26.34932
G1 X70.532 Y80.200 E26.38767
G1 X70.953 Y79.341 E26.46593
G1 X71.193 Y78.902 E26.50688
G1 X71.432 Y78.499 E26.54527
G1 X71.960 Y77.695 E26.62399
G1 X72.538 Y76.925 E26.70274
G1 X72.853 Y76.544 E26.74323
G1 X73.163 Y76.192 E26.78156
G1 X73.779 Y75.553 E26.85423
G1 X74.221 Y75.995 F7800.000
G1 X74.957 Y75.322 E26.93585 F600.000
G1 X75.308 Y75.031 E26.97313
G1 X76.045 Y74.477 E27.04860
G1 X76.433 Y74.214 E27.08700
G1 X77.221 Y73.731 E27.16256
G1 X77.620 Y73.512 E27.19983
G1 X78.448 Y73.106 E27.27535
G1 X78.878 Y72.920 E27.31370
G1 X79.742 Y72.593 E27.38926
G1 X80.175 Y72.453 E27.42653
G1 X81.065 Y72.209 E27.50206
G1 X81.976 Y72.020 E27.57820
G1 X82.883 Y71.891 E27.65314
G1 X83.350 Y71.847 E27.69152
G1 X84.500 Y71.800 E27.78572
G1 X132.728 Y71.804 E31.73251
G1 X133.650 Y71.847 E31.80807 F600.000
G1 X134.568 Y71.948 E31.88363
G1 X135.030 Y72.021 E31.92194
G1 X135.934 Y72.209 E31.99750
G1 X136.825 Y72.453 E32.07306
G1 X137.698 Y72.752 E32.14863
G1 X138.551 Y73.106 E32.22419
G1 X139.380 Y73.512 E32.29975
G1 X140.182 Y73.970 E32.37532
G1 X140.954 Y74.477 E32.45088
G1 X141.328 Y74.748 E32.48870
G1 X142.043 Y75.322 E32.56373
G1 X142.726 Y75.943 E32.63928
G1 X143.058 Y76.274 E32.67765
G1 X143.679 Y76.957 E32.75316
G1 X144.256 Y77.678 E32.82871
G1 X144.787 Y78.433 E32.90430
G1 X145.265 Y79.215 E32.97929
G1 X145.488 Y79.620 E33.01711
G1 X145.701 Y80.037 E33.05541
G1 X146.080 Y80.878 E33.13098
G1 X146.404 Y81.736 E33.20599
G1 X146.547 Y82.175 E33.24381
G1 X146.735 Y82.833 E33.29975
G1 X148.969 Y91.473 E34.03015
G1 X149.200 Y93.288 E34.17986
G1 X149.200 Y132.164 E37.36131
G1 X148.904 Y134.213 E37.53077
G1 X146.904 Y140.999 E38.10974
G1 X145.854 Y143.157 E38.30614
G1 X144.157 Y144.854 E38.50255
G1 X141.999 Y145.904 E38.69895
G1 X139.950 Y146.200 E38.86834
G1 X77.050 Y146.200 E44.01587
G1 X74.683 Y145.803 E44.21227
G1 X72.576 Y144.654 E44.40868
G1 X70.959 Y142.881 E44.60508
G1 X70.009 Y140.677 E44.80149
G1 X69.800 Y138.950 E44.94384
G1 X69.804 Y86.273 E49.25474
G1 X69.819 Y85.804 E49.29314
G1 X69.891 Y84.883 E49.36875
G1 X70.020 Y83.976 E49.44369
G1 X70.107 Y83.523 E49.48151
G1 X70.209 Y83.065 E49.51991
G1 X70.453 Y82.175 E49.59537
G1 X70.593 Y81.742 E49.63265
G1 X70.920 Y80.878 E49.70820
G1 X71.106 Y80.448 E49.74655
G1 X71.512 Y79.619 E49.82214
G1 X71.966 Y78.823 E49.89709
G1 X72.214 Y78.433 E49.93490
G1 X72.477 Y78.046 E49.97323
G1 X73.031 Y77.308 E50.04877
G1 X73.631 Y76.605 E50.12437
G1 X74.168 Y76.048 E50.18769
G1 X74.610 Y76.490 F7800.000
G1 X75.370 Y75.790 E50.27223 F600.000
G1 X75.691 Y75.525 E50.30630
G1 X76.396 Y74.994 E50.37856
G1 X76.784 Y74.730 E50.41696
G1 X77.539 Y74.269 E50.48930
G1 X77.903 Y74.069 E50.52337
G1 X78.697 Y73.679 E50.59568
G1 X79.126 Y73.493 E50.63402
G1 X79.954 Y73.181 E50.70636
G1 X80.350 Y73.053 E50.74043
G1 X81.202 Y72.819 E50.81275
G1 X82.067 Y72.639 E50.88507
G1 X82.942 Y72.513 E50.95741
G1 X83.409 Y72.469 E50.99578
G1 X84.500 Y72.425 E51.08516
G1 X132.708 Y72.428 E55.03034
G1 X133.591 Y72.469 E55.10270 F600.000
G1 X134.470 Y72.565 E55.17504
G1 X134.932 Y72.639 E55.21335
G1 X135.798 Y72.819 E55.28570
G1 X136.650 Y73.053 E55.35805
G1 X137.487 Y73.340 E55.43041
G1 X138.303 Y73.679 E55.50275
G1 X139.097 Y74.069 E55.57510
G1 X139.864 Y74.507 E55.64745
G1 X140.603 Y74.994 E55.71981
G1 X140.944 Y75.242 E55.75437
G1 X141.630 Y75.790 E55.82623
G1 X142.284 Y76.385 E55.89857
G1 X142.616 Y76.716 E55.93693
G1 X143.210 Y77.370 E56.00924
G1 X143.762 Y78.061 E56.08157
G1 X144.270 Y78.785 E56.15395
G1 X144.727 Y79.533 E56.22573
G1 X144.931 Y79.903 E56.26034
G1 X145.144 Y80.320 E56.29864
G1 X145.507 Y81.126 E56.37099
G1 X145.816 Y81.947 E56.44279
G1 X145.947 Y82.350 E56.47740
G1 X146.130 Y82.989 E56.53182
G1 X148.364 Y91.630 E57.26222
G1 X148.575 Y93.288 E57.39902
G1 X148.575 Y132.164 E60.58047
G1 X148.305 Y134.037 E60.73533
G1 X146.305 Y140.823 E61.31430
G1 X145.285 Y142.877 E61.50199
G1 X143.627 Y144.461 E61.68967
G1 X141.527 Y145.384 E61.87736
G1 X139.950 Y145.575 E62.00737
G1 X77.050 Y145.575 E67.15489
G1 X74.791 Y145.178 E67.34258
G1 X72.803 Y144.035 E67.53027
G1 X71.324 Y142.282 E67.71796
G1 X70.531 Y140.130 E67.90565
G1 X70.425 Y138.950 E68.00259
G1 X70.428 Y86.293 E72.31188
G1 X70.443 Y85.824 E72.35027
G1 X70.513 Y84.942 E72.42267
G1 X70.638 Y84.074 E72.49441
G1 X70.717 Y83.659 E72.52901
G1 X70.819 Y83.201 E72.56740
G1 X71.053 Y82.350 E72.63966
G1 X71.181 Y81.954 E72.67372
G1 X71.493 Y81.126 E72.74607
G1 X71.679 Y80.697 E72.78441
G1 X72.069 Y79.903 E72.85679
G1 X72.504 Y79.142 E72.92853
G1 X72.730 Y78.784 E72.96313
G1 X72.994 Y78.397 E73.00146
G1 X73.525 Y77.691 E73.07379
G1 X74.100 Y77.019 E73.14617
G1 X74.557 Y76.543 E73.20015
G1 E70.00015 F2760.00000
G92 E0
G1 X101.711 Y84.432 F7800.000
G1 E3.20000 F2760.00000
G1 X101.899 Y83.886 E3.24721 F600.000
G1 X102.076 Y83.477 E3.28371
G1 X102.275 Y83.085 E3.31968
G1 X102.506 Y82.696 E3.35673
G1 X102.756 Y82.327 E3.39321
G1 X103.030 Y81.974 E3.42971
G1 X103.324 Y81.640 E3.46622
G1 X103.640 Y81.324 E3.50272
G1 X103.974 Y81.030 E3.53921
G1 X104.332 Y80.752 E3.57625
G1 X104.696 Y80.505 E3.61222
G1 X105.080 Y80.278 E3.64872
G1 X105.477 Y80.076 E3.68522
G1 X105.886 Y79.899 E3.72172
G1 X106.306 Y79.748 E3.75822
G1 X106.734 Y79.623 E3.79472
G1 X107.169 Y79.526 E3.83121
G1 X107.617 Y79.456 E3.86826
G1 X108.054 Y79.414 E3.90422
G1 X108.500 Y79.400 E3.94072
G1 X108.946 Y79.414 E3.97722
G1 X109.390 Y79.456 E4.01373 F600.000
G1 X109.830 Y79.526 E4.05023
G1 X110.266 Y79.623 E4.08673
G1 X110.694 Y79.748 E4.12323
G1 X111.114 Y79.899 E4.15973
G1 X111.523 Y80.076 E4.19623
G1 X111.920 Y80.278 E4.23273
G1 X112.304 Y80.505 E4.26923
G1 X112.673 Y80.756 E4.30573
G1 X113.026 Y81.030 E4.34223
G1 X113.360 Y81.324 E4.37873
G1 X113.676 Y81.640 E4.41523
G1 X113.970 Y81.974 E4.45174
G1 X114.244 Y82.327 E4.48824
G1 X114.495 Y82.696 E4.52474
G1 X114.722 Y83.080 E4.56124
G1 X114.924 Y83.477 E4.59774
G1 X115.101 Y83.886 E4.63424
G1 X115.250 Y84.300 E4.67021
G1 X115.377 Y84.735 E4.70725
G1 X115.474 Y85.170 E4.74374
G1 X115.543 Y85.604 E4.77971
G1 X115.586 Y86.054 E4.81675
G1 X115.600 Y86.506 E4.85376
G1 X115.600 Y93.638 E5.43741
G1 X117.600 Y93.638 E5.60108
G1 X117.600 Y98.814 E6.02464
G1 X115.600 Y98.814 E6.18831
G1 X115.600 Y105.600 E6.74367
G1 X113.400 Y105.600 E6.92371
G1 X113.400 Y104.900 E6.98099
G1 X114.900 Y104.900 E7.10375
G1 X114.900 Y102.100 E7.33289
G1 X112.150 Y102.100 E7.55794
G1 X112.150 Y88.947 E8.63433
G1 X112.357 Y88.620 E8.66602
G1 X112.589 Y88.125 E8.71075
G1 X112.687 Y87.855 E8.73428
G1 X112.823 Y87.325 E8.77905
G1 X112.892 Y86.776 E8.82428
G1 X112.892 Y86.224 E8.86950
G1 X112.824 Y85.687 E8.91377
G1 X112.762 Y85.406 E8.93733
G1 X112.683 Y85.135 E8.96042
G1 X112.482 Y84.626 E9.00520
G1 X112.216 Y84.142 E9.05043
G1 X111.894 Y83.699 E9.09520
G1 X111.704 Y83.484 E9.11873
G1 X111.305 Y83.109 E9.16350
G1 X110.858 Y82.784 E9.20873
G1 X110.379 Y82.521 E9.25350
G1 X110.115 Y82.407 E9.27703
G1 X109.600 Y82.239 E9.32135
G1 X109.319 Y82.177 E9.34487
G1 X108.776 Y82.108 E9.38965
G1 X108.229 Y82.108 E9.43444
G1 X107.937 Y82.136 E9.45846
G1 X107.406 Y82.238 E9.50273
G1 X106.885 Y82.407 E9.54750
G1 X106.621 Y82.521 E9.57102
G1 X106.142 Y82.784 E9.61580
G1 X105.695 Y83.109 E9.66102
G1 X105.292 Y83.487 E9.70625
G1 X104.940 Y83.913 E9.75148
G1 X104.644 Y84.380 E9.79670
G1 X104.411 Y84.875 E9.84148
G1 X104.313 Y85.145 E9.86500
G1 X104.179 Y85.669 E9.90927
G1 X104.108 Y86.223 E9.95499
G1 X104.108 Y86.776 E10.00022
G1 X104.176 Y87.313 E10.04449
G1 X104.317 Y87.865 E10.09112
G1 X104.516 Y88.369 E10.13545
G1 X104.646 Y88.624 E10.15893
G1 X104.850 Y88.947 E10.19017
G1 X104.850 Y102.100 E11.26656
G1 X102.100 Y102.100 E11.49161
G1 X102.100 Y104.900 E11.72075
G1 X103.600 Y104.900 E11.84350
G1 X103.600 Y105.600 E11.90079
G1 X101.400 Y105.600 E12.08083
G1 X101.400 Y86.506 E13.64340
G1 X101.414 Y86.054 E13.68041
G1 X101.456 Y85.610 E13.71691
G1 X101.526 Y85.170 E13.75341
G1 X101.690 Y84.504 E13.80952
G1 X102.199 Y84.322 F7800.000
G1 X102.290 Y84.678 F7800.000
G1 X102.480 Y84.117 E13.85805 F600.000
G1 X102.642 Y83.743 E13.89133
G1 X102.823 Y83.386 E13.92411
G1 X103.034 Y83.030 E13.95794
G1 X103.262 Y82.694 E13.99119
G1 X103.511 Y82.373 E14.02448
G1 X103.780 Y82.068 E14.05776
G1 X104.068 Y81.780 E14.09105
G1 X104.373 Y81.512 E14.12430
G1 X104.699 Y81.258 E14.15813
G1 X105.031 Y81.033 E14.19091
G1 X105.381 Y80.826 E14.22420
G1 X105.743 Y80.642 E14.25748
G1 X106.117 Y80.480 E14.29077
G1 X106.499 Y80.342 E14.32406
G1 X106.890 Y80.229 E14.35734
G1 X107.286 Y80.140 E14.39060
G1 X107.695 Y80.076 E14.42443
G1 X108.093 Y80.038 E14.45720
G1 X108.500 Y80.025 E14.49049
G1 X108.907 Y80.038 E14.52378
G1 X109.311 Y80.076 E14.55706 F600.000
G1 X109.713 Y80.140 E14.59035
G1 X110.110 Y80.229 E14.62364
G1 X110.501 Y80.342 E14.65692
G1 X110.883 Y80.480 E14.69021
G1 X111.257 Y80.642 E14.72349
G1 X111.619 Y80.826 E14.75678
G1 X111.969 Y81.033 E14.79007
G1 X112.306 Y81.262 E14.82335
G1 X112.627 Y81.511 E14.85664
G1 X112.932 Y81.780 E14.88993
G1 X113.220 Y82.068 E14.92321
G1 X113.489 Y82.373 E14.95650
G1 X113.738 Y82.694 E14.98979
G1 X113.967 Y83.031 E15.02307
G1 X114.174 Y83.381 E15.05636
G1 X114.358 Y83.743 E15.08965
G1 X114.520 Y84.117 E15.12293
G1 X114.656 Y84.493 E15.15571
G1 X114.771 Y84.890 E15.18954
G1 X114.860 Y85.287 E15.22279
G1 X114.923 Y85.682 E15.25557
G1 X114.962 Y86.094 E15.28940
G1 X114.975 Y86.516 E15.32397
G1 X114.975 Y94.263 E15.95796
G1 X116.975 Y94.263 E16.12163
G1 X116.975 Y98.189 E16.44291
G1 X114.975 Y98.189 E16.60658
G1 X114.975 Y101.475 E16.87551
G1 X112.775 Y101.475 E17.05557
G1 X112.775 Y89.128 E18.06603
G1 X112.906 Y88.920 E18.08609
G1 X113.167 Y88.364 E18.13638
G1 X113.285 Y88.039 E18.16473
G1 X113.438 Y87.442 E18.21514
G1 X113.517 Y86.816 E18.26680
G1 X113.517 Y86.185 E18.31844
G1 X113.441 Y85.580 E18.36830
G1 X113.275 Y84.932 E18.42302
G1 X113.048 Y84.360 E18.47342
G1 X112.744 Y83.806 E18.52508
G1 X112.382 Y83.308 E18.57549
G1 X112.153 Y83.048 E18.60383
G1 X111.704 Y82.627 E18.65424
G1 X111.194 Y82.256 E18.70590
G1 X110.654 Y81.959 E18.75630
G1 X110.336 Y81.821 E18.78465
G1 X109.765 Y81.636 E18.83380
G1 X109.427 Y81.560 E18.86214
G1 X108.816 Y81.483 E18.91255
G1 X108.199 Y81.483 E18.96301
G1 X107.848 Y81.517 E18.99186
G1 X107.250 Y81.631 E19.04172
G1 X106.664 Y81.821 E19.09211
G1 X106.346 Y81.959 E19.12045
G1 X105.806 Y82.256 E19.17086
G1 X105.296 Y82.627 E19.22252
G1 X104.836 Y83.059 E19.27418
G1 X104.433 Y83.545 E19.32584
G1 X104.095 Y84.078 E19.37751
G1 X103.833 Y84.636 E19.42791
G1 X103.715 Y84.961 E19.45624
G1 X103.564 Y85.552 E19.50611
G1 X103.483 Y86.184 E19.55828
G1 X103.483 Y86.815 E19.60997
G1 X103.559 Y87.420 E19.65983
G1 X103.725 Y88.068 E19.71454
G1 X103.946 Y88.626 E19.76369
G1 X104.103 Y88.933 E19.79192
G1 X104.225 Y89.128 E19.81072
G1 X104.225 Y101.475 E20.82119
G1 X102.025 Y101.475 E21.00125
G1 X102.025 Y86.516 E22.22544
G1 X102.038 Y86.093 E22.26005
G1 X102.076 Y85.689 E22.29333
G1 X102.140 Y85.287 E22.32662
G1 X102.269 Y84.750 E22.37178
G1 X102.650 Y94.199 F7800.000
G1 X102.650 Y87.748 E22.89971 F600.000
G1 X102.984 Y87.711 E22.92722
G1 X103.027 Y87.904 E22.94337
G1 X103.133 Y88.270 E22.97457 F600.000
G1 X103.376 Y88.883 E23.02854
G1 X103.600 Y89.308 E23.06787
G1 X103.600 Y100.850 E24.01242
G1 X102.650 Y100.850 E24.09020
G1 X102.650 Y94.274 E24.62836
G1 E21.42836 F2760.00000
G92 E0
G1 X113.400 Y93.897 F7800.000
G1 E3.20000 F2760.00000
G1 X113.400 Y89.308 E3.57555 F600.000
G1 X113.745 Y88.604 E3.63977
G1 X113.883 Y88.222 E3.67294
G1 X114.022 Y87.678 E3.71892
G1 X114.350 Y87.720 E3.74597
G1 X114.350 Y94.888 E4.33260 F600.000
G1 X116.350 Y94.888 E4.49627
G1 X116.350 Y97.564 E4.71527
G1 X114.350 Y97.564 E4.87894
G1 X114.350 Y100.850 E5.14787
G1 X113.400 Y100.850 E5.22565
G1 X113.400 Y93.972 E5.78851
G1 X113.875 Y95.200 F7800.000
G1 X113.875 Y89.444 E6.25959 F600.000
G1 X114.021 Y88.789 E6.31449
G1 X114.213 Y87.387 F7800.000
G1 X114.246 Y86.835 E6.41045 F600.000
G1 X114.240 Y86.140 E6.53116
G1 X114.157 Y85.475 E6.64734
G1 X114.069 Y85.071 E6.71913
G1 X113.953 Y84.680 E6.78992
G1 X113.704 Y84.051 E6.90724
G1 X113.356 Y83.419 E7.03254
G1 X112.930 Y82.835 E7.15784
G1 X112.659 Y82.531 E7.22850
G1 X112.166 Y82.069 E7.34582
G1 X111.581 Y81.644 E7.47112
G1 X110.948 Y81.297 E7.59642
G1 X110.610 Y81.151 E7.66037
G1 X110.275 Y81.036 E7.72175
G1 X109.937 Y80.932 E7.78314
G1 X109.577 Y80.852 E7.84709
G1 X108.861 Y80.760 E7.97239
G1 X108.500 Y80.754 E8.03505
G1 X108.145 Y80.761 E8.09670
G1 X107.785 Y80.795 E8.15935
G1 X107.095 Y80.924 E8.28126
G1 X106.426 Y81.138 E8.40297
G1 X106.052 Y81.297 E8.47363
G1 X105.419 Y81.644 E8.59893
G1 X105.128 Y81.848 E8.66057
G1 X104.834 Y82.069 E8.72438
G1 X104.291 Y82.583 E8.85402
G1 X103.847 Y83.120 E8.97486
G1 X103.474 Y83.707 E9.09569
G1 X103.172 Y84.341 E9.21746
G1 X103.029 Y84.730 E9.28934
G1 X102.851 Y85.422 E9.41342
G1 X102.760 Y86.139 E9.53872
G1 X102.754 Y86.835 E9.65952
G1 X102.789 Y87.418 E9.76093
G1 X102.979 Y88.777 F7800.000
G1 X103.125 Y89.438 E9.81632 F600.000
G1 X103.125 Y100.538 E10.72468
G1 E7.52468 F2760.00000
G92 E0
G1 X113.875 Y100.538 F7800.000
G1 E3.20000 F2760.00000
G1 X113.875 Y97.252 E3.46893 F600.000
G1 X114.083 Y96.873 F7800.000
G1 X113.778 Y96.568 E3.51141 F600.000
G1 X113.853 Y95.579 E3.60905
G1 X115.459 Y97.185 E3.83273
G1 X115.972 Y96.635 E3.90679
G1 X114.604 Y95.267 E4.09728
G1 X115.667 Y95.267 E4.20193
G1 X115.972 Y95.572 E4.24441
G1 E1.04441 F2760.00000
G92 E0
G1 X93.600 Y95.572 F7800.000
G1 E3.20000 F2760.00000
G1 X93.600 Y98.814 E3.46533 F600.000
G1 X91.600 Y98.814 E3.62900
G1 X91.600 Y105.600 E4.18436
G1 X89.400 Y105.600 E4.36440
