; generated by Slic3r 1.2.9 on 2016-08-05 at 22:34:49

; external perimeters extrusion width = 0.50mm
; perimeters extrusion width = 0.72mm
; infill extrusion width = 0.72mm
; solid infill extrusion width = 0.72mm
; top infill extrusion width = 0.72mm

M107
M190 S60 ; set bed temperature
M104 S200 ; set temperature
G28 X0 Y0
G28 Z0
G1 Z0.3 F200
G1 X15 Y20 F12000
M109 S200 ; wait for temperature to be reached
G21 ; set units to millimeters
G90 ; use absolute coordinates
M82 ; use absolute distances for extrusion
G92 E0
G1 E-3.20000 F2760.00000
G92 E0
G1 Z0.350 F7800.000
G1 X88.087 Y70.201 F7800.000
G1 E3.20000 F2760.00000
G1 X89.024 Y69.097 E3.31853 F1800.000
G1 X90.117 Y67.948 E3.44824
G1 X91.171 Y66.958 E3.56666
G1 X92.387 Y65.939 E3.69646
G1 X93.547 Y65.074 E3.81488
G1 X94.869 Y64.199 E3.94462
G1 X96.121 Y63.470 E4.06316
G1 X97.534 Y62.749 E4.19299
G1 X98.856 Y62.167 E4.31119
G1 X100.342 Y61.611 E4.44106
G1 X101.723 Y61.181 E4.55940
G1 X103.264 Y60.796 E4.68941
G1 X104.682 Y60.525 E4.80748
G1 X106.257 Y60.316 E4.93756
G1 X107.699 Y60.207 E5.05593
G1 X109.288 Y60.177 E5.18592
G1 X110.397 Y60.212 E5.27679 F1800.000
G1 X111.743 Y60.316 E5.38723
G1 X112.981 Y60.473 E5.48939
G1 X114.077 Y60.660 E5.58033
G1 X115.391 Y60.948 E5.69044
G1 X116.598 Y61.274 E5.79273
G1 X117.658 Y61.611 E5.88375
G1 X118.920 Y62.077 E5.99390
G1 X120.158 Y62.606 E6.10407
G1 X121.284 Y63.153 E6.20652
G1 X122.261 Y63.682 E6.29740
G1 X123.333 Y64.325 E6.39970
G1 X124.261 Y64.940 E6.49078
G1 X125.347 Y65.732 E6.60081
G1 X126.320 Y66.517 E6.70315
G1 X127.325 Y67.411 E6.81321
G1 X128.287 Y68.357 E6.92360
G1 X129.042 Y69.171 E7.01454
G1 X129.853 Y70.126 E7.11701
G1 X130.532 Y71.003 E7.20777
G1 X131.253 Y72.021 E7.30991
G1 X131.971 Y73.148 E7.41921
G1 X132.530 Y74.121 E7.51106
G1 X133.106 Y75.233 E7.61350
G1 X133.666 Y76.457 E7.72367
G1 X134.082 Y77.488 E7.81470
G1 X134.496 Y78.664 E7.91671
G1 X134.882 Y79.953 E8.02684
G1 X135.152 Y81.032 E8.11785
G1 X135.402 Y82.259 E8.22030
G1 X135.576 Y83.353 E8.31100
G1 X135.725 Y84.692 E8.42126
G1 X135.795 Y85.950 E8.52435
G1 X135.795 Y132.050 E12.29702
G1 X135.725 Y133.308 E12.40012
G1 X135.562 Y134.746 E12.51854
G1 X135.340 Y136.078 E12.62906
G1 X134.994 Y137.622 E12.75860
G1 X134.793 Y138.369 E12.82188
G1 X134.527 Y139.241 E12.89643
G1 X134.279 Y139.975 E12.95989
G1 X133.959 Y140.829 E13.03450
G1 X133.666 Y141.543 E13.09771
G1 X133.292 Y142.378 E13.17259
G1 X132.955 Y143.072 E13.23569
G1 X132.530 Y143.879 E13.31033
G1 X131.798 Y145.135 E13.42928
G1 X131.307 Y145.897 E13.50348
G1 X130.867 Y146.536 E13.56697
G1 X130.328 Y147.269 E13.64143
G1 X129.853 Y147.873 E13.70435
G1 X129.265 Y148.576 E13.77932
G1 X128.750 Y149.151 E13.84249
G1 X127.631 Y150.299 E13.97373
G1 X127.080 Y150.815 E14.03546
G1 X126.376 Y151.436 E14.11225
G1 X125.799 Y151.913 E14.17356
G1 X125.079 Y152.472 E14.24815
G1 X124.453 Y152.926 E14.31145
G1 X123.699 Y153.439 E14.38608
G1 X123.046 Y153.853 E14.44937
G1 X122.262 Y154.317 E14.52393
G1 X121.584 Y154.690 E14.58722
G1 X120.770 Y155.105 E14.66202
G1 X120.072 Y155.433 E14.72509
G1 X119.234 Y155.796 E14.79981
G1 X118.514 Y156.081 E14.86322
G1 X117.658 Y156.389 E14.93770
G1 X116.369 Y156.793 E15.04820
G1 X115.292 Y157.076 E15.13936
G1 X113.976 Y157.359 E15.24951
G1 X112.647 Y157.576 E15.35971
G1 X111.308 Y157.725 E15.46996
G1 X109.963 Y157.807 E15.58024
G1 X108.613 Y157.822 E15.69068
G1 X107.268 Y157.769 E15.80089
G1 X105.927 Y157.648 E15.91102
G1 X104.591 Y157.460 E16.02146
G1 X103.363 Y157.226 E16.12379
G1 X102.052 Y156.909 E16.23417
G1 X100.759 Y156.527 E16.34446
G1 X99.488 Y156.082 E16.45468
G1 X98.238 Y155.571 E16.56517
G1 X97.233 Y155.106 E16.65587
G1 X96.035 Y154.483 E16.76634
G1 X94.873 Y153.803 E16.87651
G1 X93.743 Y153.063 E16.98706
G1 X92.731 Y152.328 E17.08940
G1 X91.679 Y151.483 E17.19980
G1 X90.675 Y150.589 E17.30987
G1 X89.713 Y149.643 E17.42025
G1 X88.958 Y148.829 E17.51116
G1 X88.087 Y147.799 E17.62150
G1 X87.319 Y146.795 E17.72500
G1 X86.556 Y145.690 E17.83486
G1 X85.849 Y144.550 E17.94465
G1 X85.200 Y143.373 E18.05464
G1 X84.606 Y142.158 E18.16528
G1 X84.076 Y140.918 E18.27562
G1 X83.611 Y139.658 E18.38561
G1 X83.303 Y138.697 E18.46814
G1 X83.091 Y137.948 E18.53185
G1 X82.848 Y136.968 E18.61448
G1 X82.641 Y135.976 E18.69744
G1 X82.473 Y134.981 E18.77998
G1 X82.341 Y133.980 E18.86265
G1 X82.248 Y132.972 E18.94550
G1 X82.205 Y132.050 E19.02101
G1 X82.205 Y85.950 E22.79368
G1 X82.232 Y85.266 E22.84970
G1 X82.316 Y84.257 E22.93255
G1 X82.438 Y83.254 E23.01522
G1 X82.598 Y82.258 E23.09776
G1 X82.796 Y81.264 E23.18072
G1 X83.030 Y80.282 E23.26336
G1 X83.302 Y79.307 E23.34623
G1 X83.611 Y78.342 E23.42908
G1 X83.955 Y77.393 E23.51170
G1 X84.334 Y76.457 E23.59440
G1 X84.749 Y75.534 E23.67718
G1 X85.199 Y74.627 E23.76006
G1 X85.683 Y73.738 E23.84284
G1 X86.199 Y72.869 E23.92556
G1 X86.747 Y72.022 E24.00817
G1 X87.327 Y71.194 E24.09082
G1 X88.040 Y70.260 E24.18708
G1 X88.576 Y70.590 F7800.000
G1 X89.488 Y69.516 E24.30239 F1800.000
G1 X90.558 Y68.390 E24.42954
G1 X91.585 Y67.426 E24.54475
G1 X92.776 Y66.428 E24.67198
G1 X93.905 Y65.586 E24.78719
G1 X95.201 Y64.729 E24.91436
G1 X96.418 Y64.019 E25.02968
G1 X97.804 Y63.313 E25.15694
G1 X99.090 Y62.747 E25.27194
G1 X100.547 Y62.201 E25.39924
G1 X101.890 Y61.784 E25.51437
G1 X103.401 Y61.406 E25.64179
G1 X104.780 Y61.142 E25.75669
G1 X106.324 Y60.937 E25.88417
G1 X107.727 Y60.831 E25.99934
G1 X109.284 Y60.802 E26.12674
G1 X110.362 Y60.836 E26.21503 F1800.000
G1 X111.676 Y60.937 E26.32290
G1 X112.891 Y61.091 E26.42313
G1 X113.956 Y61.273 E26.51151
G1 X115.240 Y61.554 E26.61906
G1 X116.423 Y61.874 E26.71942
G1 X117.453 Y62.201 E26.80785
G1 X118.687 Y62.657 E26.91544
G1 X119.896 Y63.173 E27.02306
G1 X121.000 Y63.710 E27.12356
G1 X121.949 Y64.224 E27.21187
G1 X123.001 Y64.855 E27.31224
G1 X123.900 Y65.450 E27.40043
G1 X124.964 Y66.226 E27.50821
G1 X125.919 Y66.996 E27.60862
G1 X126.900 Y67.869 E27.71613
G1 X127.840 Y68.793 E27.82395
G1 X128.574 Y69.585 E27.91231
G1 X129.369 Y70.521 E28.01283
G1 X130.029 Y71.373 E28.10103
G1 X130.736 Y72.373 E28.20125
G1 X131.437 Y73.473 E28.30798
G1 X131.981 Y74.418 E28.39726
G1 X132.545 Y75.509 E28.49776
G1 X133.092 Y76.705 E28.60537
G1 X133.496 Y77.707 E28.69381
G1 X133.903 Y78.861 E28.79391
G1 X134.280 Y80.120 E28.90149
G1 X134.542 Y81.168 E28.98992
G1 X134.788 Y82.372 E29.09042
G1 X134.956 Y83.435 E29.17857
G1 X135.102 Y84.743 E29.28626
G1 X135.170 Y85.950 E29.38517
G1 X135.170 Y132.050 E33.15784
G1 X135.102 Y133.257 E33.25676
G1 X134.943 Y134.656 E33.37197
G1 X134.727 Y135.957 E33.47990
G1 X134.446 Y137.240 E33.58741
G1 X134.216 Y138.110 E33.66108
G1 X134.004 Y138.824 E33.72204
G1 X133.720 Y139.679 E33.79570
G1 X133.463 Y140.380 E33.85688
G1 X133.127 Y141.213 E33.93035
G1 X132.826 Y141.898 E33.99159
G1 X132.439 Y142.706 E34.06494
G1 X132.094 Y143.372 E34.12629
G1 X131.655 Y144.159 E34.20002
G1 X131.277 Y144.790 E34.26020
G1 X130.786 Y145.553 E34.33444
G1 X130.366 Y146.164 E34.39515
G1 X129.829 Y146.892 E34.46917
G1 X129.369 Y147.478 E34.53019
G1 X128.313 Y148.704 E34.66262
G1 X127.195 Y149.851 E34.79364
G1 X126.661 Y150.352 E34.85356
G1 X125.971 Y150.961 E34.92890
G1 X124.702 Y151.973 E35.06173
G1 X124.095 Y152.414 E35.12310
G1 X123.354 Y152.918 E35.19645
G1 X122.721 Y153.319 E35.25781
G1 X121.950 Y153.775 E35.33109
G1 X121.293 Y154.137 E35.39245
G1 X120.493 Y154.544 E35.46595
G1 X119.817 Y154.863 E35.52712
G1 X118.993 Y155.219 E35.60054
G1 X118.295 Y155.496 E35.66202
G1 X117.453 Y155.799 E35.73522
G1 X116.423 Y156.126 E35.82365
G1 X115.152 Y156.467 E35.93139
G1 X113.863 Y156.744 E36.03930
G1 X112.565 Y156.956 E36.14694
G1 X111.257 Y157.102 E36.25462
G1 X109.943 Y157.183 E36.36234
G1 X108.625 Y157.197 E36.47020
G1 X107.311 Y157.145 E36.57785
G1 X106.002 Y157.028 E36.68543
G1 X104.696 Y156.844 E36.79329
G1 X103.491 Y156.614 E36.89368
G1 X102.211 Y156.305 E37.00149
G1 X100.948 Y155.932 E37.10921
G1 X99.707 Y155.496 E37.21687
G1 X98.486 Y154.998 E37.32478
G1 X97.509 Y154.545 E37.41292
G1 X96.339 Y153.937 E37.52081
G1 X95.204 Y153.273 E37.62842
G1 X94.101 Y152.551 E37.73638
G1 X93.108 Y151.829 E37.83679
G1 X92.081 Y151.004 E37.94462
G1 X91.099 Y150.131 E38.05213
G1 X90.160 Y149.207 E38.15994
G1 X89.426 Y148.415 E38.24828
G1 X88.576 Y147.410 E38.35604
G1 X87.822 Y146.425 E38.45752
G1 X87.077 Y145.346 E38.56484
G1 X86.387 Y144.232 E38.67210
G1 X85.753 Y143.082 E38.77955
G1 X85.173 Y141.896 E38.88760
G1 X84.656 Y140.685 E38.99536
G1 X84.201 Y139.453 E39.10281
G1 X83.901 Y138.515 E39.18341
G1 X83.695 Y137.789 E39.24518
G1 X83.458 Y136.832 E39.32589
G1 X83.256 Y135.863 E39.40691
G1 X83.091 Y134.891 E39.48754
G1 X82.963 Y133.913 E39.56829
G1 X82.871 Y132.928 E39.64920
G1 X82.830 Y132.050 E39.72117
G1 X82.830 Y85.950 E43.49384
G1 X82.855 Y85.309 E43.54633
G1 X82.937 Y84.324 E43.62724
G1 X83.057 Y83.344 E43.70799
G1 X83.212 Y82.371 E43.78863
G1 X83.406 Y81.401 E43.86964
G1 X83.635 Y80.441 E43.95036
G1 X83.900 Y79.489 E44.03129
G1 X84.201 Y78.547 E44.11220
G1 X84.537 Y77.620 E44.19291
G1 X84.908 Y76.705 E44.27368
G1 X85.313 Y75.804 E44.35453
G1 X85.753 Y74.918 E44.43548
G1 X86.225 Y74.050 E44.51633
G1 X86.729 Y73.201 E44.59713
G1 X87.264 Y72.373 E44.67782
G1 X87.830 Y71.565 E44.75855
G1 X88.529 Y70.649 E44.85287
G1 X89.065 Y70.979 F7800.000
G1 X89.951 Y69.935 E44.96495 F1800.000
G1 X91.000 Y68.832 E45.08954
G1 X91.998 Y67.895 E45.20154
G1 X93.166 Y66.917 E45.32620
G1 X94.263 Y66.098 E45.43820
G1 X95.533 Y65.258 E45.56281
G1 X96.716 Y64.569 E45.67490
G1 X98.073 Y63.877 E45.79959
G1 X99.324 Y63.326 E45.91140
G1 X100.751 Y62.792 E46.03613
G1 X102.057 Y62.386 E46.14805
G1 X103.537 Y62.015 E46.27289
G1 X104.878 Y61.760 E46.38460
G1 X106.391 Y61.559 E46.50949
G1 X107.755 Y61.456 E46.62144
G1 X109.280 Y61.427 E46.74626
G1 X110.327 Y61.460 E46.83199 F1800.000
G1 X111.609 Y61.559 E46.93727
G1 X112.801 Y61.709 E47.03559
G1 X113.835 Y61.886 E47.12138
G1 X115.088 Y62.160 E47.22638
G1 X116.249 Y62.474 E47.32481
G1 X117.249 Y62.792 E47.41066
G1 X118.453 Y63.236 E47.51569
G1 X119.634 Y63.741 E47.62076
G1 X120.717 Y64.267 E47.71931
G1 X121.638 Y64.766 E47.80505
G1 X122.669 Y65.385 E47.90349
G1 X123.542 Y65.962 E47.98911
G1 X124.581 Y66.719 E48.09432
G1 X125.518 Y67.475 E48.19279
G1 X126.476 Y68.327 E48.29775
G1 X127.392 Y69.229 E48.40300
G1 X128.105 Y69.998 E48.48878
G1 X128.884 Y70.916 E48.58736
G1 X129.526 Y71.743 E48.67299
G1 X130.219 Y72.724 E48.77129
G1 X130.903 Y73.797 E48.87546
G1 X131.431 Y74.716 E48.96216
G1 X131.985 Y75.786 E49.06072
G1 X132.424 Y76.734 E49.14629
G1 X132.911 Y77.926 E49.25163
G1 X133.310 Y79.057 E49.34982
G1 X133.678 Y80.287 E49.45485
G1 X133.933 Y81.305 E49.54069
G1 X134.173 Y82.485 E49.63925
G1 X134.337 Y83.518 E49.72484
G1 X134.479 Y84.794 E49.82997
G1 X134.545 Y85.950 E49.92470
G1 X134.545 Y132.050 E53.69737
G1 X134.479 Y133.206 E53.79211
G1 X134.325 Y134.566 E53.90411
G1 X134.114 Y135.835 E54.00945
G1 X133.840 Y137.088 E54.11441
G1 X133.408 Y138.635 E54.24582
G1 X132.880 Y140.154 E54.37742
G1 X132.258 Y141.635 E54.50890
G1 X131.879 Y142.430 E54.58096
G1 X131.545 Y143.075 E54.64039
G1 X130.747 Y144.459 E54.77114
G1 X129.857 Y145.800 E54.90284
G1 X129.331 Y146.515 E54.97552
G1 X128.885 Y147.083 E55.03464
G1 X127.853 Y148.282 E55.16406
G1 X126.760 Y149.403 E55.29217
G1 X125.565 Y150.485 E55.42416
G1 X124.835 Y151.083 E55.50131
G1 X124.257 Y151.526 E55.56094
G1 X122.939 Y152.442 E55.69230
G1 X121.566 Y153.275 E55.82374
G1 X120.145 Y154.019 E55.95497
G1 X119.343 Y154.390 E56.02728
G1 X118.675 Y154.674 E56.08668
G1 X117.169 Y155.235 E56.21820
G1 X115.943 Y155.614 E56.32325
G1 X114.696 Y155.932 E56.42857
G1 X113.516 Y156.173 E56.52714
G1 X112.246 Y156.368 E56.63223
G1 X110.969 Y156.499 E56.73735
G1 X109.684 Y156.566 E56.84259
G1 X108.399 Y156.568 E56.94778
G1 X107.348 Y156.521 E57.03384
G1 X106.076 Y156.407 E57.13841
G1 X104.802 Y156.228 E57.24370
G1 X103.537 Y155.984 E57.34910
G1 X102.288 Y155.678 E57.45435
G1 X101.058 Y155.311 E57.55936
G1 X99.849 Y154.882 E57.66439
G1 X98.735 Y154.424 E57.76296
G1 X97.570 Y153.879 E57.86820
G1 X96.436 Y153.276 E57.97334
G1 X95.532 Y152.741 E58.05923
G1 X94.458 Y152.038 E58.16428
G1 X93.420 Y151.282 E58.26940
G1 X92.434 Y150.484 E58.37318
G1 X91.466 Y149.618 E58.47949
G1 X90.550 Y148.711 E58.58498
G1 X89.737 Y147.823 E58.68355
G1 X88.914 Y146.830 E58.78906
G1 X88.142 Y145.799 E58.89445
G1 X87.423 Y144.730 E58.99989
G1 X86.766 Y143.639 E59.10412
G1 X86.159 Y142.504 E59.20946
G1 X85.610 Y141.343 E59.31455
G1 X85.206 Y140.376 E59.40033
G1 X84.765 Y139.168 E59.50554
G1 X84.498 Y138.328 E59.57770
G1 X84.239 Y137.400 E59.65657
G1 X84.016 Y136.463 E59.73537
G1 X83.870 Y135.750 E59.79495
G1 X83.709 Y134.801 E59.87368
G1 X83.584 Y133.846 E59.95250
G1 X83.495 Y132.885 E60.03148
G1 X83.455 Y132.050 E60.09992
G1 X83.455 Y85.950 E63.87259
G1 X83.473 Y85.437 E63.91462
G1 X83.550 Y84.477 E63.99344
G1 X83.663 Y83.517 E64.07249
G1 X83.813 Y82.565 E64.15137
G1 X83.998 Y81.618 E64.23038
G1 X84.219 Y80.679 E64.30932
G1 X84.474 Y79.750 E64.38815
G1 X84.765 Y78.831 E64.46698
G1 X85.120 Y77.846 E64.55269
G1 X85.481 Y76.953 E64.63155
G1 X85.877 Y76.073 E64.71047
G1 X86.306 Y75.208 E64.78948
G1 X86.766 Y74.361 E64.86840
G1 X87.258 Y73.533 E64.94727
G1 X87.781 Y72.724 E65.02604
G1 X88.333 Y71.935 E65.10486
G1 X89.018 Y71.038 E65.19723
G1 E61.99723 F2760.00000
G92 E0
G1 X127.542 Y88.400 F7800.000
G1 E3.20000 F2760.00000
G1 X127.506 Y88.866 E3.23828 F1800.000
G1 X127.389 Y89.794 E3.31481
G1 X127.225 Y90.715 E3.39132
G1 X127.015 Y91.627 E3.46791
G1 X126.829 Y92.300 E3.52511
G1 X126.540 Y93.190 E3.60171
G1 X126.206 Y94.064 E3.67821
G1 X125.830 Y94.919 E3.75471
G1 X125.410 Y95.755 E3.83122
G1 X124.949 Y96.569 E3.90781
G1 X124.576 Y97.167 E3.96546
G1 X124.048 Y97.933 E4.04161
G1 X123.479 Y98.676 E4.11819
G1 X123.026 Y99.216 E4.17590
G1 X122.398 Y99.902 E4.25199
G1 X121.733 Y100.559 E4.32849
G1 X121.035 Y101.181 E4.40499
G1 X120.314 Y101.763 E4.48087
G1 X119.744 Y102.183 E4.53879
G1 X118.966 Y102.704 E4.61539
G1 X118.164 Y103.186 E4.69198
G1 X117.549 Y103.519 E4.74918
G1 X116.707 Y103.928 E4.82578
G1 X115.847 Y104.294 E4.90228
G1 X114.968 Y104.616 E4.97887
G1 X114.302 Y104.828 E5.03607
G1 X113.399 Y105.072 E5.11267
G1 X112.485 Y105.270 E5.18917
G1 X111.562 Y105.423 E5.26576
G1 X110.868 Y105.506 E5.32297
G1 X109.935 Y105.576 E5.39956
G1 X109.001 Y105.600 E5.47597
G1 X107.826 Y105.563 E5.57218
G1 X107.133 Y105.506 E5.62907
G1 X106.439 Y105.423 E5.68627
G1 X105.285 Y105.225 E5.78207
G1 X104.148 Y104.956 E5.87770
G1 X103.028 Y104.615 E5.97350
G1 X102.371 Y104.379 E6.03070
G1 X101.723 Y104.117 E6.08790
G1 X100.655 Y103.623 E6.18420
G1 X100.039 Y103.299 E6.24108
G1 X99.433 Y102.951 E6.29829
G1 X98.447 Y102.316 E6.39427
G1 X97.879 Y101.909 E6.45147
G1 X97.327 Y101.481 E6.50864
G1 X96.439 Y100.718 E6.60448
G1 X95.594 Y99.893 E6.70109
G1 X95.126 Y99.388 E6.75747
G1 X94.670 Y98.858 E6.81468
G1 X93.951 Y97.931 E6.91066
G1 X93.551 Y97.358 E6.96786
G1 X93.175 Y96.774 E7.02471
G1 X92.589 Y95.754 E7.12096
G1 X92.171 Y94.920 E7.19728
G1 X91.707 Y93.850 E7.29277
G1 X91.384 Y92.970 E7.36950
G1 X91.107 Y92.078 E7.44591
G1 X90.823 Y90.942 E7.54171
G1 X90.648 Y90.025 E7.61813
G1 X90.519 Y89.100 E7.69457
G1 X90.460 Y88.400 E7.75205
G1 X99.132 Y88.400 E8.46171
G1 X99.226 Y88.992 E8.51078
G1 X99.438 Y89.843 E8.58256
G1 X99.726 Y90.673 E8.65444
G1 X100.140 Y91.584 E8.73630
G1 X100.578 Y92.346 E8.80826
G1 X101.154 Y93.161 E8.88991
G1 X101.728 Y93.829 E8.96199
G1 X102.357 Y94.442 E9.03387
G1 X103.136 Y95.070 E9.11572
G1 X103.868 Y95.554 E9.18760
G1 X104.640 Y95.972 E9.25939
G1 X105.445 Y96.320 E9.33117
G1 X106.277 Y96.597 E9.40296
G1 X107.134 Y96.799 E9.47504
G1 X108.123 Y96.937 E9.55669
G1 X109.001 Y96.975 E9.62866
G1 X110.000 Y96.925 E9.71051
G1 X110.869 Y96.799 E9.78239
G1 X111.723 Y96.597 E9.85417
G1 X112.555 Y96.320 E9.92596
G1 X113.360 Y95.972 E9.99775
G1 X114.132 Y95.554 E10.06953
G1 X114.864 Y95.070 E10.14141
G1 X115.643 Y94.442 E10.22326
G1 X116.272 Y93.829 E10.29514
G1 X116.843 Y93.163 E10.36693
G1 X117.355 Y92.450 E10.43880
G1 X117.860 Y91.585 E10.52075
G1 X118.274 Y90.673 E10.60269
