; generated by Slic3r 1.2.9 on 2017-04-04 at 00:34:32

; external perimeters extrusion width = 0.50mm
; perimeters extrusion width = 0.72mm
; infill extrusion width = 0.72mm
; solid infill extrusion width = 0.72mm
; top infill extrusion width = 0.72mm

M107
M190 S60 ; set bed temperature
M104 S200 ; set temperature
G28 X0 Y0
G28 Z0
G1 Z0.3 F200
G1 X15 Y20 F12000
M109 S200 ; wait for temperature to be reached
G21 ; set units to millimeters
G90 ; use absolute coordinates
M82 ; use absolute distances for extrusion
G92 E0
G1 E-3.20000 F2760.00000
G92 E0
G1 Z0.350 F7800.000
G1 X83.725 Y62.359 F7800.000
G1 E3.20000 F2760.00000
G1 X85.516 Y60.612 E3.40475 F600.000
G1 X87.764 Y59.514 E3.60950
G1 X90.050 Y59.175 E3.79861
G1 X127.950 Y59.175 E6.90021
G1 X130.420 Y59.573 E7.10497
G1 X132.641 Y60.725 E7.30972 F600.000
G1 X134.388 Y62.516 E7.51447
G1 X135.486 Y64.764 E7.71922
G1 X135.825 Y67.050 E7.90832
G1 X135.825 Y150.950 E14.77442
G1 X135.427 Y153.420 E14.97917
G1 X134.275 Y155.641 E15.18392
G1 X132.484 Y157.388 E15.38867
G1 X130.236 Y158.486 E15.59342
G1 X127.950 Y158.825 E15.78252
G1 X90.050 Y158.825 E18.88413
G1 X87.580 Y158.427 E19.08888
G1 X85.359 Y157.275 E19.29363
G1 X83.612 Y155.484 E19.49838
G1 X82.514 Y153.236 E19.70314
G1 X82.175 Y150.950 E19.89224
G1 X82.175 Y67.050 E26.75833
G1 X82.573 Y64.580 E26.96308
G1 X83.691 Y62.426 E27.16170
G1 X84.259 Y62.735 F7800.000
G1 X84.346 Y62.576 E27.17656 F600.000
G1 X86.119 Y60.959 E27.37297
G1 X88.323 Y60.009 E27.56937
G1 X90.050 Y59.800 E27.71173
G1 X127.950 Y59.800 E30.81333
G1 X130.317 Y60.197 E31.00974
G1 X132.424 Y61.346 E31.20614 F600.000
G1 X134.041 Y63.119 E31.40255
G1 X134.991 Y65.323 E31.59895
G1 X135.200 Y67.050 E31.74131
G1 X135.200 Y150.950 E38.60740
G1 X134.803 Y153.317 E38.80380
G1 X133.654 Y155.424 E39.00021
G1 X131.881 Y157.041 E39.19661
G1 X129.677 Y157.991 E39.39302
G1 X127.950 Y158.200 E39.53537
G1 X90.050 Y158.200 E42.63698
G1 X87.683 Y157.803 E42.83339
G1 X85.576 Y156.654 E43.02979
G1 X83.959 Y154.881 E43.22620
G1 X83.009 Y152.677 E43.42260
G1 X82.800 Y150.950 E43.56495
G1 X82.800 Y67.050 E50.43105
G1 X83.197 Y64.683 E50.62745
G1 X84.223 Y62.801 E50.80285
G1 X84.782 Y63.122 F7800.000
G1 X84.965 Y62.803 E50.83301 F600.000
G1 X86.718 Y61.324 E51.02069
G1 X88.870 Y60.531 E51.20838
G1 X90.050 Y60.425 E51.30532
G1 X127.950 Y60.425 E54.40693
G1 X130.209 Y60.822 E54.59462
G1 X132.197 Y61.965 E54.78230 F600.000
G1 X133.676 Y63.718 E54.96999
G1 X134.469 Y65.870 E55.15768
G1 X134.575 Y67.050 E55.25462
G1 X134.575 Y150.950 E62.12071
G1 X134.178 Y153.209 E62.30840
G1 X133.035 Y155.197 E62.49609
G1 X131.282 Y156.676 E62.68378
G1 X129.130 Y157.469 E62.87146
G1 X127.950 Y157.575 E62.96840
G1 X90.050 Y157.575 E66.07001
G1 X87.791 Y157.178 E66.25770
G1 X85.803 Y156.035 E66.44539
G1 X84.324 Y154.282 E66.63307
G1 X83.531 Y152.130 E66.82076
G1 X83.425 Y150.950 E66.91770
G1 X83.425 Y67.050 E73.78379
G1 X83.822 Y64.791 E73.97148
G1 X84.744 Y63.187 E74.12288
G1 E70.92288 F2760.00000
G92 E0
G1 X90.400 Y67.400 F7800.000
G1 E3.20000 F2760.00000
G1 X127.600 Y67.400 E6.24432 F600.000
G1 X127.600 Y150.600 E13.05313
G1 X90.400 Y150.600 E16.09745 F600.000
G1 X90.400 Y67.475 E22.90012
G1 X90.833 Y67.650 F7800.000
G1 X91.025 Y68.025 F7800.000
G1 X126.975 Y68.025 E25.84217 F600.000
G1 X126.975 Y149.975 E32.54869
G1 X91.025 Y149.975 E35.49074 F600.000
G1 X91.025 Y68.100 E42.19113
G1 X91.650 Y121.308 F7800.000
G1 X91.650 Y68.650 E46.50053 F600.000
G1 X126.350 Y68.650 E49.34030
G1 X126.350 Y149.350 E55.94455
G1 X91.650 Y149.350 E58.78432 F600.000
G1 X91.650 Y121.383 E61.07303
G1 X107.765 Y90.625 F7800.000
G1 X107.294 Y90.347 E61.11773 F600.000
G1 X106.885 Y89.986 E61.16242
G1 X106.550 Y89.555 E61.20711
G1 X106.302 Y89.068 E61.25181
G1 X106.150 Y88.544 E61.29650
G1 X106.098 Y88.000 E61.34119
G1 X106.150 Y87.456 E61.38589
G1 X106.302 Y86.932 E61.43058
G1 X106.550 Y86.445 E61.47527
G1 X106.885 Y86.014 E61.51997
G1 X107.294 Y85.653 E61.56465
G1 X107.765 Y85.375 E61.60936
G1 X108.273 Y85.191 E61.65360
G1 X108.636 Y85.122 E61.68384
G1 X108.994 Y85.099 E61.71319 F600.000
G1 X109.543 Y85.150 E61.75832
G1 X110.068 Y85.302 E61.80304
G1 X110.555 Y85.550 E61.84774
G1 X110.986 Y85.885 E61.89243
G1 X111.347 Y86.294 E61.93712
G1 X111.625 Y86.765 E61.98182
G1 X111.809 Y87.273 E62.02606
G1 X111.878 Y87.636 E62.05632
G1 X111.901 Y88.000 E62.08613
G1 X111.878 Y88.364 E62.11594
G1 X111.809 Y88.727 E62.14620
G1 X111.625 Y89.235 E62.19044
G1 X111.347 Y89.706 E62.23514
G1 X110.986 Y90.115 E62.27983
G1 X110.555 Y90.450 E62.32452
G1 X110.068 Y90.698 E62.36922
G1 X109.544 Y90.850 E62.41391
G1 X109.006 Y90.901 E62.45815
G1 X108.636 Y90.878 E62.48841
G1 X108.273 Y90.809 E62.51868
G1 X107.835 Y90.651 E62.55678
G1 X107.345 Y90.898 F7800.000
G1 X107.623 Y91.239 F7800.000
G1 X107.497 Y91.193 E62.56775 F600.000
G1 X106.926 Y90.855 E62.62212
G1 X106.427 Y90.416 E62.67647
G1 X106.020 Y89.891 E62.73083
G1 X105.719 Y89.299 E62.78520
G1 X105.533 Y88.661 E62.83955
G1 X105.471 Y88.000 E62.89392
G1 X105.533 Y87.339 E62.94829
G1 X105.719 Y86.701 E63.00264
G1 X106.020 Y86.109 E63.05700
G1 X106.427 Y85.584 E63.11137
G1 X106.926 Y85.145 E63.16572
G1 X107.497 Y84.807 E63.22009
G1 X108.108 Y84.587 E63.27319
G1 X108.558 Y84.501 E63.31065
G1 X109.003 Y84.473 E63.34717 F600.000
G1 X109.660 Y84.533 E63.40118
G1 X110.299 Y84.719 E63.45565
G1 X110.891 Y85.020 E63.51001
G1 X111.416 Y85.427 E63.56437
G1 X111.855 Y85.926 E63.61873
G1 X112.193 Y86.497 E63.67310
G1 X112.413 Y87.108 E63.72620
G1 X112.499 Y87.558 E63.76370
G1 X112.527 Y88.000 E63.79994
G1 X112.499 Y88.442 E63.83618
G1 X112.413 Y88.892 E63.87369
G1 X112.193 Y89.503 E63.92679
G1 X111.855 Y90.074 E63.98116
G1 X111.416 Y90.573 E64.03551
G1 X110.891 Y90.980 E64.08988
G1 X110.299 Y91.281 E64.14424
G1 X109.661 Y91.467 E64.19859
G1 X109.015 Y91.528 E64.25169
G1 X108.558 Y91.499 E64.28920
G1 X108.108 Y91.413 E64.32670
G1 X107.694 Y91.264 E64.36269
G1 X107.482 Y91.852 F7800.000
G1 X107.230 Y91.761 E64.38464 F600.000
G1 X106.557 Y91.363 E64.44867
G1 X105.970 Y90.846 E64.51269
G1 X105.490 Y90.227 E64.57673
G1 X105.135 Y89.530 E64.64076
G1 X104.917 Y88.779 E64.70477
G1 X104.843 Y88.000 E64.76881
G1 X104.917 Y87.221 E64.83285
G1 X105.135 Y86.470 E64.89687
G1 X105.490 Y85.773 E64.96090
G1 X105.970 Y85.154 E65.02494
G1 X106.557 Y84.637 E65.08896
G1 X107.230 Y84.239 E65.15299
G1 X107.942 Y83.982 E65.21495
G1 X108.479 Y83.880 E65.25963
G1 X109.011 Y83.846 E65.30332 F600.000
G1 X109.777 Y83.916 E65.36622
G1 X110.530 Y84.135 E65.43042
G1 X111.227 Y84.490 E65.49445
G1 X111.846 Y84.970 E65.55849
G1 X112.363 Y85.557 E65.62251
G1 X112.761 Y86.230 E65.68654
G1 X113.018 Y86.942 E65.74850
G1 X113.120 Y87.480 E65.79325
G1 X113.153 Y88.000 E65.83593
G1 X113.120 Y88.520 E65.87860
G1 X113.018 Y89.058 E65.92335
G1 X112.761 Y89.770 E65.98531
G1 X112.363 Y90.443 E66.04935
G1 X111.846 Y91.030 E66.11336
G1 X111.227 Y91.510 E66.17740
G1 X110.530 Y91.865 E66.24143
G1 X109.779 Y92.083 E66.30545
G1 X109.025 Y92.155 E66.36741
G1 X108.480 Y92.120 E66.41215
G1 X107.942 Y92.018 E66.45690
G1 X107.553 Y91.878 E66.49078
G1 X108.994 Y127.099 F7800.000
G1 X109.543 Y127.150 E66.53592 F600.000
G1 X110.068 Y127.302 E66.58064
G1 X110.555 Y127.550 E66.62534
G1 X110.986 Y127.885 E66.67003
G1 X111.347 Y128.294 E66.71472
G1 X111.625 Y128.765 E66.75942
G1 X111.809 Y129.273 E66.80366
G1 X111.878 Y129.636 E66.83392
G1 X111.901 Y130.000 E66.86373
G1 X111.878 Y130.364 E66.89354
G1 X111.809 Y130.727 E66.92380
G1 X111.625 Y131.235 E66.96804
G1 X111.347 Y131.706 E67.01274
G1 X110.986 Y132.115 E67.05743
G1 X110.555 Y132.450 E67.10212
G1 X110.068 Y132.698 E67.14682
G1 X109.544 Y132.850 E67.19150
G1 X109.006 Y132.901 E67.23575
G1 X108.636 Y132.878 E67.26601
G1 X108.273 Y132.809 E67.29627
G1 X107.765 Y132.625 E67.34051
G1 X107.294 Y132.347 E67.38521
G1 X106.885 Y131.986 E67.42990
G1 X106.550 Y131.555 E67.47459
G1 X106.302 Y131.068 E67.51929
G1 X106.150 Y130.544 E67.56398
G1 X106.098 Y130.000 E67.60867
G1 X106.150 Y129.456 E67.65337
G1 X106.302 Y128.932 E67.69806
G1 X106.550 Y128.445 E67.74275
G1 X106.885 Y128.014 E67.78745
G1 X107.294 Y127.653 E67.83213
G1 X107.765 Y127.375 E67.87684
G1 X108.273 Y127.191 E67.92108
G1 X108.636 Y127.122 E67.95132
G1 X108.919 Y127.104 E67.97453 F600.000
G1 X109.261 Y126.677 F7800.000
G1 X108.879 Y126.480 F7800.000
G1 X109.003 Y126.473 E67.98465 F600.000
G1 X109.660 Y126.533 E68.03867
G1 X110.299 Y126.719 E68.09313
G1 X110.891 Y127.020 E68.14749
G1 X111.416 Y127.427 E68.20186
G1 X111.855 Y127.926 E68.25621
G1 X112.193 Y128.497 E68.31058
G1 X112.413 Y129.108 E68.36368
G1 X112.499 Y129.558 E68.40119
G1 X112.527 Y130.000 E68.43743
G1 X112.499 Y130.442 E68.47367
G1 X112.413 Y130.892 E68.51117
G1 X112.193 Y131.503 E68.56427
G1 X111.855 Y132.074 E68.61864
G1 X111.416 Y132.573 E68.67299
G1 X110.891 Y132.980 E68.72736
G1 X110.299 Y133.281 E68.78172
G1 X109.661 Y133.467 E68.83607
G1 X109.015 Y133.528 E68.88918
G1 X108.558 Y133.499 E68.92668
G1 X108.108 Y133.413 E68.96419
G1 X107.497 Y133.193 E69.01729
G1 X106.926 Y132.855 E69.07166
G1 X106.427 Y132.416 E69.12601
G1 X106.020 Y131.891 E69.18037
G1 X105.719 Y131.299 E69.23474
G1 X105.533 Y130.661 E69.28909
G1 X105.471 Y130.000 E69.34346
G1 X105.533 Y129.339 E69.39783
G1 X105.719 Y128.701 E69.45218
G1 X106.020 Y128.109 E69.50654
G1 X106.427 Y127.584 E69.56091
G1 X106.926 Y127.145 E69.61526
G1 X107.497 Y126.807 E69.66963
G1 X108.108 Y126.587 E69.72273
G1 X108.558 Y126.501 E69.76019
G1 X108.805 Y126.485 E69.78045 F600.000
G1 X108.765 Y125.862 F7800.000
G1 X109.011 Y125.846 E69.80069 F600.000
G1 X109.777 Y125.916 E69.86360
G1 X110.530 Y126.135 E69.92779
G1 X111.227 Y126.490 E69.99182
G1 X111.846 Y126.970 E70.05586
G1 X112.363 Y127.557 E70.11988
G1 X112.761 Y128.230 E70.18391
G1 X113.018 Y128.942 E70.24587
G1 X113.120 Y129.480 E70.29063
G1 X113.153 Y130.000 E70.33330
G1 X113.120 Y130.520 E70.37597
G1 X113.018 Y131.058 E70.42072
G1 X112.761 Y131.770 E70.48268
G1 X112.363 Y132.443 E70.54672
G1 X111.846 Y133.030 E70.61073
G1 X111.227 Y133.510 E70.67477
G1 X110.530 Y133.865 E70.73880
G1 X109.779 Y134.083 E70.80282
G1 X109.025 Y134.155 E70.86478
G1 X108.480 Y134.120 E70.90952
G1 X107.942 Y134.018 E70.95428
G1 X107.230 Y133.761 E71.01624
G1 X106.557 Y133.363 E71.08027
G1 X105.970 Y132.846 E71.14429
G1 X105.490 Y132.227 E71.20833
G1 X105.135 Y131.530 E71.27236
G1 X104.917 Y130.779 E71.33637
G1 X104.843 Y130.000 E71.40041
G1 X104.917 Y129.221 E71.46445
G1 X105.135 Y128.470 E71.52847
G1 X105.490 Y127.773 E71.59250
G1 X105.970 Y127.154 E71.65654
G1 X106.557 Y126.637 E71.72056
G1 X107.230 Y126.239 E71.78459
G1 X107.942 Y125.982 E71.84655
G1 X108.479 Y125.880 E71.89123
G1 X108.690 Y125.866 E71.90854 F600.000
G1 E68.70854 F2760.00000
G92 E0
G1 X105.177 Y132.611 F7800.000
G1 E3.20000 F2760.00000
G1 X92.028 Y119.463 E4.72391 F600.000
G1 X92.028 Y118.578 E4.79644
G1 X104.580 Y131.130 E6.25118
G1 X104.463 Y130.127 E6.33390
G1 X92.028 Y117.693 E7.77502
G1 X92.028 Y116.808 E7.84754
G1 X104.539 Y129.318 E9.29752
G1 X104.729 Y128.623 E9.35656
G1 X92.028 Y115.923 E10.82855
G1 X92.028 Y115.038 E10.90108
G1 X104.997 Y128.007 E12.40415
G1 X105.327 Y127.452 E12.45707
G1 X92.028 Y114.153 E13.99840
G1 X92.028 Y113.268 E14.07093
G1 X105.714 Y126.953 E15.65707
G1 X106.181 Y126.536 E15.70843
G1 X92.028 Y112.383 E17.34874
G1 X92.028 Y111.498 E17.42126
G1 X106.700 Y126.169 E19.12166
G1 X107.275 Y125.860 E19.17520
G1 X92.028 Y110.613 E20.94225
G1 X92.028 Y109.728 E21.01478
G1 X107.926 Y125.625 E22.85725
G1 X108.681 Y125.496 E22.92007
G1 X92.028 Y108.843 E24.85011
G1 X92.028 Y107.958 E24.92263
G1 X109.575 Y125.505 E26.95626
G1 X110.702 Y125.747 E27.05073
G1 X92.028 Y107.073 E29.21498
G1 X92.028 Y106.188 E29.28751
G1 X125.972 Y140.131 E33.22145
G1 X125.972 Y139.246 E33.29397
G1 X92.028 Y105.303 E37.22792
G1 X92.028 Y104.418 E37.30044
G1 X125.972 Y138.361 E41.23438
G1 X125.972 Y137.476 E41.30691
G1 X92.028 Y103.533 E45.24085
G1 X92.028 Y102.648 E45.31338
G1 X125.972 Y136.591 E49.24732
G1 X125.972 Y135.706 E49.31985
G1 X92.028 Y101.763 E53.25379
G1 X92.028 Y100.878 E53.32631
G1 X125.972 Y134.821 E57.26026
G1 X125.972 Y133.936 E57.33278
G1 X92.028 Y99.993 E61.26672
G1 X92.028 Y99.108 E61.33925
G1 X125.972 Y133.051 E65.27319
G1 X125.972 Y132.166 E65.34572
G1 X92.028 Y98.223 E69.27966
G1 X92.028 Y97.338 E69.35218
G1 X125.972 Y131.282 E73.28613
G1 X125.972 Y130.397 E73.35865
G1 X92.028 Y96.453 E77.29259
G1 X92.028 Y95.568 E77.36512
G1 X125.972 Y129.512 E81.29906
G1 X125.972 Y128.627 E81.37159
G1 X92.028 Y94.683 E85.30553
G1 X92.028 Y93.798 E85.37805
G1 X125.972 Y127.742 E89.31200
G1 X125.972 Y126.857 E89.38452
G1 X92.028 Y92.913 E93.31846
G1 X92.028 Y92.028 E93.39099
G1 X125.972 Y125.972 E97.32493
G1 X125.972 Y125.087 E97.39746
G1 X92.028 Y91.143 E101.33140
G1 X92.028 Y90.258 E101.40393
G1 X125.972 Y124.202 E105.33787
G1 X125.972 Y123.317 E105.41039
G1 X92.028 Y89.373 E109.34434
G1 X92.028 Y88.488 E109.41686
G1 X125.972 Y122.432 E113.35080
G1 X125.972 Y121.547 E113.42333
G1 X92.028 Y87.604 E117.35727
G1 X92.028 Y86.719 E117.42980
G1 X125.972 Y120.662 E121.36374
G1 X125.972 Y119.777 E121.43626
G1 X92.028 Y85.834 E125.37021
G1 X92.028 Y84.949 E125.44273
G1 X125.972 Y118.892 E129.37667
G1 X125.972 Y118.007 E129.44920
G1 X92.028 Y84.064 E133.38314
G1 X92.028 Y83.179 E133.45567
G1 X125.972 Y117.122 E137.38961
G1 X125.972 Y116.237 E137.46213
G1 X92.028 Y82.294 E141.39608
G1 X92.028 Y81.409 E141.46860
G1 X125.972 Y115.352 E145.40254
G1 X125.972 Y114.467 E145.47507
G1 X92.028 Y80.524 E149.40901
G1 X92.028 Y79.639 E149.48154
G1 X125.972 Y113.582 E153.41548
G1 X125.972 Y112.697 E153.48800
G1 X92.028 Y78.754 E157.42195
G1 X92.028 Y77.869 E157.49447
G1 X125.972 Y111.812 E161.42841
G1 X125.972 Y98.538 F7800.000
G1 X112.775 Y85.341 E162.95784 F600.000
G1 X111.611 Y84.177 F7800.000
G1 X96.462 Y69.028 E164.71354 F600.000
G1 X97.347 Y69.028 E164.78606
G1 X125.972 Y97.653 E168.10354
G1 X125.972 Y96.768 E168.17607
G1 X98.232 Y69.028 E171.39097
G1 X99.117 Y69.028 E171.46350
G1 X125.972 Y95.883 E174.57584
G1 X125.972 Y94.998 E174.64837
G1 X100.002 Y69.028 E177.65815
G1 X100.887 Y69.028 E177.73067
G1 X125.972 Y94.113 E180.63788
G1 X125.972 Y93.228 E180.71041
G1 X101.772 Y69.028 E183.51505
G1 X102.657 Y69.028 E183.58758
G1 X125.972 Y92.343 E186.28966
G1 X125.972 Y91.458 E186.36218
G1 X103.542 Y69.028 E188.96170
G1 X104.427 Y69.028 E189.03422
G1 X125.972 Y90.573 E191.53117
G1 X125.972 Y89.688 E191.60369
G1 X105.312 Y69.028 E193.99808
G1 X106.197 Y69.028 E194.07060
G1 X125.972 Y88.803 E196.36242
G1 X125.972 Y87.918 E196.43494
G1 X107.082 Y69.028 E198.62419
G1 X107.967 Y69.028 E198.69672
G1 X125.972 Y87.033 E200.78340
G1 X125.972 Y86.148 E200.85592
G1 X108.852 Y69.028 E202.84004
G1 X109.737 Y69.028 E202.91257
G1 X125.972 Y85.263 E204.79412
G1 X125.972 Y84.378 E204.86664
G1 X110.622 Y69.028 E206.64563
G1 X111.507 Y69.028 E206.71815
G1 X125.972 Y83.493 E208.39457
G1 X125.972 Y82.608 E208.46710
G1 X112.392 Y69.028 E210.04095
G1 X113.277 Y69.028 E210.11347
G1 X125.972 Y81.723 E211.58476
G1 X125.972 Y80.838 E211.65729
G1 X114.162 Y69.028 E213.02601
G1 X115.047 Y69.028 E213.09853
G1 X125.972 Y79.953 E214.36469
G1 X125.972 Y79.068 E214.43721
G1 X115.932 Y69.028 E215.60080
G1 X116.817 Y69.028 E215.67333
G1 X125.972 Y78.183 E216.73435
G1 X125.972 Y77.298 E216.80687
G1 X117.702 Y69.028 E217.76533
G1 X118.587 Y69.028 E217.83786
G1 X125.972 Y76.413 E218.69375
G1 X125.972 Y75.528 E218.76627
G1 X119.472 Y69.028 E219.51960
G1 X120.357 Y69.028 E219.59212
G1 X125.972 Y74.643 E220.24288
G1 X125.972 Y73.758 E220.31541
G1 X121.242 Y69.028 E220.86360
G1 X122.127 Y69.028 E220.93612
G1 X125.972 Y72.873 E221.38175
G1 X125.972 Y71.988 E221.45427
G1 X123.012 Y69.028 E221.79733
G1 X123.897 Y69.028 E221.86986
G1 X125.972 Y71.103 E222.11035
G1 X125.972 Y70.218 E222.18288
G1 X124.782 Y69.028 E222.32081
G1 X125.667 Y69.028 E222.39333
G1 X125.972 Y69.333 E222.42870
G1 X110.129 Y83.580 F7800.000
G1 X95.577 Y69.028 E224.11523 F600.000
G1 X94.693 Y69.028 E224.18775
G1 X109.131 Y83.467 E225.86116
G1 X108.326 Y83.547 E225.92749
G1 X93.808 Y69.028 E227.61012
