; generated by Slic3r 1.2.9 on 2016-09-25 at 18:16:00

; external perimeters extrusion width = 0.50mm
; perimeters extrusion width = 0.72mm
; infill extrusion width = 0.72mm
; solid infill extrusion width = 0.72mm
; top infill extrusion width = 0.72mm

M107
M190 S60 ; set bed temperature
M104 S200 ; set temperature
G28 X0 Y0
G28 Z0
G1 Z0.3 F200
G1 X15 Y20 F12000
M109 S200 ; wait for temperature to be reached
G21 ; set units to millimeters
G90 ; use absolute coordinates
M82 ; use absolute distances for extrusion
G92 E0
G1 E-3.20000 F2760.00000
G92 E0
G1 Z0.350 F7800.000
G1 X59.725 Y59.734 F7800.000
G1 E3.20000 F2760.00000
G1 X61.516 Y57.987 E3.40475 F600.000
G1 X63.764 Y56.889 E3.60950
G1 X66.050 Y56.550 E3.79861
G1 X151.950 Y56.550 E10.82837
G1 X154.420 Y56.948 E11.03312
G1 X156.641 Y58.100 E11.23787 F600.000
G1 X158.388 Y59.891 E11.44262
G1 X159.486 Y62.139 E11.64738
G1 X159.825 Y64.425 E11.83648
G1 X159.825 Y113.604 E15.86115
G1 X159.427 Y116.074 E16.06590
G1 X157.518 Y119.172 E16.36369
G1 X117.618 Y159.073 E20.98151
G1 X115.590 Y160.538 E21.18626
G1 X112.050 Y161.379 E21.48406
G1 X66.050 Y161.379 E25.24854
G1 X63.580 Y160.981 E25.45329
G1 X61.359 Y159.829 E25.65804
G1 X59.612 Y158.038 E25.86279
G1 X58.514 Y155.790 E26.06755
G1 X58.175 Y153.504 E26.25665
G1 X58.175 Y64.425 E33.54660
G1 X58.573 Y61.955 E33.75135
G1 X59.691 Y59.801 E33.94996
G1 X60.259 Y60.110 F7800.000
G1 X60.346 Y59.951 E33.96483 F600.000
G1 X62.119 Y58.334 E34.16123
G1 X64.323 Y57.384 E34.35764
G1 X66.050 Y57.175 E34.49999
G1 X151.950 Y57.175 E41.52976
G1 X154.317 Y57.572 E41.72616
G1 X156.424 Y58.721 E41.92257 F600.000
G1 X158.041 Y60.494 E42.11897
G1 X158.991 Y62.698 E42.31538
G1 X159.200 Y64.425 E42.45773
G1 X159.200 Y113.604 E46.48240
G1 X158.803 Y115.971 E46.67880
G1 X157.076 Y118.731 E46.94517
G1 X117.176 Y158.631 E51.56299
G1 X115.222 Y160.023 E51.75939
G1 X112.050 Y160.754 E52.02576
G1 X66.050 Y160.754 E55.79024
G1 X63.683 Y160.357 E55.98665
G1 X61.576 Y159.209 E56.18305
G1 X59.959 Y157.435 E56.37946
G1 X59.009 Y155.231 E56.57586
G1 X58.800 Y153.504 E56.71821
G1 X58.800 Y64.425 E64.00816
G1 X59.197 Y62.058 E64.20457
G1 X60.223 Y60.176 E64.37997
G1 X60.782 Y60.497 F7800.000
G1 X60.965 Y60.178 E64.41012 F600.000
G1 X62.718 Y58.699 E64.59781
G1 X64.870 Y57.906 E64.78550
G1 X66.050 Y57.800 E64.88244
G1 X151.950 Y57.800 E71.91220
G1 X154.209 Y58.197 E72.09989
G1 X156.197 Y59.340 E72.28758 F600.000
G1 X157.676 Y61.093 E72.47527
G1 X158.469 Y63.245 E72.66295
G1 X158.575 Y64.425 E72.75989
G1 X158.575 Y113.604 E76.78456
G1 X158.178 Y115.863 E76.97225
G1 X156.635 Y118.289 E77.20753
G1 X116.734 Y158.189 E81.82534
G1 X114.856 Y159.505 E82.01303
G1 X112.050 Y160.129 E82.24831
G1 X66.050 Y160.129 E86.01280
G1 X63.791 Y159.732 E86.20048
G1 X61.803 Y158.589 E86.38817
G1 X60.324 Y156.836 E86.57586
G1 X59.531 Y154.684 E86.76355
G1 X59.425 Y153.504 E86.86049
G1 X59.425 Y64.425 E94.15044
G1 X59.822 Y62.166 E94.33812
G1 X60.744 Y60.562 E94.48952
G1 E91.28952 F2760.00000
G92 E0
G1 X66.400 Y64.775 F7800.000
G1 E3.20000 F2760.00000
G1 X105.600 Y64.775 E6.40800 F600.000
G1 X105.600 Y70.975 E6.91538
G1 X73.600 Y70.975 E9.53415 F600.000
G1 X73.600 Y109.025 E12.64804
G1 X105.600 Y109.025 E15.26681
G1 X105.600 Y113.459 E15.62970
G1 X66.400 Y152.659 E20.16649
G1 X66.400 Y64.850 E27.35251
G1 X66.833 Y65.025 F7800.000
G1 X67.025 Y65.400 F7800.000
G1 X104.975 Y65.400 E30.45823 F600.000
G1 X104.975 Y70.350 E30.86333
G1 X72.975 Y70.350 E33.48211 F600.000
G1 X72.975 Y109.650 E36.69827
G1 X104.975 Y109.650 E39.31704
G1 X104.975 Y113.200 E39.60761
G1 X67.025 Y151.151 E43.99976
G1 X67.025 Y65.475 E51.01117
G1 E47.81117 F2760.00000
G92 E0
G1 X98.614 Y110.275 F7800.000
G1 E3.20000 F2760.00000
G1 X104.350 Y110.275 E3.66940 F600.000
G1 X104.350 Y112.942 E3.88764
G1 X67.650 Y149.642 E8.13515
G1 X67.650 Y66.025 E14.97811
G1 X104.350 Y66.025 E17.98155
G1 X104.350 Y69.725 E18.28438
G1 X72.350 Y69.725 E20.90315 F600.000
G1 X72.350 Y110.275 E24.22159
G1 X98.539 Y110.275 E26.36483
G1 X98.539 Y113.225 F7800.000
G1 X99.266 Y113.225 E26.42426 F600.000
G1 X70.600 Y141.890 E29.74185
G1 X70.600 Y113.225 E32.08773
G1 X98.464 Y113.225 E34.36807 F600.000
G1 X98.789 Y112.792 F7800.000
G1 X98.464 Y112.600 F7800.000
G1 X100.774 Y112.600 E34.55710 F600.000
G1 X69.975 Y143.399 E38.12161
G1 X69.975 Y112.600 E40.64209
G1 X98.389 Y112.600 E42.96743 F600.000
G1 X98.389 Y111.975 F7800.000
G1 X102.283 Y111.975 E43.28606 F600.000
G1 X69.350 Y144.908 E47.09749
G1 X69.350 Y111.975 E49.79257
G1 X98.314 Y111.975 E52.16290 F600.000
G1 X103.431 Y110.653 F7800.000
G1 X103.972 Y111.194 E52.22591 F600.000
G1 X72.344 Y111.597 F7800.000
G1 X68.028 Y107.281 E52.72882 F600.000
G1 X68.028 Y108.170 E52.80212
G1 X71.455 Y111.597 E53.20137
G1 X70.565 Y111.597 E53.27467
G1 X68.028 Y109.060 E53.57024
G1 X68.028 Y109.950 E53.64355
G1 X69.675 Y111.597 E53.83545
G1 X68.972 Y111.783 E53.89542
G1 X68.028 Y110.839 E54.00533
G1 X68.028 Y111.729 E54.07864
G1 X68.972 Y112.672 E54.18855
G1 X68.972 Y113.562 E54.26185
G1 X68.028 Y112.619 E54.37176
G1 X68.028 Y113.509 E54.44507
G1 X68.972 Y114.452 E54.55498
G1 X68.972 Y115.342 E54.62828
G1 X68.028 Y114.398 E54.73819
G1 X68.028 Y115.288 E54.81150
G1 X68.972 Y116.231 E54.92141
G1 X68.972 Y117.121 E54.99471
G1 X68.028 Y116.178 E55.10462
G1 X68.028 Y117.067 E55.17793
G1 X68.972 Y118.011 E55.28784
G1 X68.972 Y118.900 E55.36114
G1 X68.028 Y117.957 E55.47106
G1 X68.028 Y118.847 E55.54436
G1 X68.972 Y119.790 E55.65427
G1 X68.972 Y120.680 E55.72757
G1 X68.028 Y119.736 E55.83749
G1 X68.028 Y120.626 E55.91079
G1 X68.972 Y121.569 E56.02070
G1 X68.972 Y122.459 E56.09401
G1 X68.028 Y121.516 E56.20392
G1 X68.028 Y122.406 E56.27722
G1 X68.972 Y123.349 E56.38713
G1 X68.972 Y124.239 E56.46044
G1 X68.028 Y123.295 E56.57035
G1 X68.028 Y124.185 E56.64365
G1 X68.972 Y125.128 E56.75356
G1 X68.972 Y126.018 E56.82687
G1 X68.028 Y125.075 E56.93678
G1 X68.028 Y125.964 E57.01008
G1 X68.972 Y126.908 E57.11999
G1 X68.972 Y127.797 E57.19330
G1 X68.028 Y126.854 E57.30321
G1 X68.028 Y127.744 E57.37651
G1 X68.972 Y128.687 E57.48642
G1 X68.972 Y129.577 E57.55973
G1 X68.028 Y128.634 E57.66964
G1 X68.028 Y129.523 E57.74294
G1 X68.972 Y130.467 E57.85285
G1 X68.972 Y131.356 E57.92616
G1 X68.028 Y130.413 E58.03607
G1 X68.028 Y131.303 E58.10937
G1 X68.972 Y132.246 E58.21928
G1 X68.972 Y133.136 E58.29259
G1 X68.028 Y132.192 E58.40250
G1 X68.028 Y133.082 E58.47580
G1 X68.972 Y134.025 E58.58571
G1 X68.972 Y134.915 E58.65902
G1 X68.028 Y133.972 E58.76893
G1 X68.028 Y134.862 E58.84223
G1 X68.972 Y135.805 E58.95214
G1 X68.972 Y136.695 E59.02545
G1 X68.028 Y135.751 E59.13536
G1 X68.028 Y136.641 E59.20866
G1 X68.972 Y137.584 E59.31858
G1 X68.972 Y138.474 E59.39188
G1 X68.028 Y137.531 E59.50179
G1 X68.028 Y138.420 E59.57509
G1 X68.972 Y139.364 E59.68501
G1 X68.972 Y140.253 E59.75831
G1 X68.028 Y139.310 E59.86822
G1 X68.028 Y140.200 E59.94153
G1 X68.972 Y141.143 E60.05144
G1 X68.972 Y142.033 E60.12474
G1 X68.028 Y141.090 E60.23465
G1 X68.028 Y141.979 E60.30796
G1 X68.972 Y142.923 E60.41787
G1 X68.972 Y143.812 E60.49117
G1 X68.028 Y142.869 E60.60108
G1 X68.028 Y143.759 E60.67439
G1 X68.972 Y144.702 E60.78430
G1 X68.028 Y148.207 F7800.000
G1 X68.313 Y148.492 E60.81752 F600.000
G1 X68.758 Y148.048 E60.86935
G1 X68.028 Y147.318 E60.95440
G1 X68.028 Y146.428 E61.02771
G1 X69.203 Y147.603 E61.16459
G1 X69.648 Y147.158 E61.21642
G1 X68.028 Y145.538 E61.40514
G1 X68.028 Y144.648 E61.47845
G1 X70.093 Y146.713 E61.71900
G1 X70.538 Y146.268 E61.77084
G1 X69.493 Y145.223 E61.89261
G1 X69.937 Y144.778 E61.94445
G1 X70.983 Y145.823 E62.06622
G1 X71.427 Y145.378 E62.11805
G1 X70.382 Y144.333 E62.23983
G1 X70.827 Y143.888 E62.29166
G1 X71.872 Y144.934 E62.41344
G1 X72.317 Y144.489 E62.46527
G1 X71.272 Y143.444 E62.58705
G1 X71.717 Y142.999 E62.63888
G1 X72.762 Y144.044 E62.76066
G1 X73.207 Y143.599 E62.81249
G1 X72.162 Y142.554 E62.93426
G1 X72.607 Y142.109 E62.98610
G1 X73.652 Y143.154 E63.10787
G1 X74.097 Y142.709 E63.15971
G1 X73.051 Y141.664 E63.28148
G1 X73.496 Y141.219 E63.33331
G1 X74.541 Y142.264 E63.45509
G1 X74.986 Y141.820 E63.50692
G1 X73.941 Y140.774 E63.62869
G1 X74.386 Y140.330 E63.68053
G1 X75.431 Y141.375 E63.80230
G1 X75.876 Y140.930 E63.85414
G1 X74.831 Y139.885 E63.97591
G1 X75.276 Y139.440 E64.02774
G1 X76.321 Y140.485 E64.14952
G1 X76.766 Y140.040 E64.20135
G1 X75.721 Y138.995 E64.32312
G1 X76.165 Y138.550 E64.37496
G1 X77.211 Y139.595 E64.49673
G1 X77.655 Y139.150 E64.54856
G1 X76.610 Y138.105 E64.67033
G1 X77.055 Y137.660 E64.72217
G1 X78.100 Y138.706 E64.84394
G1 X78.545 Y138.261 E64.89577
G1 X77.500 Y137.216 E65.01754
G1 X77.945 Y136.771 E65.06938
G1 X78.990 Y137.816 E65.19115
G1 X79.435 Y137.371 E65.24298
G1 X78.390 Y136.326 E65.36475
G1 X78.835 Y135.881 E65.41659
G1 X79.880 Y136.926 E65.53836
G1 X80.325 Y136.481 E65.59019
G1 X79.279 Y135.436 E65.71196
G1 X79.724 Y134.991 E65.76380
G1 X80.769 Y136.036 E65.88557
G1 X81.214 Y135.592 E65.93740
G1 X80.169 Y134.546 E66.05917
G1 X80.614 Y134.102 E66.11101
G1 X81.659 Y135.147 E66.23278
G1 X82.104 Y134.702 E66.28461
G1 X81.059 Y133.657 E66.40638
G1 X81.504 Y133.212 E66.45821
G1 X82.549 Y134.257 E66.57998
G1 X82.994 Y133.812 E66.63182
G1 X81.949 Y132.767 E66.75359
G1 X82.393 Y132.322 E66.80542
G1 X83.439 Y133.367 E66.92719
G1 X83.883 Y132.922 E66.97902
G1 X82.838 Y131.877 E67.10079
G1 X83.283 Y131.433 E67.15263
G1 X84.328 Y132.478 E67.27439
G1 X84.773 Y132.033 E67.32623
G1 X83.728 Y130.988 E67.44800
G1 X84.173 Y130.543 E67.49983
G1 X85.218 Y131.588 E67.62160
G1 X85.663 Y131.143 E67.67343
G1 X84.618 Y130.098 E67.79520
G1 X85.063 Y129.653 E67.84703
G1 X86.108 Y130.698 E67.96880
G1 X86.553 Y130.253 E68.02063
G1 X85.508 Y129.208 E68.14240
G1 X85.952 Y128.763 E68.19424
G1 X86.997 Y129.808 E68.31600
G1 X87.442 Y129.364 E68.36784
G1 X86.397 Y128.319 E68.48960
G1 X86.842 Y127.874 E68.54144
G1 X87.887 Y128.919 E68.66320
G1 X88.332 Y128.474 E68.71504
G1 X87.287 Y127.429 E68.83680
G1 X87.732 Y126.984 E68.88864
G1 X88.777 Y128.029 E69.01040
G1 X89.222 Y127.584 E69.06224
G1 X88.177 Y126.539 E69.18400
G1 X88.622 Y126.094 E69.23584
G1 X89.667 Y127.139 E69.35760
G1 X90.111 Y126.694 E69.40944
G1 X89.066 Y125.649 E69.53120
G1 X89.511 Y125.205 E69.58304
G1 X90.556 Y126.250 E69.70480
G1 X91.001 Y125.805 E69.75664
G1 X89.956 Y124.760 E69.87840
G1 X90.401 Y124.315 E69.93023
G1 X91.446 Y125.360 E70.05200
G1 X91.891 Y124.915 E70.10383
G1 X90.846 Y123.870 E70.22560
G1 X91.291 Y123.425 E70.27743
G1 X92.336 Y124.470 E70.39920
G1 X92.781 Y124.025 E70.45103
G1 X91.736 Y122.980 E70.57279
G1 X92.180 Y122.535 E70.62463
G1 X93.225 Y123.580 E70.74639
G1 X93.670 Y123.136 E70.79823
G1 X92.625 Y122.091 E70.91999
G1 X93.070 Y121.646 E70.97182
G1 X94.115 Y122.691 E71.09359
G1 X94.560 Y122.246 E71.14542
G1 X93.515 Y121.201 E71.26718
G1 X93.960 Y120.756 E71.31902
G1 X95.005 Y121.801 E71.44078
G1 X95.450 Y121.356 E71.49261
G1 X94.405 Y120.311 E71.61438
G1 X94.850 Y119.866 E71.66621
G1 X95.895 Y120.911 E71.78797
G1 X96.339 Y120.466 E71.83981
G1 X95.294 Y119.421 E71.96157
G1 X95.739 Y118.977 E72.01340
G1 X96.784 Y120.022 E72.13516
G1 X97.229 Y119.577 E72.18700
G1 X96.184 Y118.532 E72.30876
G1 X96.629 Y118.087 E72.36059
G1 X97.674 Y119.132 E72.48236
G1 X98.119 Y118.687 E72.53419
G1 X97.074 Y117.642 E72.65595
G1 X97.519 Y117.197 E72.70778
G1 X98.564 Y118.242 E72.82955
G1 X99.009 Y117.797 E72.88138
G1 X97.964 Y116.752 E73.00314
G1 X98.408 Y116.307 E73.05497
G1 X99.453 Y117.352 E73.17673
G1 X99.898 Y116.908 E73.22857
G1 X98.853 Y115.863 E73.35033
G1 X99.298 Y115.418 E73.40216
G1 X100.343 Y116.463 E73.52392
G1 X100.788 Y116.018 E73.57576
G1 X99.743 Y114.973 E73.69752
G1 X100.188 Y114.528 E73.74935
G1 X101.233 Y115.573 E73.87111
G1 X101.678 Y115.128 E73.92294
G1 X100.633 Y114.083 E74.04470
G1 X101.078 Y113.638 E74.09654
G1 X102.123 Y114.683 E74.21830
G1 X102.567 Y114.238 E74.27013
G1 X101.522 Y113.193 E74.39189
G1 X101.967 Y112.749 E74.44372
G1 X103.012 Y113.794 E74.56548
G1 X103.457 Y113.349 E74.61731
G1 X102.412 Y112.304 E74.73907
G1 X102.857 Y111.859 E74.79091
G1 X103.902 Y112.904 E74.91266
G1 X103.972 Y112.084 E74.98047
G1 X102.541 Y110.653 E75.14715
G1 X101.651 Y110.653 E75.22045
G1 X102.595 Y111.597 E75.33036
G1 X101.705 Y111.597 E75.40367
G1 X100.762 Y110.653 E75.51358
G1 X99.872 Y110.653 E75.58688
G1 X100.815 Y111.597 E75.69679
G1 X99.926 Y111.597 E75.77010
G1 X98.982 Y110.653 E75.88001
G1 X98.093 Y110.653 E75.95331
G1 X99.036 Y111.597 E76.06322
G1 X98.146 Y111.597 E76.13653
G1 X97.203 Y110.653 E76.24644
G1 X96.313 Y110.653 E76.31974
G1 X97.256 Y111.597 E76.42965
G1 X96.367 Y111.597 E76.50296
G1 X95.423 Y110.653 E76.61287
G1 X94.534 Y110.653 E76.68617
G1 X95.477 Y111.597 E76.79608
G1 X94.587 Y111.597 E76.86939
G1 X93.644 Y110.653 E76.97930
G1 X92.754 Y110.653 E77.05260
G1 X93.698 Y111.597 E77.16251
G1 X92.808 Y111.597 E77.23582
G1 X91.865 Y110.653 E77.34573
G1 X90.975 Y110.653 E77.41903
G1 X91.918 Y111.597 E77.52894
G1 X91.028 Y111.597 E77.60225
G1 X90.085 Y110.653 E77.71216
G1 X89.195 Y110.653 E77.78546
G1 X90.139 Y111.597 E77.89537
G1 X89.249 Y111.597 E77.96868
G1 X88.306 Y110.653 E78.07859
G1 X87.416 Y110.653 E78.15189
G1 X88.359 Y111.597 E78.26180
G1 X87.470 Y111.597 E78.33511
G1 X86.526 Y110.653 E78.44502
G1 X85.637 Y110.653 E78.51832
G1 X86.580 Y111.597 E78.62823
G1 X85.690 Y111.597 E78.70154
G1 X84.747 Y110.653 E78.81145
G1 X83.857 Y110.653 E78.88475
G1 X84.800 Y111.597 E78.99466
G1 X83.911 Y111.597 E79.06797
G1 X82.967 Y110.653 E79.17788
G1 X82.078 Y110.653 E79.25118
G1 X83.021 Y111.597 E79.36109
G1 X82.131 Y111.597 E79.43440
G1 X81.188 Y110.653 E79.54431
G1 X80.298 Y110.653 E79.61761
G1 X81.242 Y111.597 E79.72752
G1 X80.352 Y111.597 E79.80083
G1 X79.409 Y110.653 E79.91074
G1 X78.519 Y110.653 E79.98404
G1 X79.462 Y111.597 E80.09396
G1 X78.572 Y111.597 E80.16726
G1 X77.629 Y110.653 E80.27717
G1 X76.739 Y110.653 E80.35047
G1 X77.683 Y111.597 E80.46039
G1 X76.793 Y111.597 E80.53369
G1 X75.850 Y110.653 E80.64360
G1 X74.960 Y110.653 E80.71690
G1 X75.903 Y111.597 E80.82682
G1 X75.014 Y111.597 E80.90012
G1 X74.070 Y110.653 E81.01003
G1 X73.181 Y110.653 E81.08333
G1 X74.124 Y111.597 E81.19325
G1 X73.234 Y111.597 E81.26655
G1 X68.028 Y106.391 E81.87313
G1 X68.028 Y105.501 E81.94643
G1 X71.972 Y109.444 E82.40590
G1 X71.972 Y108.555 E82.47920
G1 X68.028 Y104.611 E82.93867
G1 X68.028 Y103.722 E83.01197
G1 X71.972 Y107.665 E83.47144
G1 X71.972 Y106.775 E83.54474
G1 X68.028 Y102.832 E84.00421
G1 X68.028 Y101.942 E84.07751
G1 X71.972 Y105.886 E84.53698
G1 X71.972 Y104.996 E84.61028
G1 X68.028 Y101.053 E85.06975
G1 X68.028 Y100.163 E85.14305
G1 X71.972 Y104.106 E85.60252
G1 X71.972 Y103.216 E85.67582
G1 X68.028 Y99.273 E86.13529
G1 X68.028 Y98.383 E86.20859
G1 X71.972 Y102.327 E86.66806
G1 X71.972 Y101.437 E86.74136
G1 X68.028 Y97.494 E87.20083
G1 X68.028 Y96.604 E87.27414
G1 X71.972 Y100.547 E87.73360
G1 X71.972 Y99.658 E87.80691
G1 X68.028 Y95.714 E88.26637
G1 X68.028 Y94.825 E88.33968
G1 X71.972 Y98.768 E88.79914
G1 X71.972 Y97.878 E88.87245
G1 X68.028 Y93.935 E89.33191
G1 X68.028 Y93.045 E89.40522
G1 X71.972 Y96.988 E89.86468
G1 X71.972 Y96.099 E89.93799
G1 X68.028 Y92.155 E90.39745
G1 X68.028 Y91.266 E90.47076
G1 X71.972 Y95.209 E90.93022
G1 X71.972 Y94.319 E91.00353
G1 X68.028 Y90.376 E91.46299
G1 X68.028 Y89.486 E91.53630
G1 X71.972 Y93.430 E91.99576
G1 X71.972 Y92.540 E92.06907
G1 X68.028 Y88.597 E92.52853
G1 X68.028 Y87.707 E92.60184
G1 X71.972 Y91.650 E93.06131
G1 X71.972 Y90.760 E93.13461
G1 X68.028 Y86.817 E93.59408
G1 X68.028 Y85.927 E93.66738
G1 X71.972 Y89.871 E94.12685
G1 X71.972 Y88.981 E94.20015
G1 X68.028 Y85.038 E94.65962
G1 X68.028 Y84.148 E94.73292
G1 X71.972 Y88.091 E95.19239
G1 X71.972 Y87.202 E95.26569
G1 X68.028 Y83.258 E95.72516
G1 X68.028 Y82.369 E95.79846
G1 X71.972 Y86.312 E96.25793
G1 X71.972 Y85.422 E96.33123
G1 X68.028 Y81.479 E96.79070
G1 X68.028 Y80.589 E96.86400
G1 X71.972 Y84.532 E97.32347
G1 X71.972 Y83.643 E97.39677
G1 X68.028 Y79.699 E97.85624
G1 X68.028 Y78.810 E97.92954
G1 X71.972 Y82.753 E98.38901
G1 X71.972 Y81.863 E98.46231
G1 X68.028 Y77.920 E98.92178
