; generated by Slic3r 1.2.9 on 2017-07-15 at 12:05:58

; external perimeters extrusion width = 0.50mm
; perimeters extrusion width = 0.72mm
; infill extrusion width = 0.72mm
; solid infill extrusion width = 0.72mm
; top infill extrusion width = 0.72mm

M107
M190 S60 ; set bed temperature
M104 S200 ; set temperature
G28 X0 Y0
G28 Z0
G1 Z0.3 F200
G1 X15 Y20 F12000
M109 S200 ; wait for temperature to be reached
G21 ; set units to millimeters
G90 ; use absolute coordinates
M82 ; use absolute distances for extrusion
G92 E0
G1 E-3.20000 F2760.00000
G92 E0
G1 Z0.350 F7800.000
G1 X60.736 Y62.247 F7800.000
G1 E3.20000 F2760.00000
G1 X61.516 Y61.487 E3.28911 F600.000
G1 X63.764 Y60.389 E3.49386
G1 X66.050 Y60.050 E3.68297
G1 X119.950 Y60.050 E8.09396
G1 X122.420 Y60.448 E8.29871
G1 X124.641 Y61.600 E8.50346 F600.000
G1 X125.923 Y62.794 E8.64682
G1 X157.923 Y100.044 E12.66563
G1 X159.231 Y102.176 E12.87038
G1 X159.825 Y105.175 E13.12053
G1 X159.825 Y110.104 E13.52393
G1 X159.427 Y112.574 E13.72868
G1 X157.518 Y115.672 E14.02647
G1 X157.414 Y115.777 E14.03855
G1 X117.618 Y155.573 E18.64430
G1 X115.590 Y157.038 E18.84905
G1 X112.050 Y157.879 E19.14684
G1 X66.050 Y157.879 E22.91133
G1 X63.580 Y157.481 E23.11608
G1 X61.359 Y156.329 E23.32083
G1 X59.612 Y154.538 E23.52558
G1 X58.514 Y152.290 E23.73033
G1 X58.175 Y150.004 E23.91943
G1 X58.175 Y67.925 E30.63653
G1 X58.573 Y65.455 E30.84128
G1 X59.725 Y63.234 E31.04603
G1 X60.683 Y62.300 E31.15553
G1 X61.103 Y62.760 F7800.000
G1 X62.119 Y61.834 E31.26807 F600.000
G1 X64.323 Y60.884 E31.46448
G1 X66.050 Y60.675 E31.60683
G1 X119.950 Y60.675 E36.01783
G1 X122.317 Y61.072 E36.21423
G1 X124.424 Y62.221 E36.41064 F600.000
G1 X125.449 Y63.201 E36.52669
G1 X157.449 Y100.451 E40.54550
G1 X158.690 Y102.505 E40.74190
G1 X159.200 Y105.175 E40.96435
G1 X159.200 Y110.104 E41.36774
G1 X158.803 Y112.471 E41.56415
G1 X157.076 Y115.231 E41.83051
G1 X156.972 Y115.335 E41.84259
G1 X117.176 Y155.131 E46.44833
G1 X115.222 Y156.523 E46.64474
G1 X112.050 Y157.254 E46.91110
G1 X66.050 Y157.254 E50.67559
G1 X63.683 Y156.857 E50.87199
G1 X61.576 Y155.709 E51.06840
G1 X59.959 Y153.935 E51.26480
G1 X59.009 Y151.731 E51.46121
G1 X58.800 Y150.004 E51.60356
G1 X58.800 Y67.925 E58.32065
G1 X59.197 Y65.558 E58.51706
G1 X60.346 Y63.451 E58.71346
G1 X61.047 Y62.811 E58.79119
G1 X61.441 Y63.277 F7800.000
G1 X62.718 Y62.199 E58.92797 F600.000
G1 X64.870 Y61.406 E59.11566
G1 X66.050 Y61.300 E59.21260
G1 X119.950 Y61.300 E63.62359
G1 X122.209 Y61.697 E63.81128
G1 X124.975 Y63.608 E64.08643 F600.000
G1 X156.975 Y100.858 E68.10524
G1 X158.146 Y102.830 E68.29293
G1 X158.575 Y105.175 E68.48801
G1 X158.575 Y110.104 E68.89140
G1 X158.178 Y112.363 E69.07909
G1 X156.635 Y114.789 E69.31437
G1 X156.530 Y114.893 E69.32645
G1 X116.734 Y154.689 E73.93219
G1 X114.856 Y156.005 E74.11988
G1 X112.050 Y156.629 E74.35515
G1 X66.050 Y156.629 E78.11964
G1 X63.791 Y156.232 E78.30733
G1 X61.803 Y155.089 E78.49502
G1 X60.324 Y153.336 E78.68270
G1 X59.531 Y151.184 E78.87039
G1 X59.425 Y150.004 E78.96733
G1 X59.425 Y67.925 E85.68442
G1 X59.822 Y65.666 E85.87211
G1 X60.965 Y63.678 E86.05980
G1 X61.383 Y63.325 E86.10456
G1 E82.90456 F2760.00000
G92 E0
G1 X66.400 Y68.275 F7800.000
G1 E3.20000 F2760.00000
G1 X73.600 Y68.275 E3.78922 F600.000
G1 X73.600 Y105.525 E6.83764
G1 X105.600 Y105.525 E9.45641 F600.000
G1 X105.600 Y109.959 E9.81930
G1 X66.400 Y149.159 E14.35609
G1 X66.400 Y68.350 E20.96925
G1 X66.833 Y68.525 F7800.000
G1 X67.025 Y68.900 F7800.000
G1 X72.975 Y68.900 E21.45620 F600.000
G1 X72.975 Y106.150 E24.50461
G1 X104.975 Y106.150 E27.12338 F600.000
G1 X104.975 Y109.700 E27.41395
G1 X67.025 Y147.651 E31.80610
G1 X67.025 Y68.975 E38.24466
G1 E35.04466 F2760.00000
G92 E0
G1 X85.805 Y127.987 F7800.000
G1 E3.20000 F2760.00000
G1 X67.650 Y146.142 E5.30113 F600.000
G1 X67.650 Y69.525 E11.57124
G1 X72.350 Y69.525 E11.95590
G1 X72.350 Y106.775 E15.00432
G1 X104.350 Y106.775 E17.62309 F600.000
G1 X104.350 Y109.442 E17.84134
G1 X85.858 Y127.934 E19.98157
G1 X83.457 Y125.534 F7800.000
G1 X70.600 Y138.390 E21.46956 F600.000
G1 X70.600 Y109.725 E23.81544
G1 X99.266 Y109.725 E26.16134 F600.000
G1 X83.510 Y125.481 E27.98481
G1 X83.586 Y126.017 F7800.000
G1 X83.952 Y125.922 F7800.000
G1 X69.975 Y139.899 E29.60239 F600.000
G1 X69.975 Y109.100 E32.12287
G1 X100.774 Y109.100 E34.64338 F600.000
G1 X84.005 Y125.869 E36.58417
G1 X84.447 Y126.311 F7800.000
G1 X69.350 Y141.408 E38.33135 F600.000
G1 X69.350 Y108.475 E41.02643
G1 X102.283 Y108.475 E43.72153 F600.000
G1 X84.500 Y126.258 E45.77964
G1 E42.57964 F2760.00000
G92 E0
G1 X74.204 Y108.097 F7800.000
G1 E3.20000 F2760.00000
G1 X73.261 Y107.153 E3.31012 F600.000
G1 X74.152 Y107.153 E3.38370
G1 X75.096 Y108.097 E3.49382
G1 X75.987 Y108.097 E3.56740
G1 X75.044 Y107.153 E3.67751
G1 X75.935 Y107.153 E3.75109
G1 X76.878 Y108.097 E3.86121
G1 X77.770 Y108.097 E3.93479
G1 X76.827 Y107.153 E4.04491
G1 X77.718 Y107.153 E4.11849
G1 X78.661 Y108.097 E4.22861
G1 X79.553 Y108.097 E4.30219
G1 X78.609 Y107.153 E4.41231
G1 X79.501 Y107.153 E4.48589
G1 X80.444 Y108.097 E4.59600
G1 X81.335 Y108.097 E4.66958
G1 X80.392 Y107.153 E4.77970
G1 X81.284 Y107.153 E4.85328
G1 X82.227 Y108.097 E4.96340
G1 X83.118 Y108.097 E5.03698
G1 X82.175 Y107.153 E5.14710
G1 X83.066 Y107.153 E5.22068
G1 X84.010 Y108.097 E5.33080
G1 X84.901 Y108.097 E5.40438
G1 X83.958 Y107.153 E5.51449
G1 X84.849 Y107.153 E5.58808
G1 X85.792 Y108.097 E5.69819
G1 X86.684 Y108.097 E5.77177
G1 X85.740 Y107.153 E5.88189
G1 X86.632 Y107.153 E5.95547
G1 X87.575 Y108.097 E6.06559
G1 X88.467 Y108.097 E6.13917
G1 X87.523 Y107.153 E6.24929
G1 X88.415 Y107.153 E6.32287
G1 X89.358 Y108.097 E6.43299
G1 X90.249 Y108.097 E6.50657
G1 X89.306 Y107.153 E6.61668
G1 X90.197 Y107.153 E6.69026
G1 X91.141 Y108.097 E6.80038
G1 X92.032 Y108.097 E6.87396
G1 X91.089 Y107.153 E6.98408
G1 X91.980 Y107.153 E7.05766
G1 X92.923 Y108.097 E7.16778
G1 X93.815 Y108.097 E7.24136
G1 X92.872 Y107.153 E7.35148
G1 X93.763 Y107.153 E7.42506
G1 X94.706 Y108.097 E7.53518
G1 X95.598 Y108.097 E7.60876
G1 X94.654 Y107.153 E7.71887
G1 X95.546 Y107.153 E7.79245
G1 X96.489 Y108.097 E7.90257
G1 X97.380 Y108.097 E7.97615
G1 X96.437 Y107.153 E8.08627
G1 X97.328 Y107.153 E8.15985
G1 X98.272 Y108.097 E8.26997
G1 X99.163 Y108.097 E8.34355
G1 X98.220 Y107.153 E8.45367
G1 X99.111 Y107.153 E8.52725
G1 X100.055 Y108.097 E8.63736
G1 X100.946 Y108.097 E8.71095
G1 X100.003 Y107.153 E8.82106
G1 X100.894 Y107.153 E8.89464
G1 X101.837 Y108.097 E9.00476
G1 X103.568 Y107.153 F7800.000
G1 X103.972 Y107.557 E9.05186 F600.000
G1 X103.972 Y108.448 E9.12544
G1 X102.677 Y107.153 E9.27659
G1 X101.785 Y107.153 E9.35017
G1 X103.969 Y109.337 E9.60508
G1 X103.523 Y109.783 E9.65710
G1 X102.478 Y108.738 E9.77909
G1 X102.033 Y109.183 E9.83112
G1 X103.078 Y110.228 E9.95311
G1 X102.632 Y110.674 E10.00514
G1 X101.587 Y109.629 E10.12713
G1 X101.141 Y110.075 E10.17915
G1 X102.186 Y111.120 E10.30114
G1 X101.740 Y111.565 E10.35317
G1 X100.696 Y110.520 E10.47516
G1 X100.250 Y110.966 E10.52719
G1 X101.295 Y112.011 E10.64918
G1 X100.849 Y112.457 E10.70121
G1 X99.804 Y111.412 E10.82320
G1 X99.358 Y111.857 E10.87523
G1 X100.403 Y112.902 E10.99721
G1 X99.958 Y113.348 E11.04924
G1 X98.913 Y112.303 E11.17123
G1 X98.467 Y112.749 E11.22326
G1 X99.512 Y113.794 E11.34525
G1 X99.066 Y114.240 E11.39728
G1 X98.021 Y113.195 E11.51927
G1 X97.576 Y113.640 E11.57130
G1 X98.621 Y114.685 E11.69329
G1 X98.175 Y115.131 E11.74532
G1 X97.130 Y114.086 E11.86731
G1 X96.684 Y114.532 E11.91934
G1 X97.729 Y115.577 E12.04133
G1 X97.284 Y116.022 E12.09336
G1 X96.239 Y114.977 E12.21535
G1 X95.793 Y115.423 E12.26738
G1 X96.838 Y116.468 E12.38937
G1 X96.392 Y116.914 E12.44140
G1 X95.347 Y115.869 E12.56339
G1 X94.901 Y116.314 E12.61542
G1 X95.946 Y117.359 E12.73741
G1 X95.501 Y117.805 E12.78944
G1 X94.456 Y116.760 E12.91143
G1 X94.010 Y117.206 E12.96346
G1 X95.055 Y118.251 E13.08545
G1 X94.609 Y118.696 E13.13748
G1 X93.564 Y117.651 E13.25947
G1 X93.119 Y118.097 E13.31150
G1 X94.164 Y119.142 E13.43349
G1 X93.718 Y119.588 E13.48552
G1 X92.673 Y118.543 E13.60752
G1 X92.227 Y118.989 E13.65955
G1 X93.272 Y120.034 E13.78154
G1 X92.827 Y120.479 E13.83357
G1 X91.782 Y119.434 E13.95556
G1 X91.336 Y119.880 E14.00759
G1 X92.381 Y120.925 E14.12958
G1 X91.935 Y121.371 E14.18161
G1 X90.890 Y120.326 E14.30361
G1 X90.445 Y120.771 E14.35564
G1 X91.490 Y121.816 E14.47763
G1 X91.044 Y122.262 E14.52966
G1 X89.999 Y121.217 E14.65165
G1 X89.553 Y121.663 E14.70368
G1 X90.598 Y122.708 E14.82568
G1 X90.152 Y123.153 E14.87771
G1 X89.107 Y122.108 E14.99970
G1 X88.662 Y122.554 E15.05173
G1 X89.707 Y123.599 E15.17372
G1 X89.261 Y124.045 E15.22575
G1 X88.216 Y123.000 E15.34775
G1 X87.770 Y123.445 E15.39978
G1 X88.815 Y124.490 E15.52177
G1 X88.370 Y124.936 E15.57380
G1 X87.325 Y123.891 E15.69580
G1 X86.879 Y124.337 E15.74783
G1 X87.924 Y125.382 E15.86982
G1 X87.478 Y125.828 E15.92185
G1 X86.433 Y124.783 E16.04385
G1 X85.988 Y125.228 E16.09588
G1 X87.033 Y126.273 E16.21787
G1 X86.587 Y126.719 E16.26990
G1 X85.542 Y125.674 E16.39190
G1 X85.096 Y126.120 E16.44393
G1 X86.141 Y127.165 E16.56592
G1 X85.696 Y127.610 E16.61795
G1 X84.650 Y126.565 E16.73995
G1 X84.205 Y127.011 E16.79198
G1 X85.250 Y128.056 E16.91398
G1 X84.804 Y128.502 E16.96601
G1 X83.759 Y127.457 E17.08800
G1 X83.313 Y127.902 E17.14003
G1 X84.358 Y128.947 E17.26203
G1 X83.913 Y129.393 E17.31406
G1 X82.868 Y128.348 E17.43606
G1 X82.422 Y128.794 E17.48809
G1 X83.467 Y129.839 E17.61008
G1 X83.021 Y130.284 E17.66211
G1 X81.976 Y129.239 E17.78411
G1 X81.531 Y129.685 E17.83614
G1 X82.576 Y130.730 E17.95814
G1 X82.130 Y131.176 E18.01017
G1 X81.085 Y130.131 E18.13217
G1 X80.639 Y130.577 E18.18420
G1 X81.684 Y131.622 E18.30619
G1 X81.239 Y132.067 E18.35822
G1 X80.193 Y131.022 E18.48022
G1 X79.748 Y131.468 E18.53225
G1 X80.793 Y132.513 E18.65425
G1 X80.347 Y132.959 E18.70628
G1 X79.302 Y131.914 E18.82828
G1 X78.856 Y132.359 E18.88031
G1 X79.901 Y133.404 E19.00231
G1 X79.456 Y133.850 E19.05434
G1 X78.411 Y132.805 E19.17634
G1 X77.965 Y133.251 E19.22837
G1 X79.010 Y134.296 E19.35037
G1 X78.564 Y134.741 E19.40240
G1 X77.519 Y133.696 E19.52440
G1 X77.074 Y134.142 E19.57643
G1 X78.119 Y135.187 E19.69843
G1 X77.673 Y135.633 E19.75046
G1 X76.628 Y134.588 E19.87246
G1 X76.182 Y135.033 E19.92449
G1 X77.227 Y136.079 E20.04649
G1 X76.782 Y136.524 E20.09852
G1 X75.737 Y135.479 E20.22052
G1 X75.291 Y135.925 E20.27255
G1 X76.336 Y136.970 E20.39455
G1 X75.890 Y137.416 E20.44658
G1 X74.845 Y136.370 E20.56858
G1 X74.399 Y136.816 E20.62061
G1 X75.445 Y137.861 E20.74261
G1 X74.999 Y138.307 E20.79464
G1 X73.954 Y137.262 E20.91665
G1 X73.508 Y137.708 E20.96868
G1 X74.553 Y138.753 E21.09068
G1 X74.107 Y139.198 E21.14271
G1 X73.062 Y138.153 E21.26471
G1 X72.617 Y138.599 E21.31674
G1 X73.662 Y139.644 E21.43874
G1 X73.216 Y140.090 E21.49077
G1 X72.171 Y139.045 E21.61278
G1 X71.725 Y139.490 E21.66480
G1 X72.770 Y140.535 E21.78681
G1 X72.325 Y140.981 E21.83884
G1 X71.280 Y139.936 E21.96084
G1 X70.834 Y140.382 E22.01287
G1 X71.879 Y141.427 E22.13487
G1 X71.433 Y141.873 E22.18690
G1 X70.388 Y140.827 E22.30891
G1 X69.942 Y141.273 E22.36094
G1 X70.988 Y142.318 E22.48294
G1 X69.497 Y141.719 F7800.000
G1 X70.542 Y142.764 E22.60495 F600.000
G1 X70.096 Y143.210 E22.65698
G1 X68.028 Y141.142 E22.89837
G1 X68.028 Y142.033 E22.97195
G1 X69.651 Y143.655 E23.16132
G1 X69.205 Y144.101 E23.21335
G1 X68.028 Y142.925 E23.35069
G1 X68.028 Y143.816 E23.42427
G1 X68.759 Y144.547 E23.50958
G1 X68.313 Y144.992 E23.56161
G1 X68.028 Y144.707 E23.59490
G1 X68.972 Y141.194 F7800.000
G1 X68.028 Y140.250 E23.70501 F600.000
G1 X68.028 Y139.359 E23.77859
G1 X68.972 Y140.302 E23.88871
G1 X68.972 Y139.411 E23.96229
G1 X68.028 Y138.468 E24.07241
G1 X68.028 Y137.576 E24.14599
G1 X68.972 Y138.519 E24.25611
G1 X68.972 Y137.628 E24.32969
G1 X68.028 Y136.685 E24.43981
G1 X68.028 Y135.793 E24.51339
G1 X68.972 Y136.737 E24.62351
G1 X68.972 Y135.845 E24.69709
G1 X68.028 Y134.902 E24.80720
G1 X68.028 Y134.011 E24.88078
G1 X68.972 Y134.954 E24.99090
G1 X68.972 Y134.063 E25.06448
G1 X68.028 Y133.119 E25.17460
G1 X68.028 Y132.228 E25.24818
G1 X68.972 Y133.171 E25.35830
G1 X68.972 Y132.280 E25.43188
G1 X68.028 Y131.336 E25.54200
G1 X68.028 Y130.445 E25.61558
G1 X68.972 Y131.388 E25.72570
G1 X68.972 Y130.497 E25.79928
G1 X68.028 Y129.554 E25.90939
G1 X68.028 Y128.662 E25.98297
G1 X68.972 Y129.606 E26.09309
G1 X68.972 Y128.714 E26.16667
G1 X68.028 Y127.771 E26.27679
G1 X68.028 Y126.880 E26.35037
G1 X68.972 Y127.823 E26.46049
G1 X68.972 Y126.931 E26.53407
G1 X68.028 Y125.988 E26.64419
G1 X68.028 Y125.097 E26.71777
G1 X68.972 Y126.040 E26.82788
G1 X68.972 Y125.149 E26.90147
G1 X68.028 Y124.205 E27.01158
G1 X68.028 Y123.314 E27.08516
G1 X68.972 Y124.257 E27.19528
G1 X68.972 Y123.366 E27.26886
G1 X68.028 Y122.423 E27.37898
G1 X68.028 Y121.531 E27.45256
G1 X68.972 Y122.475 E27.56268
G1 X68.972 Y121.583 E27.63626
G1 X68.028 Y120.640 E27.74638
G1 X68.028 Y119.748 E27.81996
G1 X68.972 Y120.692 E27.93007
G1 X68.972 Y119.800 E28.00365
G1 X68.028 Y118.857 E28.11377
G1 X68.028 Y117.966 E28.18735
G1 X68.972 Y118.909 E28.29747
G1 X68.972 Y118.018 E28.37105
G1 X68.028 Y117.074 E28.48117
G1 X68.028 Y116.183 E28.55475
G1 X68.972 Y117.126 E28.66487
G1 X68.972 Y116.235 E28.73845
G1 X68.028 Y115.291 E28.84856
G1 X68.028 Y114.400 E28.92214
G1 X68.972 Y115.343 E29.03226
G1 X68.972 Y114.452 E29.10584
G1 X68.028 Y113.509 E29.21596
G1 X68.028 Y112.617 E29.28954
G1 X68.972 Y113.561 E29.39966
G1 X68.972 Y112.669 E29.47324
G1 X68.028 Y111.726 E29.58336
G1 X68.028 Y110.835 E29.65694
G1 X68.972 Y111.778 E29.76705
G1 X68.972 Y110.886 E29.84063
G1 X68.028 Y109.943 E29.95075
G1 X68.028 Y109.052 E30.02433
G1 X68.972 Y109.995 E30.13445
G1 X68.972 Y109.104 E30.20803
G1 X68.028 Y108.160 E30.31815
G1 X68.028 Y107.269 E30.39173
G1 X68.972 Y108.212 E30.50185
G1 X69.747 Y108.097 E30.56659
G1 X68.028 Y106.378 E30.76726
G1 X68.028 Y105.486 E30.84084
G1 X70.639 Y108.097 E31.14557
G1 X71.530 Y108.097 E31.21916
G1 X68.028 Y104.595 E31.62795
G1 X68.028 Y103.703 E31.70153
G1 X72.422 Y108.097 E32.21438
G1 X73.313 Y108.097 E32.28796
G1 X72.370 Y107.153 E32.39808
G1 X71.972 Y106.755 F7800.000
G1 X68.028 Y102.812 E32.85841 F600.000
G1 X68.028 Y101.921 E32.93199
G1 X71.972 Y105.864 E33.39232
G1 X71.972 Y104.973 E33.46590
G1 X68.028 Y101.029 E33.92623
G1 X68.028 Y100.138 E33.99981
G1 X71.972 Y104.081 E34.46014
G1 X71.972 Y103.190 E34.53372
G1 X68.028 Y99.247 E34.99405
G1 X68.028 Y98.355 E35.06763
G1 X71.972 Y102.298 E35.52796
G1 X71.972 Y101.407 E35.60154
G1 X68.028 Y97.464 E36.06187
G1 X68.028 Y96.572 E36.13545
G1 X71.972 Y100.516 E36.59579
G1 X71.972 Y99.624 E36.66937
G1 X68.028 Y95.681 E37.12970
G1 X68.028 Y94.790 E37.20328
G1 X71.972 Y98.733 E37.66361
G1 X71.972 Y97.841 E37.73719
G1 X68.028 Y93.898 E38.19752
G1 X68.028 Y93.007 E38.27110
G1 X71.972 Y96.950 E38.73143
G1 X71.972 Y96.059 E38.80501
G1 X68.028 Y92.115 E39.26534
G1 X68.028 Y91.224 E39.33892
G1 X71.972 Y95.167 E39.79925
G1 X71.972 Y94.276 E39.87283
G1 X68.028 Y90.333 E40.33316
G1 X68.028 Y89.441 E40.40674
G1 X71.972 Y93.385 E40.86708
G1 X71.972 Y92.493 E40.94066
G1 X68.028 Y88.550 E41.40099
G1 X68.028 Y87.658 E41.47457
G1 X71.972 Y91.602 E41.93490
G1 X71.972 Y90.710 E42.00848
G1 X68.028 Y86.767 E42.46881
G1 X68.028 Y85.876 E42.54239
G1 X71.972 Y89.819 E43.00272
G1 X71.972 Y88.928 E43.07630
G1 X68.028 Y84.984 E43.53663
G1 X68.028 Y84.093 E43.61021
G1 X71.972 Y88.036 E44.07054
G1 X71.972 Y87.145 E44.14412
G1 X68.028 Y83.202 E44.60445
G1 X68.028 Y82.310 E44.67803
G1 X71.972 Y86.253 E45.13836
G1 X71.972 Y85.362 E45.21195
G1 X68.028 Y81.419 E45.67228
G1 X68.028 Y80.527 E45.74586
G1 X71.972 Y84.471 E46.20619
G1 X71.972 Y83.579 E46.27977
G1 X68.028 Y79.636 E46.74010
G1 X68.028 Y78.745 E46.81368
G1 X71.972 Y82.688 E47.27401
G1 X71.972 Y81.797 E47.34759
G1 X68.028 Y77.853 E47.80792
G1 X68.028 Y76.962 E47.88150
G1 X71.972 Y80.905 E48.34183
G1 X71.972 Y80.014 E48.41541
G1 X68.028 Y76.070 E48.87574
G1 X68.028 Y75.179 E48.94932
G1 X71.972 Y79.122 E49.40966
G1 X71.972 Y78.231 E49.48324
G1 X68.028 Y74.288 E49.94357
