; generated by Slic3r 1.3.0 on 2020-01-14 at 20:27:30

; external perimeters extrusion width = 0.55mm (4.37mm^3/s)
; perimeters extrusion width = 0.70mm (11.44mm^3/s)
; infill extrusion width = 0.63mm (10.09mm^3/s)
; solid infill extrusion width = 0.70mm (3.81mm^3/s)
; top infill extrusion width = 0.70mm (2.86mm^3/s)

M107
M190 S75 ; set bed temperature and wait for it to be reached
M104 S205 ; set temperature
G28 ; home all axes
G1 Z5 F5000 ; lift nozzle

; Filament gcode

M109 S205 ; set temperature and wait for it to be reached
G21 ; set units to millimeters
G90 ; use absolute coordinates
M82 ; use absolute distances for extrusion
G92 E0
G1 Z0.350 F7800.000
G1 E-2.00000 F2400.00000
G92 E0
G1 X65.466 Y73.562 F7800.000
G1 E2.00000 F2400.00000
G1 F1800
G1 X67.714 Y72.464 E2.22750
G1 X70.000 Y72.125 E2.43762
G1 X130.000 Y72.125 E7.89339
G1 X132.470 Y72.523 E8.12089
G1 X134.691 Y73.675 E8.34839
G1 X136.438 Y75.466 E8.57590
G1 X137.536 Y77.714 E8.80340
G1 X137.875 Y80.000 E9.01351
G1 X137.875 Y120.000 E12.65070
G1 X137.477 Y122.470 E12.87820
G1 X136.325 Y124.691 E13.10570
G1 X134.534 Y126.438 E13.33320
G1 X132.286 Y127.536 E13.56070
G1 X130.000 Y127.875 E13.77082
G1 X70.000 Y127.875 E19.22659
G1 X67.530 Y127.477 E19.45409
G1 X65.309 Y126.325 E19.68159
G1 X63.562 Y124.534 E19.90909
G1 X62.464 Y122.286 E20.13659
G1 X62.125 Y120.000 E20.34671
G1 X62.125 Y80.000 E23.98389
G1 X62.523 Y77.530 E24.21140
G1 X63.675 Y75.309 E24.43890
G1 X65.412 Y73.614 E24.65958
G1 X66.069 Y73.909 F7800.000
G1 F1800
G1 X68.273 Y72.959 E24.87781
G1 X70.000 Y72.750 E25.03598
G1 X130.000 Y72.750 E30.49175
G1 X132.367 Y73.147 E30.70998
G1 X134.474 Y74.296 E30.92821
G1 X136.091 Y76.069 E31.14643
G1 X137.041 Y78.273 E31.36466
G1 X137.250 Y80.000 E31.52283
G1 X137.250 Y120.000 E35.16002
G1 X136.853 Y122.367 E35.37824
G1 X135.704 Y124.474 E35.59647
G1 X133.931 Y126.091 E35.81470
G1 X131.727 Y127.041 E36.03293
G1 X130.000 Y127.250 E36.19110
G1 X70.000 Y127.250 E41.64687
G1 X67.633 Y126.853 E41.86510
G1 X65.526 Y125.704 E42.08333
G1 X63.909 Y123.931 E42.30155
G1 X62.959 Y121.727 E42.51978
G1 X62.750 Y120.000 E42.67795
G1 X62.750 Y80.000 E46.31514
G1 X63.147 Y77.633 E46.53336
G1 X64.296 Y75.526 E46.75159
G1 X66.014 Y73.959 E46.96300
G1 X66.668 Y74.274 F7800.000
G1 F1800
G1 X68.820 Y73.481 E47.17154
G1 X70.000 Y73.375 E47.27925
G1 X130.000 Y73.375 E52.73503
G1 X132.259 Y73.772 E52.94357
G1 X134.247 Y74.915 E53.15211
G1 X135.726 Y76.668 E53.36065
G1 X136.519 Y78.820 E53.56920
G1 X136.625 Y80.000 E53.67690
G1 X136.625 Y120.000 E57.31409
G1 X136.228 Y122.259 E57.52263
G1 X135.085 Y124.247 E57.73117
G1 X133.332 Y125.726 E57.93971
G1 X131.180 Y126.519 E58.14826
G1 X130.000 Y126.625 E58.25597
G1 X70.000 Y126.625 E63.71174
G1 X67.741 Y126.228 E63.92028
G1 X65.753 Y125.085 E64.12883
G1 X64.274 Y123.332 E64.33737
G1 X63.481 Y121.180 E64.54591
G1 X63.375 Y120.000 E64.65362
G1 X63.375 Y80.000 E68.29080
G1 X63.772 Y77.741 E68.49934
G1 X64.915 Y75.753 E68.70789
G1 X66.611 Y74.322 E68.90961
G1 E66.90961 F2400.00000
G92 E0
G1 X121.901 Y116.734 F7800.000
G1 E2.00000 F2400.00000
G1 F1800
G1 X121.553 Y116.859 E2.03371
G1 X120.957 Y117.012 E2.08965
G1 X120.358 Y117.088 E2.14450
G1 X120.002 Y117.101 E2.17690
G1 X119.655 Y117.090 E2.20853
G1 X119.044 Y117.013 E2.26450
G1 X118.423 Y116.853 E2.32278
G1 X117.851 Y116.627 E2.37875
G1 X117.521 Y116.458 E2.41245
G1 X117.000 Y116.128 E2.46845
G1 X116.526 Y115.736 E2.52443
G1 X116.264 Y115.474 E2.55814
G1 X115.888 Y115.019 E2.61184
G1 X115.692 Y114.731 E2.64345
G1 X115.512 Y114.424 E2.67584
G1 X115.266 Y113.901 E2.72841
G1 X115.141 Y113.553 E2.76206
G1 X114.987 Y112.956 E2.81805
G1 X114.910 Y112.345 E2.87402
G1 X114.899 Y111.998 E2.90565
G1 X114.912 Y111.642 E2.93806
G1 X114.988 Y111.043 E2.99290
G1 X115.141 Y110.447 E3.04885
G1 X115.266 Y110.099 E3.08255
G1 X115.518 Y109.564 E3.13624
G1 X115.694 Y109.267 E3.16766
G1 X115.888 Y108.981 E3.19906
G1 X116.264 Y108.526 E3.25277
G1 X116.526 Y108.264 E3.28647
G1 X117.000 Y107.872 E3.34246
G1 X117.521 Y107.542 E3.39846
G1 X117.851 Y107.373 E3.43216
G1 X118.400 Y107.156 E3.48585
G1 X118.756 Y107.053 E3.51956
G1 X119.360 Y106.937 E3.57547
G1 X119.962 Y106.899 E3.63033
G1 X120.343 Y106.910 E3.66502
G1 X120.956 Y106.987 E3.72120
G1 X121.553 Y107.141 E3.77719
G1 X121.901 Y107.266 E3.81090
G1 X122.436 Y107.518 E3.86458
G1 X122.755 Y107.706 E3.89830
G1 X123.232 Y108.053 E3.95198
G1 X123.510 Y108.298 E3.98569
G1 X123.915 Y108.729 E4.03938
G1 X124.142 Y109.022 E4.07310
G1 X124.458 Y109.520 E4.12679
G1 X124.627 Y109.851 E4.16050
G1 X124.853 Y110.423 E4.21647
G1 X125.013 Y111.044 E4.27475
G1 X125.090 Y111.655 E4.33072
G1 X125.088 Y112.358 E4.39471
G1 X125.012 Y112.957 E4.44956
G1 X124.853 Y113.577 E4.50779
G1 X124.627 Y114.149 E4.56376
G1 X124.458 Y114.480 E4.59747
G1 X124.141 Y114.980 E4.65135
G1 X123.906 Y115.281 E4.68605
G1 X123.493 Y115.720 E4.74091
G1 X123.019 Y116.112 E4.79685
G1 X122.436 Y116.482 E4.85965
G1 X121.969 Y116.702 E4.90651
G1 X121.662 Y116.156 F7800.000
G1 F1800
G1 X121.369 Y116.262 E4.93486
G1 X120.839 Y116.397 E4.98456
G1 X120.308 Y116.465 E5.03324
G1 X120.001 Y116.475 E5.06115
G1 X119.704 Y116.466 E5.08824
G1 X119.161 Y116.398 E5.13795
G1 X118.617 Y116.258 E5.18908
G1 X118.108 Y116.056 E5.23880
G1 X117.830 Y115.915 E5.26714
G1 X117.369 Y115.622 E5.31688
G1 X116.947 Y115.273 E5.36661
G1 X116.727 Y115.053 E5.39496
G1 X116.388 Y114.643 E5.44330
G1 X116.221 Y114.397 E5.47037
G1 X116.065 Y114.132 E5.49828
G1 X115.844 Y113.662 E5.54556
G1 X115.738 Y113.369 E5.57388
G1 X115.602 Y112.839 E5.62361
G1 X115.534 Y112.296 E5.67333
G1 X115.525 Y111.999 E5.70042
G1 X115.535 Y111.692 E5.72833
G1 X115.603 Y111.161 E5.77701
G1 X115.738 Y110.631 E5.82671
G1 X115.844 Y110.338 E5.85506
G1 X116.070 Y109.857 E5.90338
G1 X116.221 Y109.602 E5.93034
G1 X116.388 Y109.357 E5.95729
G1 X116.727 Y108.947 E6.00563
G1 X116.947 Y108.727 E6.03398
G1 X117.369 Y108.378 E6.08370
G1 X117.830 Y108.085 E6.13344
G1 X118.108 Y107.944 E6.16179
G1 X118.602 Y107.748 E6.21012
G1 X118.902 Y107.661 E6.23847
G1 X119.438 Y107.559 E6.28815
G1 X119.973 Y107.525 E6.33684
G1 X120.295 Y107.534 E6.36615
G1 X120.839 Y107.602 E6.41599
G1 X121.369 Y107.738 E6.46573
G1 X121.662 Y107.844 E6.49407
G1 X122.143 Y108.070 E6.54240
G1 X122.411 Y108.229 E6.57076
G1 X122.841 Y108.542 E6.61908
G1 X123.075 Y108.748 E6.64743
G1 X123.439 Y109.135 E6.69576
G1 X123.630 Y109.382 E6.72412
G1 X123.915 Y109.830 E6.77245
G1 X124.056 Y110.108 E6.80080
G1 X124.258 Y110.617 E6.85052
G1 X124.398 Y111.161 E6.90164
G1 X124.466 Y111.704 E6.95136
G1 X124.465 Y112.308 E7.00633
G1 X124.397 Y112.839 E7.05501
G1 X124.258 Y113.383 E7.10610
G1 X124.056 Y113.892 E7.15582
G1 X123.915 Y114.170 E7.18417
G1 X123.629 Y114.620 E7.23262
G1 X123.431 Y114.874 E7.26193
G1 X123.064 Y115.264 E7.31062
G1 X122.643 Y115.612 E7.36032
G1 X122.143 Y115.930 E7.41420
G1 X121.730 Y116.124 E7.45570
G1 X121.423 Y115.578 F7800.000
G1 F1800
G1 X121.185 Y115.664 E7.47869
G1 X120.722 Y115.782 E7.52216
G1 X120.258 Y115.841 E7.56466
G1 X120.000 Y115.850 E7.58808
G1 X119.753 Y115.842 E7.61063
G1 X119.278 Y115.782 E7.65409
G1 X118.810 Y115.662 E7.69807
G1 X118.366 Y115.486 E7.74153
G1 X118.140 Y115.371 E7.76452
G1 X117.737 Y115.115 E7.80800
G1 X117.368 Y114.811 E7.85147
G1 X117.189 Y114.632 E7.87447
G1 X116.888 Y114.268 E7.91744
G1 X116.749 Y114.063 E7.93997
G1 X116.618 Y113.840 E7.96340
G1 X116.422 Y113.422 E8.00540
G1 X116.336 Y113.185 E8.02838
G1 X116.218 Y112.722 E8.07185
G1 X116.158 Y112.247 E8.11532
G1 X116.150 Y112.000 E8.13786
G1 X116.159 Y111.742 E8.16129
G1 X116.218 Y111.278 E8.20379
G1 X116.336 Y110.815 E8.24725
G1 X116.422 Y110.577 E8.27024
G1 X116.623 Y110.150 E8.31321
G1 X116.749 Y109.937 E8.33571
G1 X116.888 Y109.732 E8.35819
G1 X117.189 Y109.368 E8.40117
G1 X117.368 Y109.189 E8.42416
G1 X117.737 Y108.885 E8.46763
G1 X118.140 Y108.629 E8.51111
G1 X118.366 Y108.514 E8.53410
G1 X118.805 Y108.340 E8.57706
G1 X119.048 Y108.269 E8.60006
G1 X119.517 Y108.180 E8.64351
G1 X119.984 Y108.150 E8.68602
G1 X120.247 Y108.158 E8.70995
G1 X120.722 Y108.218 E8.75346
G1 X121.185 Y108.336 E8.79694
G1 X121.423 Y108.422 E8.81993
G1 X121.850 Y108.623 E8.86289
G1 X122.068 Y108.752 E8.88589
G1 X122.450 Y109.030 E8.92886
G1 X122.640 Y109.197 E8.95185
G1 X122.963 Y109.541 E8.99482
G1 X123.118 Y109.741 E9.01782
G1 X123.371 Y110.140 E9.06079
G1 X123.486 Y110.366 E9.08378
G1 X123.662 Y110.810 E9.12725
G1 X123.782 Y111.278 E9.17122
G1 X123.842 Y111.753 E9.21469
G1 X123.841 Y112.258 E9.26063
G1 X123.782 Y112.722 E9.30313
G1 X123.662 Y113.190 E9.34710
G1 X123.486 Y113.634 E9.39056
G1 X123.371 Y113.860 E9.41355
G1 X123.118 Y114.259 E9.45656
G1 X122.956 Y114.467 E9.48050
G1 X122.636 Y114.807 E9.52300
G1 X122.268 Y115.112 E9.56647
G1 X121.850 Y115.377 E9.61143
G1 X121.490 Y115.546 E9.64757
G1 X121.423 Y115.578 F7800.000
G1 E7.64757 F2400.00000
G92 E0
G1 X120.025 Y95.105 F7800.000
G1 E2.00000 F2400.00000
G1 F1800
G1 X119.486 Y95.071 E2.04914
G1 X118.955 Y94.969 E2.09829
G1 X118.251 Y94.716 E2.16629
G1 X117.586 Y94.323 E2.23658
G1 X117.006 Y93.811 E2.30686
G1 X116.532 Y93.201 E2.37715
G1 X116.182 Y92.512 E2.44744
G1 X115.966 Y91.770 E2.51771
G1 X115.893 Y91.000 E2.58801
G1 X115.966 Y90.230 E2.65831
G1 X116.182 Y89.488 E2.72859
G1 X116.532 Y88.799 E2.79887
G1 X117.006 Y88.189 E2.86916
G1 X117.586 Y87.677 E2.93945
G1 X118.251 Y87.284 E3.00974
G1 X118.955 Y87.031 E3.07772
G1 X119.485 Y86.929 E3.12683
G1 X120.019 Y86.896 E3.17543
G1 X120.769 Y86.966 E3.24391
G1 X121.512 Y87.181 E3.31429
G1 X122.201 Y87.532 E3.38457
G1 X122.811 Y88.006 E3.45487
G1 X123.323 Y88.587 E3.52524
G1 X123.706 Y89.236 E3.59373
G1 X123.902 Y89.733 E3.64233
G1 X124.037 Y90.255 E3.69141
G1 X124.105 Y90.975 E3.75711
G1 X124.071 Y91.514 E3.80625
G1 X123.969 Y92.045 E3.85540
G1 X123.716 Y92.749 E3.92339
G1 X123.323 Y93.414 E3.99369
G1 X122.811 Y93.994 E4.06396
G1 X122.201 Y94.468 E4.13426
G1 X121.512 Y94.818 E4.20454
G1 X120.770 Y95.034 E4.27482
G1 X120.100 Y95.097 E4.33599
G1 X120.015 Y94.478 F7800.000
G1 F1800
G1 X119.564 Y94.449 E4.37709
G1 X119.120 Y94.365 E4.41819
G1 X118.519 Y94.148 E4.47634
G1 X117.955 Y93.815 E4.53589
G1 X117.464 Y93.382 E4.59542
G1 X117.062 Y92.864 E4.65498
G1 X116.765 Y92.281 E4.71452
G1 X116.582 Y91.652 E4.77406
G1 X116.521 Y91.000 E4.83361
G1 X116.582 Y90.348 E4.89316
G1 X116.765 Y89.719 E4.95270
G1 X117.062 Y89.136 E5.01224
G1 X117.464 Y88.618 E5.07179
G1 X117.955 Y88.185 E5.13133
G1 X118.519 Y87.852 E5.19089
G1 X119.120 Y87.635 E5.24902
G1 X119.564 Y87.551 E5.29010
G1 X120.009 Y87.522 E5.33069
G1 X120.651 Y87.582 E5.38931
G1 X121.281 Y87.765 E5.44891
G1 X121.864 Y88.062 E5.50845
G1 X122.382 Y88.464 E5.56801
G1 X122.815 Y88.955 E5.62760
G1 X123.143 Y89.511 E5.68623
G1 X123.307 Y89.926 E5.72682
G1 X123.419 Y90.363 E5.76787
G1 X123.478 Y90.985 E5.82462
G1 X123.449 Y91.436 E5.86572
G1 X123.365 Y91.880 E5.90682
G1 X123.148 Y92.481 E5.96497
G1 X122.815 Y93.045 E6.02452
G1 X122.382 Y93.536 E6.08406
G1 X121.864 Y93.938 E6.14361
G1 X121.281 Y94.235 E6.20315
G1 X120.652 Y94.418 E6.26269
G1 X120.090 Y94.471 E6.31402
G1 X120.006 Y93.851 F7800.000
G1 F1800
G1 X119.643 Y93.828 E6.34707
G1 X119.286 Y93.760 E6.38012
G1 X118.786 Y93.580 E6.42842
G1 X118.324 Y93.307 E6.47723
G1 X117.921 Y92.952 E6.52603
G1 X117.592 Y92.528 E6.57483
G1 X117.349 Y92.050 E6.62364
G1 X117.199 Y91.534 E6.67243
G1 X117.148 Y91.000 E6.72124
G1 X117.199 Y90.466 E6.77005
G1 X117.349 Y89.950 E6.81885
G1 X117.592 Y89.472 E6.86765
G1 X117.921 Y89.048 E6.91645
G1 X118.324 Y88.693 E6.96525
G1 X118.786 Y88.420 E7.01406
G1 X119.286 Y88.240 E7.06236
G1 X119.643 Y88.172 E7.09541
G1 X120.000 Y88.149 E7.12798
G1 X120.534 Y88.199 E7.17675
G1 X121.050 Y88.349 E7.22556
G1 X121.528 Y88.592 E7.27437
G1 X121.952 Y88.921 E7.32318
G1 X122.307 Y89.324 E7.37199
G1 X122.580 Y89.786 E7.42076
G1 X122.711 Y90.119 E7.45334
G1 X122.802 Y90.471 E7.48637
G1 X122.851 Y90.994 E7.53417
G1 X122.828 Y91.357 E7.56722
G1 X122.760 Y91.714 E7.60028
G1 X122.580 Y92.214 E7.64858
G1 X122.307 Y92.676 E7.69739
G1 X121.952 Y93.079 E7.74619
G1 X121.528 Y93.408 E7.79499
G1 X121.050 Y93.651 E7.84379
G1 X120.534 Y93.801 E7.89259
G1 X120.080 Y93.844 E7.93408
G1 X120.006 Y93.851 F7800.000
G1 E5.93408 F2400.00000
G92 E0
G1 X115.725 Y106.225 F7800.000
G1 E2.00000 F2400.00000
G1 F1800
G1 X115.725 Y98.775 E2.67736
G1 X115.520 Y98.775 E2.69600
G1 X115.520 Y93.223 E3.20092
G1 X115.807 Y93.154 E3.22779
G1 X116.002 Y93.537 E3.26691
G1 X116.549 Y94.241 E3.34795
G1 X117.217 Y94.830 E3.42897
G1 X117.984 Y95.284 E3.51000
G1 X118.790 Y95.574 E3.58784
G1 X119.407 Y95.692 E3.64505
G1 X120.035 Y95.731 E3.70223
G1 X120.887 Y95.651 E3.78007
G1 X121.743 Y95.402 E3.86108
G1 X122.537 Y94.998 E3.94211
G1 X123.241 Y94.451 E4.02315
G1 X123.830 Y93.783 E4.10417
G1 X124.284 Y93.016 E4.18520
G1 X124.574 Y92.210 E4.26304
G1 X124.692 Y91.593 E4.32024
G1 X124.731 Y90.965 E4.37743
G1 X124.654 Y90.148 E4.45207
G1 X124.498 Y89.539 E4.50917
G1 X124.269 Y88.960 E4.56578
G1 X123.831 Y88.218 E4.64413
G1 X123.241 Y87.549 E4.72528
G1 X122.537 Y87.002 E4.80632
G1 X121.743 Y86.598 E4.88735
G1 X120.886 Y86.349 E4.96851
G1 X120.028 Y86.269 E5.04685
G1 X119.407 Y86.308 E5.10345
G1 X118.789 Y86.426 E5.16060
G1 X117.984 Y86.716 E5.23842
G1 X117.217 Y87.170 E5.31946
G1 X116.549 Y87.759 E5.40049
G1 X116.002 Y88.463 E5.48152
G1 X115.807 Y88.846 E5.52064
G1 X115.520 Y88.777 E5.54752
G1 X115.520 Y82.225 E6.14337
G1 X127.775 Y82.225 E7.25776
G1 X127.775 Y117.775 E10.49037
G1 X121.770 Y117.775 E11.03645
G1 X121.716 Y117.465 E11.06510
G1 X122.141 Y117.312 E11.10619
G1 X122.728 Y117.035 E11.16523
G1 X123.394 Y116.613 E11.23695
G1 X123.921 Y116.177 E11.29913
G1 X124.381 Y115.688 E11.36016
G1 X124.652 Y115.340 E11.40024
G1 X125.002 Y114.789 E11.45957
G1 X125.197 Y114.407 E11.49863
G1 X125.449 Y113.770 E11.56086
G1 X125.627 Y113.074 E11.62621
G1 X125.712 Y112.409 E11.68723
G1 X125.726 Y112.003 E11.72412
G1 X125.713 Y111.605 E11.76030
G1 X125.628 Y110.927 E11.82252
G1 X125.449 Y110.230 E11.88795
G1 X125.197 Y109.593 E11.95018
G1 X125.002 Y109.211 E11.98924
G1 X124.654 Y108.662 E12.04829
G1 X124.390 Y108.323 E12.08737
G1 X123.946 Y107.849 E12.14642
G1 X123.623 Y107.565 E12.18549
G1 X123.098 Y107.184 E12.24452
G1 X122.728 Y106.965 E12.28360
G1 X122.141 Y106.688 E12.34264
G1 X121.737 Y106.543 E12.38171
G1 X121.073 Y106.372 E12.44396
G1 X120.391 Y106.286 E12.50647
G1 X119.951 Y106.274 E12.54654
G1 X119.281 Y106.316 E12.60759
G1 X118.610 Y106.444 E12.66971
G1 X118.197 Y106.564 E12.70878
G1 X117.593 Y106.803 E12.76784
G1 X117.211 Y106.998 E12.80690
G1 X116.632 Y107.365 E12.86916
G1 X116.105 Y107.801 E12.93140
G1 X115.801 Y108.105 E12.97046
G1 X115.387 Y108.606 E13.02953
G1 X114.965 Y109.272 E13.10124
G1 X114.688 Y109.859 E13.16029
G1 X114.543 Y110.263 E13.19935
G1 X114.373 Y110.926 E13.26153
G1 X114.288 Y111.591 E13.32255
G1 X114.274 Y111.997 E13.35944
G1 X114.287 Y112.395 E13.39562
G1 X114.372 Y113.073 E13.45784
G1 X114.543 Y113.737 E13.52010
G1 X114.688 Y114.140 E13.55908
G1 X114.958 Y114.716 E13.61693
G1 X115.164 Y115.065 E13.65381
G1 X115.387 Y115.394 E13.68995
G1 X115.801 Y115.895 E13.74902
G1 X116.105 Y116.199 E13.78808
G1 X116.632 Y116.635 E13.85032
G1 X117.211 Y117.002 E13.91258
G1 X117.593 Y117.197 E13.95164
G1 X118.285 Y117.471 E14.01930
G1 X118.227 Y117.775 E14.04750
G1 X81.770 Y117.775 E17.36253
G1 X81.716 Y117.465 E17.39118
G1 X82.141 Y117.312 E17.43228
G1 X82.728 Y117.035 E17.49132
G1 X83.394 Y116.613 E17.56303
G1 X83.921 Y116.177 E17.62521
G1 X84.381 Y115.688 E17.68625
G1 X84.652 Y115.340 E17.72633
G1 X85.002 Y114.789 E17.78565
G1 X85.197 Y114.407 E17.82472
G1 X85.449 Y113.770 E17.88694
G1 X85.628 Y113.073 E17.95237
G1 X85.713 Y112.395 E18.01460
G1 X85.726 Y112.000 E18.05049
G1 X85.713 Y111.605 E18.08638
G1 X85.628 Y110.927 E18.14861
G1 X85.449 Y110.230 E18.21404
G1 X85.197 Y109.593 E18.27626
G1 X85.002 Y109.211 E18.31533
G1 X84.654 Y108.662 E18.37437
G1 X84.390 Y108.323 E18.41346
G1 X83.922 Y107.824 E18.47570
G1 X83.394 Y107.387 E18.53795
G1 X82.728 Y106.965 E18.60966
G1 X82.141 Y106.688 E18.66871
G1 X81.737 Y106.543 E18.70777
