; generated by Slic3r 1.2.9 on 2016-10-09 at 00:06:13

; external perimeters extrusion width = 0.50mm
; perimeters extrusion width = 0.72mm
; infill extrusion width = 0.72mm
; solid infill extrusion width = 0.72mm
; top infill extrusion width = 0.72mm

M107
M190 S60 ; set bed temperature
M104 S200 ; set temperature
G28 X0 Y0
G28 Z0
G1 Z0.3 F200
G1 X15 Y20 F12000
M109 S200 ; wait for temperature to be reached
G21 ; set units to millimeters
G90 ; use absolute coordinates
M82 ; use absolute distances for extrusion
G92 E0
G1 E-3.20000 F2760.00000
G92 E0
G1 Z0.350 F7800.000
G1 X107.415 Y83.206 F7800.000
G1 E3.20000 F2760.00000
G1 X118.350 Y69.090 E4.66131 F600.000
G1 X120.934 Y66.930 E4.93689
G1 X127.309 Y63.605 E5.52528
G1 X129.683 Y62.815 E5.73003
G1 X132.184 Y62.810 E5.93478
G1 X135.462 Y64.134 E6.22407
G1 X138.462 Y66.231 E6.52364 F600.000
G1 X140.259 Y67.973 E6.72839
G1 X141.419 Y70.189 E6.93314
G1 X141.825 Y72.685 E7.14006
G1 X141.825 Y118.929 E10.92450
G1 X141.427 Y121.399 E11.12925
G1 X140.275 Y123.620 E11.33400
G1 X138.582 Y125.297 E11.52899
G1 X99.382 Y153.813 E15.49601
G1 X97.151 Y154.945 E15.70076
G1 X94.750 Y155.320 E15.89963
G1 X84.050 Y155.320 E16.77528
G1 X81.580 Y154.922 E16.98003
G1 X79.359 Y153.770 E17.18479
G1 X77.612 Y151.979 E17.38954
G1 X76.514 Y149.731 E17.59429
G1 X76.175 Y147.445 E17.78339
G1 X76.175 Y126.228 E19.51971
G1 X76.573 Y123.758 E19.72446
G1 X77.825 Y121.406 E19.94252
G1 X107.369 Y83.266 E23.89069
G1 X107.863 Y83.648 F7800.000
G1 X118.844 Y69.472 E25.35814 F600.000
G1 X121.223 Y67.484 E25.61186
G1 X127.598 Y64.159 E26.20024
G1 X129.880 Y63.417 E26.39665
G1 X132.279 Y63.461 E26.59305
G1 X135.104 Y64.646 E26.84375 F600.000
G1 X138.104 Y66.743 E27.14332
G1 X139.816 Y68.425 E27.33972
G1 X140.886 Y70.574 E27.53613
G1 X141.200 Y72.685 E27.71080
G1 X141.200 Y118.929 E31.49525
G1 X140.803 Y121.296 E31.69165
G1 X139.654 Y123.403 E31.88806
G1 X138.215 Y124.792 E32.05172
G1 X99.015 Y153.308 E36.01874
G1 X96.867 Y154.379 E36.21514
G1 X94.750 Y154.695 E36.39032
G1 X84.050 Y154.695 E37.26597
G1 X81.683 Y154.298 E37.46238
G1 X79.576 Y153.149 E37.65878
G1 X77.959 Y151.376 E37.85519
G1 X77.009 Y149.172 E38.05159
G1 X76.800 Y147.445 E38.19394
G1 X76.800 Y126.228 E39.93026
G1 X77.197 Y123.861 E40.12667
G1 X78.319 Y121.788 E40.31952
G1 X107.817 Y83.708 E44.26156
G1 X108.311 Y84.090 F7800.000
G1 X119.338 Y69.855 E45.73515 F600.000
G1 X121.512 Y68.038 E45.96699
G1 X127.886 Y64.713 E46.55538
G1 X130.073 Y64.021 E46.74306
G1 X132.364 Y64.115 E46.93075
G1 X134.746 Y65.158 E47.14353 F600.000
G1 X137.746 Y67.256 E47.44310
G1 X139.370 Y68.875 E47.63078
G1 X140.344 Y70.952 E47.81847
G1 X140.575 Y72.685 E47.96159
G1 X140.575 Y118.929 E51.74603
G1 X140.178 Y121.188 E51.93372
G1 X139.035 Y123.176 E52.12141
G1 X137.847 Y124.286 E52.25445
G1 X98.647 Y152.802 E56.22146
G1 X96.587 Y153.810 E56.40915
G1 X94.750 Y154.070 E56.56098
G1 X84.050 Y154.070 E57.43663
G1 X81.791 Y153.673 E57.62432
G1 X79.803 Y152.530 E57.81201
G1 X78.324 Y150.777 E57.99970
G1 X77.531 Y148.625 E58.18739
G1 X77.425 Y147.445 E58.28432
G1 X77.425 Y126.228 E60.02064
G1 X77.822 Y123.969 E60.20833
G1 X78.813 Y122.171 E60.37633
G1 X108.265 Y84.150 E64.31224
G1 E61.11224 F2760.00000
G92 E0
G1 X126.400 Y84.150 F7800.000
G1 E3.20000 F2760.00000
G1 X126.400 Y75.762 E3.88643 F600.000
G1 X125.103 Y74.032 E4.06339
G1 X130.600 Y71.165 E4.57078
G1 X130.600 Y73.035 E4.72384
G1 X133.600 Y73.035 E4.96935 F600.000
G1 X133.600 Y118.677 E8.70450
G1 X94.400 Y131.717 E12.08533
G1 X94.400 Y147.095 E13.34386
G1 X84.400 Y147.095 E14.16222
G1 X84.400 Y126.460 E15.85091
G1 X126.400 Y108.690 E19.58303
G1 X126.400 Y84.225 E21.58521
G1 X126.833 Y83.900 F7800.000
G1 X127.025 Y84.225 F7800.000
G1 X127.025 Y75.553 E22.29483 F600.000
G1 X126.044 Y74.246 E22.42861
G1 X129.975 Y72.195 E22.79144
G1 X129.975 Y73.660 E22.91128
G1 X132.975 Y73.660 E23.15679 F600.000
G1 X132.975 Y118.226 E26.80392
G1 X93.775 Y131.266 E30.18475
G1 X93.775 Y146.470 E31.42902
G1 X85.025 Y146.470 E32.14511
G1 X85.025 Y126.874 E33.74877
G1 X127.025 Y109.104 E37.48089
G1 X127.025 Y84.300 E39.51082
G1 E36.31082 F2760.00000
G92 E0
G1 X108.156 Y117.766 F7800.000
G1 E3.20000 F2760.00000
G1 X127.650 Y109.518 E4.93223 F600.000
G1 X127.650 Y75.345 E7.72885
G1 X126.986 Y74.459 E7.81946
G1 X129.350 Y73.226 E8.03771
G1 X129.350 Y74.285 E8.12435
G1 X132.350 Y74.285 E8.36986 F600.000
G1 X132.350 Y117.775 E11.92897
G1 X93.150 Y130.815 E15.30980
G1 X93.150 Y145.845 E16.53981
G1 X85.650 Y145.845 E17.15362
G1 X85.650 Y127.288 E18.67226
G1 X108.087 Y117.795 E20.66601
G1 X126.308 Y114.788 F7800.000
G1 X126.252 Y114.434 E20.69530 F600.000
G1 X126.263 Y114.077 E20.72459
G1 X126.341 Y113.727 E20.75388
G1 X126.484 Y113.399 E20.78317
G1 X126.685 Y113.103 E20.81246
G1 X126.938 Y112.850 E20.84175
G1 X127.234 Y112.649 E20.87104
G1 X127.567 Y112.504 E20.90078
G1 X128.025 Y112.417 E20.93890 F600.000
G1 X128.388 Y112.428 E20.96865
G1 X128.738 Y112.506 E20.99794
G1 X129.066 Y112.649 E21.02723
G1 X129.362 Y112.850 E21.05652
G1 X129.615 Y113.103 E21.08581
G1 X129.819 Y113.403 E21.11556
G1 X129.991 Y113.837 E21.15368
G1 X130.049 Y114.201 E21.18388
G1 X130.019 Y114.666 E21.22200
G1 X129.918 Y115.015 E21.25174
G1 X129.756 Y115.334 E21.28103
G1 X129.536 Y115.617 E21.31032
G1 X129.268 Y115.853 E21.33961
G1 X128.960 Y116.036 E21.36890
G1 X128.623 Y116.157 E21.39819
G1 X128.269 Y116.213 E21.42748
G1 X127.906 Y116.201 E21.45722
G1 X127.455 Y116.086 E21.49535
G1 X127.131 Y115.921 E21.52509
G1 X126.848 Y115.701 E21.55438
G1 X126.612 Y115.433 E21.58368
G1 X126.429 Y115.125 E21.61296
G1 X126.334 Y114.858 E21.63612
G1 X125.967 Y114.681 F7800.000
G1 X125.746 Y115.070 F7800.000
G1 X125.700 Y114.944 E21.64709 F600.000
G1 X125.626 Y114.474 E21.68605
G1 X125.641 Y113.998 E21.72500
G1 X125.745 Y113.533 E21.76396
G1 X125.934 Y113.097 E21.80292
G1 X126.201 Y112.703 E21.84188
G1 X126.538 Y112.366 E21.88084
G1 X126.932 Y112.099 E21.91979
G1 X127.383 Y111.903 E21.96002
G1 X127.976 Y111.790 E22.00943 F600.000
G1 X128.467 Y111.806 E22.04966
G1 X128.932 Y111.910 E22.08861
G1 X129.368 Y112.099 E22.12757
G1 X129.762 Y112.366 E22.16653
G1 X130.099 Y112.703 E22.20549
G1 X130.375 Y113.109 E22.24571
G1 X130.597 Y113.671 E22.29513
G1 X130.677 Y114.171 E22.33662
G1 X130.639 Y114.774 E22.38603
G1 X130.502 Y115.246 E22.42625
G1 X130.286 Y115.670 E22.46521
G1 X129.994 Y116.046 E22.50416
G1 X129.637 Y116.361 E22.54313
G1 X129.227 Y116.603 E22.58208
G1 X128.779 Y116.765 E22.62105
G1 X128.309 Y116.839 E22.66000
G1 X127.818 Y116.824 E22.70022
G1 X127.233 Y116.674 E22.74964
G1 X126.795 Y116.451 E22.78987
G1 X126.419 Y116.159 E22.82882
G1 X126.104 Y115.802 E22.86779
G1 X125.861 Y115.392 E22.90674
G1 X125.771 Y115.141 E22.92859
G1 X125.183 Y115.352 F7800.000
G1 X125.092 Y115.100 E22.95053 F600.000
G1 X124.999 Y114.513 E22.99916
G1 X125.018 Y113.919 E23.04778
G1 X125.148 Y113.339 E23.09641
G1 X125.384 Y112.794 E23.14503
G1 X125.718 Y112.303 E23.19366
G1 X126.138 Y111.883 E23.24229
G1 X126.629 Y111.549 E23.29091
G1 X127.198 Y111.302 E23.34162
G1 X127.926 Y111.163 E23.40232 F600.000
G1 X128.546 Y111.183 E23.45303
G1 X129.126 Y111.313 E23.50165
G1 X129.671 Y111.549 E23.55028
G1 X130.162 Y111.883 E23.59890
G1 X130.582 Y112.303 E23.64753
G1 X130.931 Y112.815 E23.69824
G1 X131.204 Y113.505 E23.75894
G1 X131.305 Y114.142 E23.81172
G1 X131.258 Y114.882 E23.87242
G1 X131.085 Y115.477 E23.92313
G1 X130.815 Y116.007 E23.97175
G1 X130.451 Y116.476 E24.02038
G1 X130.006 Y116.869 E24.06902
G1 X129.494 Y117.171 E24.11763
G1 X128.935 Y117.373 E24.16627
G1 X128.348 Y117.466 E24.21489
G1 X127.729 Y117.446 E24.26558
G1 X127.010 Y117.262 E24.32630
G1 X126.458 Y116.980 E24.37700
G1 X125.989 Y116.616 E24.42562
G1 X125.596 Y116.171 E24.47426
G1 X125.293 Y115.659 E24.52288
G1 X125.208 Y115.423 E24.54344
G1 X126.657 Y119.307 F7800.000
G1 X120.331 Y112.981 E25.27781 F600.000
G1 X119.709 Y113.245 E25.33333
G1 X125.992 Y119.528 E26.06279
G1 X125.327 Y119.749 E26.12034
G1 X119.086 Y113.508 E26.84490
G1 X118.463 Y113.772 E26.90042
G1 X124.662 Y119.971 E27.62007
G1 X123.997 Y120.192 E27.67761
G1 X117.840 Y114.035 E28.39235
G1 X117.217 Y114.299 E28.44788
G1 X123.331 Y120.413 E29.15771
G1 X122.666 Y120.635 E29.21525
G1 X116.594 Y114.562 E29.92018
G1 X115.971 Y114.826 E29.97570
G1 X122.001 Y120.856 E30.67572
G1 X121.336 Y121.077 E30.73327
G1 X115.348 Y115.089 E31.42838
G1 X114.725 Y115.353 E31.48390
G1 X120.671 Y121.298 E32.17410
G1 X120.006 Y121.520 E32.23165
G1 X114.102 Y115.617 E32.91694
G1 X113.480 Y115.880 E32.97247
G1 X119.340 Y121.741 E33.65285
G1 X118.675 Y121.962 E33.71040
G1 X112.857 Y116.144 E34.38588
G1 X112.234 Y116.407 E34.44140
G1 X118.010 Y122.183 E35.11197
G1 X117.345 Y122.405 E35.16952
G1 X111.611 Y116.671 E35.83519
G1 X110.988 Y116.934 E35.89071
G1 X116.680 Y122.626 E36.55146
G1 X116.015 Y122.847 E36.60901
G1 X110.365 Y117.198 E37.26486
G1 X109.742 Y117.461 E37.32038
G1 X115.349 Y123.069 E37.97132
G1 X114.684 Y123.290 E38.02887
G1 X109.119 Y117.725 E38.67490
G1 X108.496 Y117.988 E38.73043
G1 X114.019 Y123.511 E39.37155
G1 X113.354 Y123.732 E39.42910
G1 X107.873 Y118.252 E40.06532
G1 X107.251 Y118.516 E40.12084
G1 X112.689 Y123.954 E40.75215
G1 X112.023 Y124.175 E40.80970
G1 X106.628 Y118.779 E41.43610
G1 X106.005 Y119.043 E41.49162
G1 X111.358 Y124.396 E42.11312
G1 X110.693 Y124.617 E42.17066
G1 X105.382 Y119.306 E42.78725
G1 X104.759 Y119.570 E42.84277
G1 X110.028 Y124.839 E43.45446
G1 X109.363 Y125.060 E43.51200
G1 X104.136 Y119.833 E44.11878
G1 X103.513 Y120.097 E44.17430
G1 X108.698 Y125.281 E44.77616
G1 X108.032 Y125.503 E44.83371
G1 X102.890 Y120.360 E45.43067
G1 X102.267 Y120.624 E45.48619
G1 X107.367 Y125.724 E46.07824
G1 X106.702 Y125.945 E46.13578
G1 X101.644 Y120.887 E46.72293
G1 X101.022 Y121.151 E46.77845
G1 X106.037 Y126.166 E47.36068
G1 X105.372 Y126.388 E47.41823
G1 X100.399 Y121.415 E47.99556
G1 X99.776 Y121.678 E48.05108
G1 X104.707 Y126.609 E48.62350
G1 X104.041 Y126.830 E48.68105
G1 X99.153 Y121.942 E49.24856
G1 X98.530 Y122.205 E49.30408
G1 X103.376 Y127.051 E49.86668
G1 X102.711 Y127.273 E49.92423
G1 X97.907 Y122.469 E50.48193
G1 X97.284 Y122.732 E50.53745
G1 X102.046 Y127.494 E51.09024
G1 X101.381 Y127.715 E51.14778
G1 X96.661 Y122.996 E51.69567
G1 X96.038 Y123.259 E51.75119
G1 X100.715 Y127.937 E52.29416
G1 X100.050 Y128.158 E52.35171
G1 X95.415 Y123.523 E52.88977
G1 X94.793 Y123.786 E52.94530
G1 X99.385 Y128.379 E53.47846
G1 X98.720 Y128.600 E53.53600
G1 X94.170 Y124.050 E54.06425
G1 X93.547 Y124.314 E54.11977
G1 X98.055 Y128.822 E54.64312
G1 X97.390 Y129.043 E54.70066
G1 X92.924 Y124.577 E55.21910
G1 X92.301 Y124.841 E55.27462
G1 X96.724 Y129.264 E55.78815
G1 X96.059 Y129.485 E55.84570
G1 X91.678 Y125.104 E56.35432
G1 X91.055 Y125.368 E56.40984
G1 X95.394 Y129.707 E56.91355
G1 X94.729 Y129.928 E56.97110
G1 X90.432 Y125.631 E57.46990
G1 X89.809 Y125.895 E57.52542
G1 X94.064 Y130.149 E58.01932
G1 X93.399 Y130.371 E58.07687
G1 X89.186 Y126.158 E58.56586
G1 X88.563 Y126.422 E58.62138
G1 X92.772 Y130.630 E59.10991
G1 X92.772 Y131.517 E59.18268
G1 X87.941 Y126.685 E59.74352
G1 X87.318 Y126.949 E59.79904
G1 X92.772 Y132.403 E60.43219
G1 X92.772 Y133.289 E60.50496
G1 X86.695 Y127.213 E61.21043
G1 X86.076 Y127.480 E61.26578
G1 X92.772 Y134.176 E62.04309
G1 X92.772 Y135.062 E62.11585
G1 X86.028 Y128.319 E62.89869
G1 X86.028 Y129.205 E62.97146
G1 X92.772 Y135.949 E63.75429
G1 X92.772 Y136.835 E63.82706
G1 X86.028 Y130.092 E64.60989
G1 X86.028 Y130.978 E64.68266
G1 X92.772 Y137.722 E65.46549
G1 X92.772 Y138.608 E65.53826
G1 X86.028 Y131.865 E66.32110
G1 X86.028 Y132.751 E66.39386
G1 X92.772 Y139.495 E67.17670
G1 X92.772 Y140.381 E67.24947
G1 X86.028 Y133.638 E68.03230
G1 X86.028 Y134.524 E68.10507
G1 X92.772 Y141.267 E68.88790
G1 X92.772 Y142.154 E68.96067
G1 X86.028 Y135.411 E69.74350
G1 X86.028 Y136.297 E69.81627
G1 X92.772 Y143.040 E70.59911
G1 X92.772 Y143.927 E70.67187
G1 X86.028 Y137.184 E71.45471
G1 X86.028 Y138.070 E71.52748
G1 X92.772 Y144.813 E72.31031
G1 X92.539 Y145.467 E72.36726
G1 X86.028 Y138.956 E73.12303
G1 X86.028 Y139.843 E73.19580
G1 X91.652 Y145.467 E73.84867
G1 X90.766 Y145.467 E73.92144
G1 X86.028 Y140.729 E74.47139
G1 X86.028 Y141.616 E74.54416
G1 X89.879 Y145.467 E74.99121
G1 X88.993 Y145.467 E75.06398
G1 X86.028 Y142.502 E75.40812
G1 X86.028 Y143.389 E75.48089
G1 X88.106 Y145.467 E75.72212
G1 X87.220 Y145.467 E75.79489
G1 X86.028 Y144.275 E75.93322
G1 X86.028 Y145.162 E76.00598
G1 X86.333 Y145.467 E76.04140
G1 E72.84140 F2760.00000
G92 E0
G1 X128.363 Y118.353 F7800.000
G1 E3.20000 F2760.00000
G1 X127.843 Y117.833 E3.26044 F600.000
G1 X126.747 Y117.623 E3.35204
G1 X127.988 Y118.864 E3.49612
G1 X127.323 Y119.086 E3.55366
G1 X120.954 Y112.717 E4.29294
G1 X121.577 Y112.454 E4.34846
G1 X124.865 Y115.741 E4.73010
G1 X124.622 Y114.612 E4.82495
G1 X122.200 Y112.190 E5.10605
G1 X122.823 Y111.927 E5.16157
G1 X124.685 Y113.789 E5.37777
G1 X124.884 Y113.101 E5.43656
G1 X123.446 Y111.663 E5.60347
G1 X124.069 Y111.400 E5.65899
G1 X125.180 Y112.511 E5.78803
G1 X125.559 Y112.003 E5.84003
G1 X124.692 Y111.136 E5.94071
G1 X125.315 Y110.873 E5.99623
G1 X125.633 Y111.191 E6.03319
G1 E2.83319 F2760.00000
G92 E0
G1 X128.766 Y118.204 F7800.000
G1 E3.20000 F2760.00000
G1 X129.998 Y117.777 E3.42634 F600.000
G1 X130.406 Y117.642 F7800.000
G1 X130.719 Y117.956 E3.47972 F600.000
G1 X131.696 Y117.631 E3.60367
G1 X130.722 Y116.657 E3.76951
G1 X131.663 Y116.297 E3.89088
G1 X131.972 Y116.606 E3.94347
G1 X131.671 Y115.896 F7800.000
G1 X131.798 Y115.003 E4.09996 F600.000
G1 X131.828 Y114.140 E4.24975
G1 X131.771 Y113.380 E4.38201
G1 X131.654 Y112.751 E4.49311
G1 X131.413 Y112.434 F7800.000
G1 X128.028 Y109.049 E4.88512 F600.000
G1 X128.028 Y108.165 E4.95753
G1 X131.972 Y112.108 E5.41419
G1 X131.972 Y111.224 E5.48660
G1 X128.028 Y107.280 E5.94325
G1 X128.028 Y106.396 E6.01566
G1 X131.972 Y110.339 E6.47232
G1 X131.972 Y109.455 E6.54473
G1 X128.028 Y105.512 E7.00139
G1 X128.028 Y104.628 E7.07380
G1 X131.972 Y108.571 E7.53045
G1 X131.972 Y107.687 E7.60286
G1 X128.028 Y103.743 E8.05952
G1 X128.028 Y102.859 E8.13193
G1 X131.972 Y106.802 E8.58859
G1 X131.972 Y105.918 E8.66100
G1 X128.028 Y101.975 E9.11765
G1 X128.028 Y101.090 E9.19006
G1 X131.972 Y105.034 E9.64672
G1 X131.972 Y104.149 E9.71913
G1 X128.028 Y100.206 E10.17578
G1 X128.028 Y99.322 E10.24819
G1 X131.972 Y103.265 E10.70485
G1 X131.972 Y102.381 E10.77726
G1 X128.028 Y98.438 E11.23392
G1 X128.028 Y97.553 E11.30633
G1 X131.972 Y101.497 E11.76298
G1 X131.972 Y100.612 E11.83539
G1 X128.028 Y96.669 E12.29205
G1 X128.028 Y95.785 E12.36446
G1 X131.972 Y99.728 E12.82111
G1 X131.972 Y98.844 E12.89353
G1 X128.028 Y94.901 E13.35018
G1 X128.028 Y94.016 E13.42259
G1 X131.972 Y97.960 E13.87925
G1 X131.972 Y97.075 E13.95166
G1 X128.028 Y93.132 E14.40831
G1 X128.028 Y92.248 E14.48072
G1 X131.972 Y96.191 E14.93738
G1 X131.972 Y95.307 E15.00979
G1 X128.028 Y91.363 E15.46645
G1 X128.028 Y90.479 E15.53886
G1 X131.972 Y94.422 E15.99551
G1 X131.972 Y93.538 E16.06792
G1 X128.028 Y89.595 E16.52458
G1 X128.028 Y88.711 E16.59699
G1 X131.972 Y92.654 E17.05365
G1 X131.972 Y91.770 E17.12606
G1 X128.028 Y87.826 E17.58271
G1 X128.028 Y86.942 E17.65512
G1 X131.972 Y90.885 E18.11178
G1 X131.972 Y90.001 E18.18419
G1 X128.028 Y86.058 E18.64084
G1 X128.028 Y85.174 E18.71325
G1 X131.972 Y89.117 E19.16991
G1 X131.972 Y88.233 E19.24232
G1 X128.028 Y84.289 E19.69898
G1 X128.028 Y83.405 E19.77139
G1 X131.972 Y87.348 E20.22804
G1 X131.972 Y86.464 E20.30045
G1 X128.028 Y82.521 E20.75711
G1 X128.028 Y81.636 E20.82952
G1 X131.972 Y85.580 E21.28618
G1 X131.972 Y84.695 E21.35859
G1 X128.028 Y80.752 E21.81524
G1 X128.028 Y79.868 E21.88765
G1 X131.972 Y83.811 E22.34431
G1 X131.972 Y82.927 E22.41672
G1 X128.028 Y78.984 E22.87337
G1 X128.028 Y78.099 E22.94578
G1 X131.972 Y82.043 E23.40244
G1 X131.972 Y81.158 E23.47485
G1 X128.028 Y77.215 E23.93151
G1 X128.028 Y76.331 E24.00392
G1 X131.972 Y80.274 E24.46057
G1 X131.972 Y79.390 E24.53298
G1 X128.028 Y75.447 E24.98964
G1 X128.972 Y74.621 F7800.000
G1 X128.431 Y74.080 E25.05228 F600.000
G1 X127.850 Y74.384 E25.10595
