; generated by Slic3r 1.3.0 on 2019-09-03 at 18:53:42

; external perimeters extrusion width = 0.55mm (4.37mm^3/s)
; perimeters extrusion width = 0.70mm (11.44mm^3/s)
; infill extrusion width = 0.63mm (13.45mm^3/s)
; solid infill extrusion width = 0.70mm (3.81mm^3/s)
; top infill extrusion width = 0.70mm (2.86mm^3/s)

M107
M190 S65 ; set bed temperature and wait for it to be reached
M104 S205 ; set temperature
G28 ; home all axes
G1 Z5 F5000 ; lift nozzle

; Filament gcode

M109 S205 ; set temperature and wait for it to be reached
G21 ; set units to millimeters
G90 ; use absolute coordinates
M82 ; use absolute distances for extrusion
G92 E0
G1 Z0.350 F7800.000
G1 E-2.00000 F2400.00000
G92 E0
G1 X73.466 Y87.562 F7800.000
G1 E2.00000 F2400.00000
G1 F1800
G1 X75.714 Y86.464 E2.22750
G1 X78.000 Y86.125 E2.43762
G1 X122.000 Y86.125 E6.43852
G1 X124.470 Y86.523 E6.66602
G1 X126.691 Y87.675 E6.89352
G1 X128.438 Y89.466 E7.12102
G1 X129.536 Y91.714 E7.34852
G1 X129.875 Y94.000 E7.55864
G1 X129.875 Y106.000 E8.64979
G1 X129.477 Y108.470 E8.87730
G1 X128.325 Y110.691 E9.10480
G1 X126.534 Y112.438 E9.33230
G1 X124.286 Y113.536 E9.55980
G1 X122.000 Y113.875 E9.76991
G1 X78.000 Y113.875 E13.77082
G1 X75.530 Y113.477 E13.99832
G1 X73.309 Y112.325 E14.22582
G1 X71.562 Y110.534 E14.45332
G1 X70.464 Y108.286 E14.68082
G1 X70.125 Y106.000 E14.89094
G1 X70.125 Y94.000 E15.98209
G1 X70.523 Y91.530 E16.20959
G1 X71.675 Y89.309 E16.43709
G1 X73.412 Y87.614 E16.65777
G1 X74.069 Y87.909 F7800.000
G1 F1800
G1 X76.273 Y86.959 E16.87600
G1 X78.000 Y86.750 E17.03417
G1 X122.000 Y86.750 E21.03507
G1 X124.367 Y87.147 E21.25330
G1 X126.474 Y88.296 E21.47153
G1 X128.091 Y90.069 E21.68976
G1 X129.041 Y92.273 E21.90799
G1 X129.250 Y94.000 E22.06616
G1 X129.250 Y106.000 E23.15731
G1 X128.853 Y108.367 E23.37554
G1 X127.704 Y110.474 E23.59377
G1 X125.931 Y112.091 E23.81199
G1 X123.727 Y113.041 E24.03022
G1 X122.000 Y113.250 E24.18839
G1 X78.000 Y113.250 E28.18929
G1 X75.633 Y112.853 E28.40752
G1 X73.526 Y111.704 E28.62575
G1 X71.909 Y109.931 E28.84398
G1 X70.959 Y107.727 E29.06220
G1 X70.750 Y106.000 E29.22038
G1 X70.750 Y94.000 E30.31153
G1 X71.147 Y91.633 E30.52976
G1 X72.296 Y89.526 E30.74799
G1 X74.014 Y87.959 E30.95939
G1 X74.668 Y88.274 F7800.000
G1 F1800
G1 X76.820 Y87.481 E31.16794
G1 X78.000 Y87.375 E31.27565
G1 X122.000 Y87.375 E35.27655
G1 X124.259 Y87.772 E35.48509
G1 X126.247 Y88.915 E35.69363
G1 X127.726 Y90.668 E35.90217
G1 X128.519 Y92.820 E36.11072
G1 X128.625 Y94.000 E36.21843
G1 X128.625 Y106.000 E37.30958
G1 X128.228 Y108.259 E37.51812
G1 X127.085 Y110.247 E37.72667
G1 X125.332 Y111.726 E37.93521
G1 X123.180 Y112.519 E38.14375
G1 X122.000 Y112.625 E38.25146
G1 X78.000 Y112.625 E42.25236
G1 X75.741 Y112.228 E42.46090
G1 X73.753 Y111.085 E42.66945
G1 X72.274 Y109.332 E42.87799
G1 X71.481 Y107.180 E43.08653
G1 X71.375 Y106.000 E43.19424
G1 X71.375 Y94.000 E44.28539
G1 X71.772 Y91.741 E44.49394
G1 X72.915 Y89.753 E44.70248
G1 X74.611 Y88.322 E44.90420
G1 E42.90420 F2400.00000
G92 E0
G1 X86.577 Y103.010 F7800.000
G1 E2.00000 F2400.00000
G1 F1800
G1 X85.963 Y103.486 E2.07067
G1 X85.270 Y103.839 E2.14134
G1 X84.524 Y104.056 E2.21201
G1 X83.750 Y104.129 E2.28268
G1 X82.976 Y104.056 E2.35335
G1 X82.230 Y103.839 E2.42402
G1 X81.551 Y103.493 E2.49328
G1 X81.132 Y103.189 E2.54041
G1 X80.904 Y102.988 E2.56805
G1 X80.569 Y102.629 E2.61264
G1 X80.257 Y102.199 E2.66102
G1 X79.911 Y101.520 E2.73029
G1 X79.694 Y100.774 E2.80096
G1 X79.621 Y100.000 E2.87163
G1 X79.694 Y99.226 E2.94230
G1 X79.911 Y98.480 E3.01297
G1 X80.264 Y97.787 E3.08364
G1 X80.740 Y97.173 E3.15431
G1 X81.323 Y96.659 E3.22497
G1 X81.992 Y96.264 E3.29564
G1 X82.709 Y96.006 E3.36491
G1 X83.232 Y95.906 E3.41340
G1 X83.723 Y95.875 E3.45810
G1 X84.023 Y95.883 E3.48538
G1 X84.539 Y95.948 E3.53264
G1 X85.270 Y96.161 E3.60191
G1 X85.963 Y96.514 E3.67258
G1 X86.564 Y96.980 E3.74185
G1 X86.930 Y97.369 E3.79037
G1 X87.243 Y97.801 E3.83889
G1 X87.589 Y98.480 E3.90816
G1 X87.806 Y99.226 E3.97883
G1 X87.879 Y100.000 E4.04950
G1 X87.806 Y100.774 E4.12017
G1 X87.594 Y101.505 E4.18943
G1 X87.366 Y101.988 E4.23796
G1 X87.080 Y102.439 E4.28648
G1 X86.626 Y102.954 E4.34893
G1 X86.147 Y102.553 F7800.000
G1 F1800
G1 X85.626 Y102.956 E4.40886
G1 X85.039 Y103.256 E4.46878
G1 X84.406 Y103.440 E4.52871
G1 X83.750 Y103.502 E4.58864
G1 X83.094 Y103.440 E4.64857
G1 X82.461 Y103.256 E4.70849
G1 X81.879 Y102.959 E4.76792
G1 X81.523 Y102.701 E4.80789
G1 X81.340 Y102.539 E4.83009
G1 X81.052 Y102.231 E4.86842
G1 X80.791 Y101.871 E4.90884
G1 X80.494 Y101.289 E4.96827
G1 X80.310 Y100.656 E5.02819
G1 X80.248 Y100.000 E5.08812
G1 X80.310 Y99.344 E5.14805
G1 X80.494 Y98.711 E5.20798
G1 X80.794 Y98.124 E5.26790
G1 X81.197 Y97.603 E5.32783
G1 X81.692 Y97.167 E5.38776
G1 X82.259 Y96.832 E5.44768
G1 X82.874 Y96.610 E5.50711
G1 X83.311 Y96.527 E5.54757
G1 X83.734 Y96.500 E5.58610
G1 X83.975 Y96.507 E5.60801
G1 X84.411 Y96.562 E5.64803
G1 X85.039 Y96.744 E5.70745
G1 X85.626 Y97.044 E5.76738
G1 X86.143 Y97.444 E5.82680
G1 X86.447 Y97.769 E5.86728
G1 X86.709 Y98.129 E5.90776
G1 X87.006 Y98.711 E5.96718
G1 X87.190 Y99.344 E6.02711
G1 X87.252 Y100.000 E6.08703
G1 X87.190 Y100.656 E6.14696
G1 X87.007 Y101.284 E6.20638
G1 X86.818 Y101.686 E6.24686
G1 X86.579 Y102.062 E6.28734
G1 X86.197 Y102.496 E6.33994
G1 X86.147 Y102.553 F7800.000
G1 E4.33994 F2400.00000
G92 E0
G1 X81.420 Y95.876 F7800.000
G1 E2.00000 F2400.00000
G1 F1800
G1 X80.954 Y96.152 E2.04927
G1 X80.282 Y96.744 E2.13068
G1 X79.853 Y97.297 E2.19434
G1 X79.600 Y97.210 E2.21870
G1 X79.600 Y95.600 E2.36513
G1 X81.345 Y95.600 E2.52380
G1 X81.401 Y95.803 E2.54300
G1 E0.54300 F2400.00000
G92 E0
G1 X79.600 Y102.799 F7800.000
G1 E2.00000 F2400.00000
G1 F1800
G1 X79.859 Y102.715 E2.02477
G1 X80.086 Y103.028 E2.05996
G1 X80.468 Y103.436 E2.11080
G1 X80.741 Y103.677 E2.14389
G1 X81.224 Y104.028 E2.19817
G1 X81.390 Y104.113 E2.21518
G1 X81.321 Y104.400 E2.24206
G1 X79.600 Y104.400 E2.39860
G1 X79.600 Y102.874 E2.53741
G1 E0.53741 F2400.00000
G92 E0
G1 X86.179 Y104.400 F7800.000
G1 E2.00000 F2400.00000
G1 F1800
G1 X86.110 Y104.113 E2.02688
G1 X86.299 Y104.016 E2.04619
G1 X87.006 Y103.468 E2.12760
G1 X87.582 Y102.815 E2.20671
G1 X87.915 Y102.290 E2.26328
G1 X88.180 Y101.727 E2.31985
G1 X88.423 Y100.891 E2.39896
G1 X88.507 Y100.000 E2.48037
G1 X88.423 Y99.109 E2.56179
G1 X88.173 Y98.249 E2.64320
G1 X87.778 Y97.474 E2.72231
G1 X87.412 Y96.970 E2.77888
G1 X86.986 Y96.517 E2.83545
G1 X86.299 Y95.984 E2.91456
G1 X86.110 Y95.887 E2.93387
G1 X86.179 Y95.600 E2.96075
G1 X113.845 Y95.600 E5.47643
G1 X113.920 Y95.876 E5.50244
G1 X113.454 Y96.152 E5.55171
G1 X112.782 Y96.744 E5.63312
G1 X112.234 Y97.451 E5.71453
G1 X111.827 Y98.249 E5.79594
G1 X111.577 Y99.109 E5.87736
G1 X111.493 Y100.000 E5.95877
G1 X111.577 Y100.891 E6.04018
G1 X111.827 Y101.751 E6.12160
G1 X112.222 Y102.526 E6.20071
G1 X112.587 Y103.029 E6.25721
G1 X112.970 Y103.437 E6.30807
G1 X113.239 Y103.676 E6.34074
G1 X113.724 Y104.028 E6.39524
G1 X113.890 Y104.113 E6.41225
G1 X113.821 Y104.400 E6.43913
G1 X86.254 Y104.400 E8.94585
G1 E6.94585 F2400.00000
G92 E0
G1 X112.194 Y100.774 F7800.000
G1 E2.00000 F2400.00000
G1 F1800
G1 X112.121 Y100.000 E2.07067
G1 X112.194 Y99.226 E2.14134
G1 X112.411 Y98.480 E2.21201
G1 X112.764 Y97.787 E2.28268
G1 X113.240 Y97.173 E2.35335
G1 X113.823 Y96.659 E2.42401
G1 X114.492 Y96.264 E2.49468
G1 X115.209 Y96.006 E2.56395
G1 X115.732 Y95.906 E2.61244
G1 X116.223 Y95.875 E2.65714
G1 X116.523 Y95.883 E2.68443
G1 X117.039 Y95.948 E2.73169
G1 X117.770 Y96.161 E2.80095
G1 X118.463 Y96.514 E2.87163
G1 X119.064 Y96.980 E2.94089
G1 X119.420 Y97.359 E2.98814
G1 X119.603 Y97.597 E3.01543
G1 X119.867 Y98.012 E3.06013
G1 X120.094 Y98.495 E3.10862
G1 X120.306 Y99.226 E3.17789
G1 X120.379 Y100.000 E3.24856
G1 X120.308 Y100.758 E3.31782
G1 X120.178 Y101.262 E3.36508
G1 X120.076 Y101.544 E3.39236
G1 X119.866 Y101.988 E3.43706
G1 X119.580 Y102.439 E3.48556
G1 X119.077 Y103.010 E3.55482
G1 X118.473 Y103.478 E3.62430
G1 X117.932 Y103.772 E3.68025
G1 X117.515 Y103.927 E3.72069
G1 X117.008 Y104.058 E3.76829
G1 X116.250 Y104.129 E3.83756
G1 X115.476 Y104.056 E3.90823
G1 X114.730 Y103.839 E3.97890
G1 X114.051 Y103.493 E4.04817
G1 X113.631 Y103.188 E4.09544
G1 X113.406 Y102.989 E4.12272
G1 X113.070 Y102.630 E4.16741
G1 X112.757 Y102.199 E4.21590
G1 X112.411 Y101.520 E4.28516
G1 X112.215 Y100.846 E4.34901
G1 X112.810 Y100.656 F7800.000
G1 F1800
G1 X112.748 Y100.000 E4.40894
G1 X112.810 Y99.344 E4.46887
G1 X112.994 Y98.711 E4.52880
G1 X113.294 Y98.124 E4.58873
G1 X113.698 Y97.603 E4.64865
G1 X114.192 Y97.167 E4.70858
G1 X114.759 Y96.832 E4.76850
G1 X115.374 Y96.610 E4.82793
G1 X115.811 Y96.527 E4.86839
G1 X116.234 Y96.500 E4.90692
G1 X116.475 Y96.507 E4.92883
G1 X116.911 Y96.562 E4.96885
G1 X117.539 Y96.744 E5.02827
G1 X118.126 Y97.044 E5.08820
G1 X118.643 Y97.444 E5.14762
G1 X118.944 Y97.765 E5.18764
G1 X119.091 Y97.956 E5.20955
G1 X119.318 Y98.314 E5.24808
G1 X119.507 Y98.716 E5.28854
G1 X119.690 Y99.344 E5.34797
G1 X119.752 Y100.000 E5.40789
G1 X119.690 Y100.651 E5.46732
G1 X119.581 Y101.077 E5.50734
G1 X119.498 Y101.303 E5.52924
G1 X119.318 Y101.687 E5.56777
G1 X119.079 Y102.062 E5.60824
G1 X118.647 Y102.553 E5.66766
G1 X118.130 Y102.954 E5.72716
G1 X117.673 Y103.202 E5.77447
G1 X117.328 Y103.330 E5.80790
G1 X116.901 Y103.440 E5.84804
G1 X116.250 Y103.502 E5.90747
G1 X115.594 Y103.440 E5.96740
G1 X114.961 Y103.256 E6.02732
G1 X114.379 Y102.959 E6.08675
G1 X114.023 Y102.700 E6.12677
G1 X113.842 Y102.540 E6.14868
G1 X113.553 Y102.231 E6.18720
G1 X113.291 Y101.871 E6.22767
G1 X112.994 Y101.289 E6.28709
G1 X112.831 Y100.728 E6.34020
G1 X112.810 Y100.656 F7800.000
G1 E4.34020 F2400.00000
G92 E0
G1 X118.610 Y95.887 F7800.000
G1 E2.00000 F2400.00000
G1 F1800
G1 X118.679 Y95.600 E2.02688
G1 X120.400 Y95.600 E2.18342
G1 X120.400 Y97.191 E2.32811
G1 X120.146 Y97.278 E2.35251
G1 X119.897 Y96.954 E2.38969
G1 X119.486 Y96.517 E2.44418
G1 X118.799 Y95.984 E2.52328
G1 X118.676 Y95.921 E2.53578
G1 E0.53578 F2400.00000
G92 E0
G1 X120.400 Y102.454 F7800.000
G1 E2.00000 F2400.00000
G1 F1800
G1 X120.400 Y104.400 E2.17699
G1 X118.677 Y104.400 E2.33367
G1 X118.605 Y104.118 E2.36018
G1 X118.816 Y104.003 E2.38197
G1 X119.506 Y103.468 E2.46143
G1 X120.351 Y102.510 E2.57751
G1 E0.57751 F2400.00000
G92 E0
G1 X121.025 Y105.025 F7800.000
G1 E2.00000 F2400.00000
G1 F1800
G1 X78.975 Y105.025 E5.82361
G1 X78.975 Y94.975 E6.73747
G1 X121.025 Y94.975 E10.56108
G1 X121.025 Y104.950 E11.46812
G1 X121.650 Y105.650 F7800.000
G1 F1800
G1 X78.350 Y105.650 E15.40537
G1 X78.350 Y94.350 E16.43288
G1 X121.650 Y94.350 E20.37013
G1 X121.650 Y105.575 E21.39081
G1 X121.152 Y105.608 F7800.000
G1 E19.39081 F2400.00000
G92 E0
G1 X120.088 Y103.336 F7800.000
G1 E2.00000 F2400.00000
G1 F1800
G1 X119.865 Y103.865 E2.03090
G1 X119.302 Y104.066 E2.06306
G1 X118.341 Y104.345 F7800.000
G1 F1800
G1 X117.911 Y104.423 E2.09790
G1 F1800
G1 X117.482 Y104.489 E2.12745
G1 F1800
G1 X117.106 Y104.537 E2.14797
G1 F1800
G1 X116.263 Y104.578 E2.18198
G1 F1800
G1 X115.819 Y104.558 E2.19459
G1 F1800
G1 X115.368 Y104.535 E2.21260
G1 F1800
G1 X115.033 Y104.487 E2.22872
G1 F1800
G1 X114.699 Y104.440 E2.24952
G1 F1800
G1 X114.160 Y104.329 E2.29103
G1 X112.187 Y104.018 F7800.000
G1 F1800
G1 X112.673 Y103.532 E2.35471
G1 X112.348 Y103.185 E2.39882
G1 X112.252 Y103.053 E2.41390
G1 X111.287 Y104.018 E2.54034
G1 X110.387 Y104.018 E2.62374
G1 X111.885 Y102.520 E2.81999
G1 X111.581 Y101.924 E2.88200
G1 X109.486 Y104.018 E3.15639
G1 X108.586 Y104.018 E3.23979
G1 X111.347 Y101.258 E3.60146
G1 X111.204 Y100.766 E3.64890
G1 X111.181 Y100.523 E3.67149
G1 X107.686 Y104.018 E4.12939
G1 X106.785 Y104.018 E4.21280
G1 X111.115 Y99.689 E4.78000
G1 X111.224 Y98.680 E4.87402
G1 X105.885 Y104.018 E5.57343
G1 X104.985 Y104.018 E5.65683
G1 X111.755 Y97.248 E6.54379
G1 X111.947 Y96.872 E6.58294
G1 X112.432 Y96.246 E6.65630
G1 X112.151 Y95.982 E6.69207
G1 X112.121 Y95.982 E6.69481
G1 X104.084 Y104.018 E7.74770
G1 X103.184 Y104.018 E7.83111
G1 X111.221 Y95.982 E8.88400
G1 X110.321 Y95.982 E8.96740
G1 X102.284 Y104.018 E10.02030
G1 X101.383 Y104.018 E10.10370
G1 X109.420 Y95.982 E11.15659
G1 X108.520 Y95.982 E11.24000
G1 X100.483 Y104.018 E12.29289
G1 X99.583 Y104.018 E12.37629
G1 X107.620 Y95.982 E13.42918
G1 X106.719 Y95.982 E13.51259
G1 X98.682 Y104.018 E14.56548
G1 X97.782 Y104.018 E14.64889
G1 X105.819 Y95.982 E15.70178
G1 X104.919 Y95.982 E15.78518
G1 X96.882 Y104.018 E16.83807
G1 X95.981 Y104.018 E16.92148
G1 X104.018 Y95.982 E17.97437
G1 X103.118 Y95.982 E18.05777
G1 X95.081 Y104.018 E19.11067
G1 X94.181 Y104.018 E19.19407
G1 X102.218 Y95.982 E20.24696
G1 X101.317 Y95.982 E20.33037
G1 X93.280 Y104.018 E21.38326
G1 X92.380 Y104.018 E21.46666
G1 X100.417 Y95.982 E22.51955
G1 X99.517 Y95.982 E22.60296
G1 X91.480 Y104.018 E23.65585
G1 X90.579 Y104.018 E23.73926
G1 X98.616 Y95.982 E24.79215
G1 X97.716 Y95.982 E24.87555
G1 X89.679 Y104.018 E25.92844
G1 X88.779 Y104.018 E26.01185
G1 X96.816 Y95.982 E27.06474
G1 X95.915 Y95.982 E27.14814
G1 X87.879 Y104.018 E28.20104
G1 X87.325 Y104.018 E28.25231
G1 X87.840 Y103.434 E28.32443
G1 X88.221 Y102.834 E28.39026
G1 X88.273 Y102.724 E28.40157
G1 X95.015 Y95.982 E29.28488
G1 X94.115 Y95.982 E29.36828
G1 X88.776 Y101.320 E30.06763
G1 X88.885 Y100.311 E30.16164
G1 X93.214 Y95.982 E30.72880
G1 X92.314 Y95.982 E30.81220
G1 X88.819 Y99.477 E31.27007
G1 X88.796 Y99.234 E31.29263
G1 X88.653 Y98.742 E31.34009
G1 X91.414 Y95.982 E31.70173
G1 X90.513 Y95.982 E31.78514
G1 X88.419 Y98.076 E32.05949
G1 X88.115 Y97.479 E32.12150
G1 X89.613 Y95.982 E32.31772
G1 X88.713 Y95.982 E32.40112
G1 X87.748 Y96.947 E32.52754
G1 X87.652 Y96.814 E32.54269
G1 X87.326 Y96.468 E32.58672
G1 X87.812 Y95.982 E32.65041
G1 X85.840 Y95.671 F7800.000
G1 F1800
G1 X85.305 Y95.561 E32.69383
G1 F1800
G1 X84.979 Y95.514 E32.71646
G1 F1800
G1 X84.652 Y95.468 E32.73464
G1 F1800
G1 X84.065 Y95.430 E32.75915
G1 F1800
G1 X83.164 Y95.443 E32.78667
G1 F1800
G1 X82.779 Y95.479 E32.80196
G1 F1800
G1 X82.553 Y95.502 E32.81334
G1 F1800
G1 X82.118 Y95.578 E32.83920
G1 F1800
G1 X81.683 Y95.654 E32.87136
G1 X80.217 Y95.912 F7800.000
G1 F1800
G1 X79.934 Y96.626 E32.88198
G1 X79.605 Y97.542 F7800.000
G1 F1800
G1 X79.433 Y98.484 E32.92039
G1 F1800
G1 X79.385 Y98.819 E32.93099
G1 F1800
G1 X79.337 Y99.153 E32.93691
G1 F1800
G1 X79.327 Y99.359 E32.93767
G1 X79.327 Y100.641 F7800.000
G1 F1800
G1 X79.337 Y100.847 E32.93842
G1 F1800
G1 X79.385 Y101.181 E32.94434
G1 F1800
G1 X79.433 Y101.516 E32.95494
G1 F1800
G1 X79.607 Y102.468 E32.99376
G1 E30.99376 F2400.00000
G92 E0
G1 X81.660 Y104.329 F7800.000
G1 E2.00000 F2400.00000
G1 F1800
G1 X82.199 Y104.440 E2.04150
G1 F1800
G1 X82.533 Y104.487 E2.06230
G1 F1800
G1 X82.868 Y104.535 E2.07842
G1 F1800
G1 X83.319 Y104.558 E2.09644
G1 F1800
G1 X83.763 Y104.578 E2.10904
G1 F1800
G1 X84.632 Y104.535 E2.14454
G1 F1800
G1 X84.967 Y104.487 E2.16300
G1 F1800
G1 X85.301 Y104.440 E2.18614
G1 F1800
G1 X85.840 Y104.329 E2.22988
G1 E0.22988 F2400.00000
G92 E0
G1 X112.831 Y96.234 F7800.000
G1 E2.00000 F2400.00000
G1 F1800
G1 X113.133 Y95.912 E2.00423
G1 X114.183 Y95.654 F7800.000
G1 F1800
G1 X114.618 Y95.578 E2.03638
G1 F1800
G1 X115.053 Y95.502 E2.06224
G1 F1800
G1 X115.279 Y95.479 E2.07362
G1 F1800
G1 X115.664 Y95.443 E2.08892
G1 F1800
G1 X116.565 Y95.430 E2.11643
G1 F1800
G1 X117.153 Y95.468 E2.14095
G1 F1800
G1 X117.479 Y95.514 E2.15912
G1 F1800
G1 X117.805 Y95.561 E2.18175
G1 F1800
G1 X118.340 Y95.671 E2.22517
G1 E0.22517 F2400.00000
G92 E0
G1 X120.397 Y97.522 F7800.000
G1 E2.00000 F2400.00000
G1 F1800
G1 X120.546 Y98.338 E2.03222
G1 F1800
G1 X120.593 Y98.664 E2.04234
G1 F1800
G1 X120.639 Y98.990 E2.04800
G1 F1800
G1 X120.673 Y99.359 E2.04926
G1 X120.673 Y100.641 F7800.000
G1 F1800
G1 X120.640 Y101.011 E2.05042
G1 F1800
G1 X120.593 Y101.384 E2.05682
G1 F1800
G1 X120.576 Y101.483 E2.05927
G1 F1800
G1 X120.561 Y101.569 E2.06221
G1 X120.480 Y101.706 E2.06749
G1 F1800
G1 X120.377 Y101.863 E2.07214
G1 F1800
G1 X120.182 Y102.159 E2.07814
G1 F1800
G1 X120.127 Y102.232 E2.07837
