; generated by Slic3r 1.3.0-dev on 2018-01-27 at 16:40:40

; external perimeters extrusion width = 0.50mm (1.96mm^3/s)
; perimeters extrusion width = 0.72mm (5.89mm^3/s)
; infill extrusion width = 0.72mm (7.85mm^3/s)
; solid infill extrusion width = 0.72mm (3.93mm^3/s)
; top infill extrusion width = 0.72mm (2.95mm^3/s)
; support material extrusion width = 0.50mm (6.53mm^3/s)

M190 S65 ; set bed temperature and wait for it to be reached
M104 S220 ; set temperature
G28 ; home all axes
G1 Z5 F5000 ; lift nozzle

; Filament gcode

M109 S220 ; set temperature and wait for it to be reached
G21 ; set units to millimeters
G90 ; use absolute coordinates
M82 ; use absolute distances for extrusion
G92 E0
G1 Z0.350 F7800.000
G1 E-2.00000 F2400.00000
G92 E0
G1 X83.675 Y85.309 F7800.000
G1 E2.00000 F2400.00000
G1 F1800
G1 X85.466 Y83.562 E2.22750
G1 X87.714 Y82.464 E2.45500
G1 X90.000 Y82.125 E2.66512
G1 X110.000 Y82.125 E4.48371
G1 X112.470 Y82.523 E4.71121
G1 X114.691 Y83.675 E4.93871
G1 X116.438 Y85.466 E5.16621
G1 X117.536 Y87.714 E5.39371
G1 X117.875 Y90.000 E5.60383
G1 X117.875 Y110.000 E7.42242
G1 X117.477 Y112.470 E7.64992
G1 X116.325 Y114.691 E7.87742
G1 X114.534 Y116.438 E8.10492
G1 X112.286 Y117.536 E8.33243
G1 X110.000 Y117.875 E8.54254
G1 X90.000 Y117.875 E10.36113
G1 X87.530 Y117.477 E10.58863
G1 X85.309 Y116.325 E10.81614
G1 X83.562 Y114.534 E11.04364
G1 X82.464 Y112.286 E11.27114
G1 X82.125 Y110.000 E11.48125
G1 X82.125 Y90.000 E13.29985
G1 X82.523 Y87.530 E13.52735
G1 X83.641 Y85.376 E13.74803
G1 X84.296 Y85.526 F7800.000
G1 F1800
G1 X86.069 Y83.909 E13.96626
G1 X88.273 Y82.959 E14.18448
G1 X90.000 Y82.750 E14.34265
G1 X110.000 Y82.750 E16.16125
G1 X112.367 Y83.147 E16.37947
G1 X114.474 Y84.296 E16.59770
G1 X116.091 Y86.069 E16.81593
G1 X117.041 Y88.273 E17.03416
G1 X117.250 Y90.000 E17.19233
G1 X117.250 Y110.000 E19.01092
G1 X116.853 Y112.367 E19.22915
G1 X115.704 Y114.474 E19.44737
G1 X113.931 Y116.091 E19.66560
G1 X111.727 Y117.041 E19.88383
G1 X110.000 Y117.250 E20.04200
G1 X90.000 Y117.250 E21.86059
G1 X87.633 Y116.853 E22.07882
G1 X85.526 Y115.704 E22.29705
G1 X83.909 Y113.931 E22.51528
G1 X82.959 Y111.727 E22.73350
G1 X82.750 Y110.000 E22.89167
G1 X82.750 Y90.000 E24.71027
G1 X83.147 Y87.633 E24.92849
G1 X84.260 Y85.592 E25.13990
G1 X84.915 Y85.753 F7800.000
G1 F1800
G1 X86.668 Y84.274 E25.34844
G1 X88.820 Y83.481 E25.55699
G1 X90.000 Y83.375 E25.66469
G1 X110.000 Y83.375 E27.48329
G1 X112.259 Y83.772 E27.69183
G1 X114.247 Y84.915 E27.90037
G1 X115.726 Y86.668 E28.10891
G1 X116.519 Y88.820 E28.31746
G1 X116.625 Y90.000 E28.42516
G1 X116.625 Y110.000 E30.24376
G1 X116.228 Y112.259 E30.45230
G1 X115.085 Y114.247 E30.66084
G1 X113.332 Y115.726 E30.86938
G1 X111.180 Y116.519 E31.07793
G1 X110.000 Y116.625 E31.18564
G1 X90.000 Y116.625 E33.00423
G1 X87.741 Y116.228 E33.21277
G1 X85.753 Y115.085 E33.42131
G1 X84.274 Y113.332 E33.62985
G1 X83.481 Y111.180 E33.83840
G1 X83.375 Y110.000 E33.94611
G1 X83.375 Y90.000 E35.76470
G1 X83.772 Y87.741 E35.97324
G1 X84.878 Y85.818 E36.17496
G1 E34.17496 F2400.00000
G92 E0
G1 X104.928 Y103.155 F7800.000
G1 E2.00000 F2400.00000
G1 F1800
G1 X104.308 Y103.636 E2.07142
G1 X103.585 Y104.004 E2.14513
G1 X102.807 Y104.231 E2.21884
G1 X102.000 Y104.307 E2.29255
G1 X101.193 Y104.231 E2.36625
G1 X100.415 Y104.004 E2.43997
G1 X99.715 Y103.648 E2.51137
G1 X99.257 Y103.316 E2.56280
G1 X98.845 Y102.928 E2.61423
G1 X98.364 Y102.308 E2.68565
G1 X97.996 Y101.585 E2.75936
G1 X97.769 Y100.807 E2.83307
G1 X97.693 Y100.000 E2.90678
G1 X97.769 Y99.193 E2.98049
G1 X97.996 Y98.415 E3.05420
G1 X98.364 Y97.692 E3.12791
G1 X98.860 Y97.052 E3.20162
G1 X99.468 Y96.516 E3.27533
G1 X100.166 Y96.103 E3.34904
G1 X100.905 Y95.837 E3.42045
G1 X101.460 Y95.731 E3.47184
G1 X102.018 Y95.696 E3.52263
G1 X102.806 Y95.769 E3.59461
G1 X103.585 Y95.996 E3.66842
G1 X104.308 Y96.364 E3.74213
G1 X104.928 Y96.845 E3.81354
G1 X105.316 Y97.257 E3.86498
G1 X105.648 Y97.715 E3.91641
G1 X106.004 Y98.415 E3.98782
G1 X106.231 Y99.193 E4.06153
G1 X106.307 Y100.000 E4.13524
G1 X106.231 Y100.807 E4.20895
G1 X106.004 Y101.585 E4.28266
G1 X105.648 Y102.285 E4.35407
G1 X105.316 Y102.743 E4.40549
G1 X104.980 Y103.100 E4.45011
G1 X104.506 Y102.691 F7800.000
G1 F1800
G1 X103.971 Y103.107 E4.51168
G1 X103.354 Y103.421 E4.57465
G1 X102.689 Y103.614 E4.63762
G1 X102.000 Y103.679 E4.70058
G1 X101.311 Y103.614 E4.76355
G1 X100.646 Y103.421 E4.82652
G1 X100.042 Y103.113 E4.88808
G1 X99.656 Y102.833 E4.93146
G1 X99.309 Y102.506 E4.97485
G1 X98.894 Y101.971 E5.03642
G1 X98.579 Y101.354 E5.09939
G1 X98.386 Y100.689 E5.16236
G1 X98.321 Y100.000 E5.22532
G1 X98.386 Y99.311 E5.28829
G1 X98.579 Y98.646 E5.35126
G1 X98.894 Y98.029 E5.41423
G1 X99.318 Y97.481 E5.47720
G1 X99.837 Y97.023 E5.54016
G1 X100.433 Y96.671 E5.60313
G1 X101.070 Y96.442 E5.66469
G1 X101.539 Y96.352 E5.70806
G1 X102.008 Y96.322 E5.75084
G1 X102.689 Y96.386 E5.81296
G1 X103.354 Y96.579 E5.87599
G1 X103.971 Y96.893 E5.93896
G1 X104.506 Y97.308 E6.00053
G1 X104.833 Y97.656 E6.04392
G1 X105.114 Y98.042 E6.08730
G1 X105.421 Y98.646 E6.14886
G1 X105.614 Y99.311 E6.21183
G1 X105.679 Y100.000 E6.27480
G1 X105.614 Y100.689 E6.33777
G1 X105.421 Y101.354 E6.40074
G1 X105.113 Y101.958 E6.46230
G1 X104.833 Y102.344 E6.50568
G1 X104.558 Y102.637 E6.54225
G1 X104.085 Y102.228 F7800.000
G1 F1800
G1 X103.635 Y102.577 E6.59398
G1 X103.123 Y102.837 E6.64620
G1 X102.572 Y102.998 E6.69843
G1 X102.000 Y103.052 E6.75065
G1 X101.428 Y102.998 E6.80287
G1 X100.877 Y102.837 E6.85510
G1 X100.370 Y102.579 E6.90682
G1 X100.055 Y102.351 E6.94216
G1 X99.772 Y102.085 E6.97750
G1 X99.423 Y101.635 E7.02923
G1 X99.163 Y101.123 E7.08145
G1 X99.002 Y100.572 E7.13368
G1 X98.948 Y100.000 E7.18590
G1 X99.002 Y99.428 E7.23813
G1 X99.163 Y98.877 E7.29035
G1 X99.423 Y98.365 E7.34258
G1 X99.776 Y97.911 E7.39481
G1 X100.206 Y97.531 E7.44703
G1 X100.701 Y97.239 E7.49925
G1 X101.236 Y97.046 E7.55097
G1 X101.618 Y96.973 E7.58631
G1 X101.999 Y96.949 E7.62108
G1 X102.572 Y97.002 E7.67335
G1 X103.123 Y97.163 E7.72560
G1 X103.635 Y97.423 E7.77782
G1 X104.085 Y97.772 E7.82955
G1 X104.351 Y98.055 E7.86489
G1 X104.579 Y98.370 E7.90022
G1 X104.837 Y98.877 E7.95194
G1 X104.998 Y99.428 E8.00417
G1 X105.052 Y100.000 E8.05640
G1 X104.998 Y100.572 E8.10862
G1 X104.837 Y101.123 E8.16085
G1 X104.579 Y101.630 E8.21257
G1 X104.351 Y101.945 E8.24790
G1 X104.136 Y102.173 E8.27642
G1 X104.085 Y102.228 F7800.000
G1 E6.27642 F2400.00000
G92 E0
G1 X108.400 Y108.400 F7800.000
G1 E2.00000 F2400.00000
G1 F1800
G1 X91.600 Y108.400 E3.52766
G1 X91.600 Y91.600 E5.05531
G1 X108.400 Y91.600 E6.58297
G1 X108.400 Y108.325 E8.10381
G1 X109.025 Y109.025 F7800.000
G1 F1800
G1 X90.975 Y109.025 E9.74511
G1 X90.975 Y90.975 E11.38641
G1 X109.025 Y90.975 E13.02771
G1 X109.025 Y108.950 E14.66219
G1 X109.650 Y109.650 F7800.000
G1 F1800
G1 X90.350 Y109.650 E16.41713
G1 X90.350 Y90.350 E18.17207
G1 X109.650 Y90.350 E19.92701
G1 X109.650 Y109.575 E21.67513
G1 X109.167 Y109.521 F7800.000
G1 E19.67513 F2400.00000
G92 E0
G1 X107.532 Y108.018 F7800.000
G1 E2.00000 F2400.00000
G1 F1800
G1 X108.018 Y107.532 E2.06287
G1 X108.018 Y106.644 E2.14411
G1 X106.644 Y108.018 E2.32188
G1 X105.755 Y108.018 E2.40312
G1 X108.018 Y105.755 E2.69579
G1 X108.018 Y104.866 E2.77703
G1 X104.866 Y108.018 E3.18460
G1 X103.978 Y108.018 E3.26584
G1 X108.018 Y103.978 E3.78831
G1 X108.018 Y103.089 E3.86955
G1 X103.089 Y108.018 E4.50692
G1 X102.201 Y108.018 E4.58816
G1 X108.018 Y102.201 E5.34042
G1 X108.018 Y101.312 E5.42167
G1 X101.312 Y108.018 E6.28883
G1 X100.423 Y108.018 E6.37008
G1 X104.135 Y104.306 E6.85005
G1 X104.060 Y104.345 E6.85784
G1 X103.168 Y104.604 E6.94276
G1 X102.926 Y104.627 E6.96493
G1 X99.535 Y108.018 E7.40345
G1 X98.646 Y108.018 E7.48470
G1 X101.996 Y104.668 E7.91789
G1 X101.318 Y104.604 E7.98015
G1 X101.205 Y104.571 E7.99096
G1 X97.758 Y108.018 E8.43670
G1 X96.869 Y108.018 E8.51795
G1 X100.516 Y104.371 E8.98956
G1 X100.427 Y104.345 E8.99810
G1 X99.915 Y104.084 E9.05064
G1 X95.980 Y108.018 E9.55934
G1 X95.092 Y108.018 E9.64059
G1 X99.364 Y103.746 E10.19303
G1 X99.101 Y103.555 E10.22274
G1 X98.877 Y103.344 E10.25086
G1 X94.203 Y108.018 E10.85521
G1 X93.315 Y108.018 E10.93646
G1 X98.450 Y102.883 E11.60052
G1 X98.065 Y102.379 E11.65848
G1 X92.426 Y108.018 E12.38768
G1 X91.982 Y108.018 E12.42830
G1 X91.982 Y107.574 E12.46892
G1 X97.765 Y101.790 E13.21679
G1 X97.655 Y101.573 E13.23904
G1 X97.529 Y101.139 E13.28045
G1 X91.982 Y106.685 E13.99770
G1 X91.982 Y105.797 E14.07894
G1 X97.370 Y100.408 E14.77568
G1 X97.308 Y99.757 E14.83552
G1 X97.327 Y99.563 E14.85332
G1 X91.982 Y104.908 E15.54447
G1 X91.982 Y104.020 E15.62571
G1 X97.489 Y98.513 E16.33780
G1 X97.655 Y97.940 E16.39228
G1 X98.077 Y97.113 E16.47720
G1 X98.342 Y96.770 E16.51683
G1 X91.982 Y103.131 E17.33928
G1 X91.982 Y102.242 E17.42053
G1 X102.242 Y91.982 E18.74729
G1 X101.354 Y91.982 E18.82854
G1 X91.982 Y101.354 E20.04040
G1 X91.982 Y100.465 E20.12165
G1 X100.465 Y91.982 E21.21861
G1 X99.577 Y91.982 E21.29986
G1 X91.982 Y99.577 E22.28193
G1 X91.982 Y98.688 E22.36317
G1 X98.688 Y91.982 E23.23034
G1 X97.799 Y91.982 E23.31158
G1 X91.982 Y97.799 E24.06385
G1 X91.982 Y96.911 E24.14510
G1 X96.911 Y91.982 E24.78247
G1 X96.022 Y91.982 E24.86371
G1 X91.982 Y96.022 E25.38618
G1 X91.982 Y95.134 E25.46743
G1 X95.134 Y91.982 E25.87500
G1 X94.245 Y91.982 E25.95624
G1 X91.982 Y94.245 E26.24891
G1 X91.982 Y93.356 E26.33016
G1 X93.356 Y91.982 E26.50793
G1 X92.468 Y91.982 E26.58917
G1 X91.982 Y92.468 E26.65202
G1 E24.65202 F2400.00000
G92 E0
G1 X97.856 Y97.256 F7800.000
G1 E2.00000 F2400.00000
G1 F1800
G1 X98.160 Y96.865 E2.04529
G1 X98.870 Y96.243 E2.13156
G1 X103.131 Y91.982 E2.68260
G1 X104.020 Y91.982 E2.76384
G1 X100.533 Y95.469 E3.21471
G1 X101.139 Y95.353 E3.27110
G1 X101.564 Y95.326 E3.31006
G1 X104.908 Y91.982 E3.74250
G1 X105.797 Y91.982 E3.82374
G1 X102.408 Y95.370 E4.26189
G1 X102.680 Y95.395 E4.28683
G1 X103.139 Y95.529 E4.33049
G1 X106.685 Y91.982 E4.78912
G1 X107.574 Y91.982 E4.87037
G1 X103.790 Y95.765 E5.35963
G1 X104.379 Y96.065 E5.42004
G1 X108.018 Y92.426 E5.89063
G1 X108.018 Y93.315 E5.97187
G1 X104.883 Y96.450 E6.37733
G1 X105.107 Y96.624 E6.40329
G1 X105.344 Y96.877 E6.43500
G1 X108.018 Y94.203 E6.78074
G1 X108.018 Y95.092 E6.86199
G1 X105.746 Y97.364 E7.15582
G1 X105.939 Y97.630 E7.18590
G1 X106.084 Y97.915 E7.21507
G1 X108.018 Y95.980 E7.46517
G1 X108.018 Y96.869 E7.54641
G1 X106.371 Y98.516 E7.75941
G1 X106.571 Y99.205 E7.82497
G1 X108.018 Y97.758 E8.01210
G1 X108.018 Y98.646 E8.09335
G1 X106.668 Y99.996 E8.26793
G1 X106.692 Y100.243 E8.29058
G1 X106.627 Y100.926 E8.35332
G1 X108.018 Y99.535 E8.53323
G1 X108.018 Y100.423 E8.61448
G1 X106.306 Y102.135 E8.83585
G1 Z0.350 F7800.000
M104 S205 ; set temperature
M140 S60 ; set bed temperature
G1 Z0.650 F7800.000
G1 X104.443 Y103.362 F7800.000
G1 F900
G1 X103.770 Y103.760 E8.89969
G1 X103.034 Y104.025 E8.96355
G1 X102.261 Y104.148 E9.02742
G1 X101.479 Y104.123 E9.09127
G1 X100.738 Y103.958 E9.15325
G1 X100.232 Y103.757 E9.19770
G1 X99.755 Y103.495 E9.24212
G1 X99.155 Y103.030 E9.30411
G1 X98.638 Y102.443 E9.36797
G1 X98.240 Y101.770 E9.43182
G1 X97.975 Y101.034 E9.49567
G1 X97.852 Y100.261 E9.55954
G1 X97.877 Y99.479 E9.62339
G1 X98.047 Y98.716 E9.68724
G1 X98.358 Y97.998 E9.75110
G1 X98.785 Y97.370 E9.81308
G1 X99.157 Y96.973 E9.85752
G1 X99.577 Y96.626 E9.90196
G1 X100.230 Y96.240 E9.96394
G1 X100.966 Y95.975 E10.02779
G1 X101.716 Y95.856 E10.08978
G1 X102.261 Y95.856 E10.13421
G1 X102.801 Y95.924 E10.17865
G1 X103.530 Y96.136 E10.24063
G1 X104.227 Y96.491 E10.30448
G1 X104.845 Y96.970 E10.36835
G1 X105.362 Y97.557 E10.43220
G1 X105.760 Y98.230 E10.49605
G1 X106.025 Y98.966 E10.55991
G1 X106.148 Y99.739 E10.62377
G1 X106.123 Y100.521 E10.68762
G1 X105.958 Y101.262 E10.74961
G1 X105.757 Y101.768 E10.79405
G1 X105.495 Y102.245 E10.83847
G1 X105.030 Y102.845 E10.90047
G1 X104.499 Y103.313 E10.95820
G1 X104.056 Y102.830 F7800.000
G1 F900
G1 X103.490 Y103.166 E11.01194
G1 X102.870 Y103.389 E11.06570
G1 X102.220 Y103.492 E11.11947
G1 X101.562 Y103.471 E11.17322
G1 X100.931 Y103.330 E11.22594
G1 X100.511 Y103.164 E11.26282
G1 X100.115 Y102.946 E11.29968
G1 X99.605 Y102.550 E11.35241
G1 X99.170 Y102.056 E11.40617
G1 X98.834 Y101.490 E11.45992
G1 X98.611 Y100.870 E11.51367
G1 X98.508 Y100.220 E11.56743
G1 X98.529 Y99.562 E11.62119
G1 X98.673 Y98.919 E11.67494
G1 X98.934 Y98.315 E11.72869
G1 X99.297 Y97.780 E11.78142
G1 X99.606 Y97.451 E11.81829
G1 X99.954 Y97.163 E11.85517
G1 X100.510 Y96.834 E11.90789
G1 X101.130 Y96.611 E11.96164
G1 X101.768 Y96.510 E12.01438
G1 X102.220 Y96.510 E12.05124
G1 X102.668 Y96.567 E12.08811
G1 X103.288 Y96.747 E12.14084
G1 X103.875 Y97.046 E12.19459
G1 X104.395 Y97.450 E12.24835
G1 X104.830 Y97.944 E12.30211
G1 X105.166 Y98.510 E12.35585
G1 X105.389 Y99.130 E12.40961
G1 X105.492 Y99.780 E12.46337
G1 X105.471 Y100.438 E12.51712
G1 X105.330 Y101.069 E12.56985
G1 X105.164 Y101.489 E12.60673
G1 X104.946 Y101.885 E12.64359
G1 X104.550 Y102.395 E12.69632
G1 X104.113 Y102.781 E12.74395
G1 X103.735 Y102.387 F7800.000
G1 F900
G1 X103.257 Y102.670 E12.77413
G1 X102.734 Y102.858 E12.80431
G1 X102.185 Y102.945 E12.83449
G1 X101.630 Y102.928 E12.86467
G1 X101.092 Y102.808 E12.89463
G1 X100.744 Y102.670 E12.91498
G1 X100.416 Y102.489 E12.93532
G1 X99.980 Y102.151 E12.96529
G1 X99.612 Y101.735 E12.99547
G1 X99.330 Y101.257 E13.02565
G1 X99.142 Y100.734 E13.05583
G1 X99.055 Y100.185 E13.08601
G1 X99.072 Y99.630 E13.11619
G1 X99.193 Y99.088 E13.14637
G1 X99.414 Y98.578 E13.17654
G1 X99.724 Y98.122 E13.20651
G1 X99.980 Y97.849 E13.22685
G1 X100.269 Y97.610 E13.24720
G1 X100.743 Y97.330 E13.27716
G1 X101.266 Y97.142 E13.30734
G1 X101.811 Y97.055 E13.33731
G1 X102.185 Y97.055 E13.35765
G1 X102.557 Y97.102 E13.37800
G1 X103.086 Y97.256 E13.40796
G1 X103.581 Y97.508 E13.43814
G1 X104.020 Y97.849 E13.46832
G1 X104.387 Y98.265 E13.49850
G1 X104.670 Y98.743 E13.52868
G1 X104.858 Y99.266 E13.55886
G1 X104.945 Y99.815 E13.58904
G1 X104.928 Y100.370 E13.61922
G1 X104.808 Y100.908 E13.64918
G1 X104.670 Y101.256 E13.66953
G1 X104.489 Y101.584 E13.68987
G1 X104.151 Y102.020 E13.71984
G1 X103.791 Y102.338 E13.74594
G1 X103.735 Y102.387 F7800.000
G1 X108.550 Y108.550 F7800.000
G1 F1800
G1 X91.450 Y108.550 E15.14193
G1 X91.450 Y91.450 E16.53792
G1 X108.550 Y91.450 E17.93392
G1 X108.550 Y108.475 E19.32378
G1 X109.205 Y109.205 F7800.000
G1 F1800
G1 X90.795 Y109.205 E20.82663
G1 X90.795 Y90.795 E22.32948
G1 X109.205 Y90.795 E23.83233
G1 X109.205 Y109.130 E25.32905
G1 X109.750 Y109.750 F7800.000
G1 F900
G1 X90.250 Y109.750 E26.38854
G1 X90.250 Y90.250 E27.44803
G1 X109.750 Y90.250 E28.50752
G1 X109.750 Y109.675 E29.56294
G1 X109.267 Y109.621 F7800.000
G1 X99.150 Y103.795 F7800.000
G1 F1200
G1 X103.506 Y108.151 E30.06761
G1 X104.435 Y108.151 E30.14371
G1 X100.708 Y104.424 E30.57547
G1 X101.142 Y104.521 E30.61190
G1 X101.753 Y104.540 E30.66200
G1 X105.364 Y108.151 E31.08030
G1 X106.293 Y108.151 E31.15640
G1 X102.604 Y104.461 E31.58383
G1 X102.943 Y104.408 E31.61196
G1 X103.337 Y104.266 E31.64628
G1 X107.222 Y108.151 E32.09638
G1 X108.151 Y108.151 E32.17248
G1 X103.987 Y103.987 E32.65486
G1 X104.571 Y103.642 E32.71042
G1 X108.151 Y107.222 E33.12517
G1 X108.151 Y106.293 E33.20127
G1 X105.065 Y103.207 E33.55875
G1 X105.254 Y103.041 E33.57940
G1 X105.505 Y102.718 E33.61286
G1 X108.151 Y105.364 E33.91942
G1 X108.151 Y104.435 E33.99553
G1 X105.888 Y102.172 E34.25771
G1 X106.096 Y101.793 E34.29315
G1 X106.193 Y101.548 E34.31470
G1 X108.151 Y103.506 E34.54152
G1 X108.151 Y102.577 E34.61762
G1 X106.412 Y100.838 E34.81910
G1 X106.521 Y100.349 E34.86017
G1 X106.531 Y100.028 E34.88642
G1 X108.151 Y101.648 E35.07406
G1 X108.151 Y100.719 E35.15016
G1 X106.488 Y99.057 E35.34276
G1 X106.408 Y98.548 E35.38494
G1 X106.126 Y97.765 E35.45312
G1 X108.151 Y99.790 E35.68772
G1 X108.151 Y98.861 E35.76382
G1 X101.139 Y91.849 E36.57621
G1 X102.068 Y91.849 E36.65231
G1 X108.151 Y97.932 E37.35707
G1 X108.151 Y97.003 E37.43317
G1 X102.997 Y91.849 E38.03030
G1 X103.926 Y91.849 E38.10641
