; generated by Slic3r 1.2.9 on 2017-05-18 at 21:46:33

; external perimeters extrusion width = 0.50mm
; perimeters extrusion width = 0.72mm
; infill extrusion width = 0.72mm
; solid infill extrusion width = 0.72mm
; top infill extrusion width = 0.72mm

M107
M190 S60 ; set bed temperature
M104 S200 ; set temperature
G28 X0 Y0
G28 Z0
G1 Z0.3 F200
G1 X15 Y20 F12000
M109 S200 ; wait for temperature to be reached
G21 ; set units to millimeters
G90 ; use absolute coordinates
M82 ; use absolute distances for extrusion
G92 E0
G1 E-3.20000 F2760.00000
G92 E0
G1 Z0.350 F7800.000
G1 X72.016 Y75.112 F7800.000
G1 E3.20000 F2760.00000
G1 X74.264 Y74.014 E3.40475 F600.000
G1 X76.550 Y73.675 E3.59386
G1 X141.450 Y73.675 E8.90505
G1 X143.920 Y74.073 E9.10980
G1 X146.141 Y75.225 E9.31455 F600.000
G1 X147.888 Y77.016 E9.51931
G1 X148.986 Y79.264 E9.72406
G1 X149.325 Y81.550 E9.91316
G1 X149.325 Y136.450 E14.40599
G1 X148.927 Y138.920 E14.61074
G1 X147.775 Y141.141 E14.81549
G1 X145.984 Y142.888 E15.02024
G1 X143.736 Y143.986 E15.22499
G1 X141.450 Y144.325 E15.41410
G1 X76.550 Y144.325 E20.72530
G1 X74.080 Y143.927 E20.93005
G1 X71.859 Y142.775 E21.13480
G1 X70.112 Y140.984 E21.33955
G1 X69.014 Y138.736 E21.54430
G1 X68.675 Y136.450 E21.73340
G1 X68.675 Y81.550 E26.22624
G1 X69.073 Y79.080 E26.43099
G1 X70.225 Y76.859 E26.63574
G1 X71.962 Y75.164 E26.83435
G1 X72.407 Y75.652 F7800.000
G1 X72.619 Y75.459 E26.85783 F600.000
G1 X74.823 Y74.509 E27.05424
G1 X76.550 Y74.300 E27.19659
G1 X141.450 Y74.300 E32.50779
G1 X143.817 Y74.697 E32.70420
G1 X145.924 Y75.846 E32.90060 F600.000
G1 X147.541 Y77.619 E33.09700
G1 X148.491 Y79.823 E33.29341
G1 X148.700 Y81.550 E33.43576
G1 X148.700 Y136.450 E37.92859
G1 X148.303 Y138.817 E38.12500
G1 X147.154 Y140.924 E38.32140
G1 X145.381 Y142.541 E38.51781
G1 X143.177 Y143.491 E38.71421
G1 X141.450 Y143.700 E38.85657
G1 X76.550 Y143.700 E44.16776
G1 X74.183 Y143.303 E44.36417
G1 X72.076 Y142.154 E44.56057
G1 X70.459 Y140.381 E44.75698
G1 X69.509 Y138.177 E44.95338
G1 X69.300 Y136.450 E45.09574
G1 X69.300 Y81.550 E49.58857
G1 X69.697 Y79.183 E49.78497
G1 X70.846 Y77.076 E49.98138
G1 X72.352 Y75.702 E50.14816
G1 X72.772 Y76.201 F7800.000
G1 X73.218 Y75.824 E50.19595 F600.000
G1 X75.370 Y75.031 E50.38364
G1 X76.550 Y74.925 E50.48058
G1 X141.450 Y74.925 E55.79177
G1 X143.709 Y75.322 E55.97946
G1 X145.697 Y76.465 E56.16715 F600.000
G1 X147.176 Y78.218 E56.35484
G1 X147.969 Y80.370 E56.54253
G1 X148.075 Y81.550 E56.63946
G1 X148.075 Y136.450 E61.13230
G1 X147.678 Y138.709 E61.31998
G1 X146.535 Y140.697 E61.50767
G1 X144.782 Y142.176 E61.69536
G1 X142.630 Y142.969 E61.88305
G1 X141.450 Y143.075 E61.97999
G1 X76.550 Y143.075 E67.29118
G1 X74.291 Y142.678 E67.47887
G1 X72.303 Y141.535 E67.66656
G1 X70.824 Y139.782 E67.85425
G1 X70.031 Y137.630 E68.04194
G1 X69.925 Y136.450 E68.13887
G1 X69.925 Y81.550 E72.63170
G1 X70.322 Y79.291 E72.81939
G1 X71.465 Y77.303 E73.00708
G1 X72.715 Y76.249 E73.14084
G1 E69.94084 F2760.00000
G92 E0
G1 X76.900 Y81.900 F7800.000
G1 E3.20000 F2760.00000
G1 X141.100 Y81.900 E8.45391 F600.000
G1 X141.100 Y136.100 E12.88946
G1 X76.900 Y136.100 E18.14337 F600.000
G1 X76.900 Y81.975 E22.57277
G1 X77.333 Y82.150 F7800.000
G1 X77.525 Y82.525 F7800.000
G1 X140.475 Y82.525 E27.72441 F600.000
G1 X140.475 Y135.475 E32.05767
G1 X77.525 Y135.475 E37.20931 F600.000
G1 X77.525 Y82.600 E41.53644
G1 E38.33644 F2760.00000
G92 E0
G1 X106.047 Y134.850 F7800.000
G1 E3.20000 F2760.00000
G1 X78.150 Y134.850 E5.48300 F600.000
G1 X78.150 Y83.150 E9.71399
G1 X139.850 Y83.150 E14.76334
G1 X139.850 Y134.850 E18.99433
G1 X106.122 Y134.850 E21.75455 F600.000
G1 X123.691 Y111.145 F7800.000
G1 X123.317 Y110.815 E21.79540 F600.000
G1 X123.011 Y110.421 E21.83624
G1 X122.785 Y109.976 E21.87708
G1 X122.645 Y109.497 E21.91792
G1 X122.598 Y109.000 E21.95876
G1 X122.645 Y108.503 E21.99961
G1 X122.785 Y108.024 E22.04045
G1 X123.011 Y107.579 E22.08129
G1 X123.317 Y107.185 E22.12213
G1 X123.691 Y106.855 E22.16298
G1 X124.121 Y106.601 E22.20382
G1 X124.585 Y106.434 E22.24420
G1 X124.918 Y106.370 E22.27189
G1 X125.249 Y106.349 E22.29903 F600.000
G1 X125.747 Y106.395 E22.33995
G1 X126.226 Y106.535 E22.38082
G1 X126.671 Y106.761 E22.42167
G1 X127.065 Y107.067 E22.46250
G1 X127.395 Y107.441 E22.50335
G1 X127.649 Y107.871 E22.54419
G1 X127.816 Y108.335 E22.58458
G1 X127.880 Y108.668 E22.61228
G1 X127.901 Y109.006 E22.63997
G1 X127.855 Y109.497 E22.68036
G1 X127.715 Y109.976 E22.72120
G1 X127.489 Y110.421 E22.76204
G1 X127.183 Y110.815 E22.80288
G1 X126.809 Y111.145 E22.84373
G1 X126.379 Y111.399 E22.88457
G1 X125.915 Y111.566 E22.92495
G1 X125.582 Y111.630 E22.95265
G1 X125.250 Y111.651 E22.97990
G1 X124.918 Y111.630 E23.00714
G1 X124.585 Y111.566 E23.03484
G1 X124.121 Y111.399 E23.07522
G1 X123.756 Y111.183 E23.10992
G1 X123.229 Y111.334 F7800.000
G1 X123.438 Y111.721 F7800.000
G1 X123.322 Y111.653 E23.12090 F600.000
G1 X122.859 Y111.245 E23.17141
G1 X122.481 Y110.757 E23.22191
G1 X122.201 Y110.207 E23.27242
G1 X122.029 Y109.614 E23.32294
G1 X121.971 Y109.000 E23.37344
G1 X122.029 Y108.386 E23.42395
G1 X122.201 Y107.793 E23.47447
G1 X122.481 Y107.243 E23.52498
G1 X122.859 Y106.755 E23.57548
G1 X123.322 Y106.347 E23.62599
G1 X123.854 Y106.033 E23.67651
G1 X124.420 Y105.829 E23.72575
G1 X124.839 Y105.749 E23.76066
G1 X125.258 Y105.722 E23.79500 F600.000
G1 X125.864 Y105.779 E23.84480
G1 X126.457 Y105.951 E23.89538
G1 X127.007 Y106.231 E23.94589
G1 X127.495 Y106.609 E23.99640
G1 X127.903 Y107.072 E24.04691
G1 X128.217 Y107.604 E24.09743
G1 X128.421 Y108.170 E24.14667
G1 X128.501 Y108.589 E24.18161
G1 X128.528 Y109.015 E24.21655
G1 X128.471 Y109.614 E24.26579
G1 X128.299 Y110.207 E24.31630
G1 X128.019 Y110.757 E24.36681
G1 X127.641 Y111.245 E24.41732
G1 X127.178 Y111.653 E24.46783
G1 X126.646 Y111.967 E24.51834
G1 X126.080 Y112.171 E24.56758
G1 X125.661 Y112.251 E24.60253
G1 X125.250 Y112.277 E24.63620
G1 X124.839 Y112.251 E24.66988
G1 X124.420 Y112.171 E24.70482
G1 X123.854 Y111.967 E24.75406
G1 X123.502 Y111.759 E24.78747
G1 X123.184 Y112.297 F7800.000
G1 X122.954 Y112.161 E24.80941 F600.000
G1 X122.402 Y111.674 E24.86959
G1 X121.951 Y111.093 E24.92976
G1 X121.617 Y110.438 E24.98994
G1 X121.412 Y109.732 E25.05012
G1 X121.343 Y109.000 E25.11030
G1 X121.412 Y108.268 E25.17047
G1 X121.617 Y107.562 E25.23065
G1 X121.951 Y106.907 E25.29084
G1 X122.402 Y106.326 E25.35100
G1 X122.954 Y105.839 E25.41119
G1 X123.587 Y105.465 E25.47137
G1 X124.254 Y105.224 E25.52947
G1 X124.760 Y105.128 E25.57160
G1 X125.267 Y105.096 E25.61315 F600.000
G1 X125.981 Y105.162 E25.67181
G1 X126.688 Y105.367 E25.73211
G1 X127.343 Y105.701 E25.79229
G1 X127.924 Y106.152 E25.85246
G1 X128.411 Y106.704 E25.91264
G1 X128.785 Y107.337 E25.97283
G1 X129.026 Y108.004 E26.03093
G1 X129.122 Y108.511 E26.07311
G1 X129.155 Y109.025 E26.11531
G1 X129.088 Y109.732 E26.17340
G1 X128.883 Y110.438 E26.23358
G1 X128.549 Y111.093 E26.29376
G1 X128.098 Y111.674 E26.35392
G1 X127.546 Y112.161 E26.41411
G1 X126.913 Y112.535 E26.47429
G1 X126.246 Y112.776 E26.53239
G1 X125.739 Y112.872 E26.57457
G1 X125.250 Y112.903 E26.61469
G1 X124.761 Y112.872 E26.65480
G1 X124.254 Y112.776 E26.69698
G1 X123.587 Y112.535 E26.75508
G1 X123.249 Y112.335 E26.78719
G1 X95.380 Y109.332 F7800.000
G1 X95.316 Y109.665 E26.81488 F600.000
G1 X95.149 Y110.129 E26.85527
G1 X94.895 Y110.559 E26.89611
G1 X94.565 Y110.933 E26.93696
G1 X94.171 Y111.239 E26.97779
G1 X93.726 Y111.465 E27.01864
G1 X93.247 Y111.605 E27.05948
G1 X92.756 Y111.651 E27.09987
G1 X92.418 Y111.630 E27.12756
G1 X92.085 Y111.566 E27.15526
G1 X91.621 Y111.399 E27.19564
G1 X91.191 Y111.145 E27.23649
G1 X90.817 Y110.815 E27.27734
G1 X90.511 Y110.421 E27.31817
G1 X90.285 Y109.976 E27.35901
G1 X90.145 Y109.497 E27.39986
G1 X90.098 Y109.000 E27.44070
G1 X90.145 Y108.503 E27.48154
G1 X90.285 Y108.024 E27.52238
G1 X90.511 Y107.579 E27.56323
G1 X90.817 Y107.185 E27.60406
G1 X91.191 Y106.855 E27.64491
G1 X91.621 Y106.601 E27.68575
G1 X92.085 Y106.434 E27.72614
G1 X92.418 Y106.370 E27.75383
G1 X92.749 Y106.349 E27.78097 F600.000
G1 X93.247 Y106.395 E27.82189
G1 X93.726 Y106.535 E27.86276
G1 X94.171 Y106.761 E27.90360
G1 X94.565 Y107.067 E27.94444
G1 X94.895 Y107.441 E27.98529
G1 X95.149 Y107.871 E28.02613
G1 X95.316 Y108.335 E28.06651
G1 X95.380 Y108.668 E28.09421
G1 X95.401 Y109.000 E28.12145
G1 X95.385 Y109.257 E28.14256
G1 X95.645 Y109.542 F7800.000
G1 X96.008 Y109.297 F7800.000
G1 X95.921 Y109.830 E28.18680 F600.000
G1 X95.717 Y110.396 E28.23604
G1 X95.403 Y110.928 E28.28656
G1 X94.995 Y111.391 E28.33707
G1 X94.507 Y111.769 E28.38757
G1 X93.957 Y112.049 E28.43809
G1 X93.364 Y112.221 E28.48860
G1 X92.765 Y112.278 E28.53783
G1 X92.339 Y112.251 E28.57278
G1 X91.920 Y112.171 E28.60772
G1 X91.354 Y111.967 E28.65696
G1 X90.822 Y111.653 E28.70748
G1 X90.359 Y111.245 E28.75799
G1 X89.981 Y110.757 E28.80849
G1 X89.701 Y110.207 E28.85901
G1 X89.529 Y109.614 E28.90952
G1 X89.471 Y109.000 E28.96003
G1 X89.529 Y108.386 E29.01054
G1 X89.701 Y107.793 E29.06105
G1 X89.981 Y107.243 E29.11156
G1 X90.359 Y106.755 E29.16206
G1 X90.822 Y106.347 E29.21258
G1 X91.354 Y106.033 E29.26309
G1 X91.920 Y105.829 E29.31233
G1 X92.339 Y105.749 E29.34724
G1 X92.758 Y105.722 E29.38158 F600.000
G1 X93.364 Y105.779 E29.43138
G1 X93.957 Y105.951 E29.48196
G1 X94.507 Y106.231 E29.53248
G1 X94.995 Y106.609 E29.58298
G1 X95.403 Y107.072 E29.63349
G1 X95.717 Y107.604 E29.68401
G1 X95.921 Y108.170 E29.73325
G1 X96.001 Y108.589 E29.76819
G1 X96.027 Y109.000 E29.80187
G1 X96.013 Y109.222 E29.82004
G1 X96.637 Y109.261 F7800.000
G1 X96.622 Y109.489 E29.83877 F600.000
G1 X96.526 Y109.996 E29.88096
G1 X96.285 Y110.663 E29.93905
G1 X95.911 Y111.296 E29.99924
G1 X95.424 Y111.848 E30.05942
G1 X94.843 Y112.299 E30.11958
G1 X94.188 Y112.633 E30.17977
G1 X93.482 Y112.838 E30.23995
G1 X92.775 Y112.905 E30.29804
G1 X92.261 Y112.872 E30.34023
G1 X91.754 Y112.776 E30.38242
G1 X91.087 Y112.535 E30.44051
G1 X90.454 Y112.161 E30.50070
G1 X89.902 Y111.674 E30.56088
G1 X89.451 Y111.093 E30.62105
G1 X89.117 Y110.438 E30.68123
G1 X88.912 Y109.732 E30.74141
G1 X88.843 Y109.000 E30.80158
G1 X88.912 Y108.268 E30.86176
G1 X89.117 Y107.562 E30.92194
G1 X89.451 Y106.907 E30.98212
G1 X89.902 Y106.326 E31.04229
G1 X90.454 Y105.839 E31.10247
G1 X91.086 Y105.465 E31.16266
G1 X91.754 Y105.224 E31.22075
G1 X92.260 Y105.128 E31.26289
G1 X92.767 Y105.096 E31.30443 F600.000
G1 X93.481 Y105.162 E31.36310
G1 X94.188 Y105.367 E31.42340
G1 X94.843 Y105.701 E31.48358
G1 X95.424 Y106.152 E31.54375
G1 X95.911 Y106.704 E31.60393
G1 X96.285 Y107.337 E31.66412
G1 X96.526 Y108.004 E31.72221
G1 X96.622 Y108.511 E31.76440
G1 X96.653 Y109.000 E31.80451
G1 X96.641 Y109.186 E31.81976
G1 X96.953 Y108.081 F7800.000
G1 X123.344 Y134.472 E34.89648 F600.000
G1 X122.454 Y134.472 E34.96987
G1 X97.022 Y109.040 E37.93483
G1 X96.920 Y109.828 E38.00037
G1 X121.564 Y134.472 E40.87340
G1 X120.673 Y134.472 E40.94679
G1 X96.706 Y110.504 E43.74104
G1 X96.410 Y111.099 E43.79580
G1 X119.783 Y134.472 E46.52067
G1 X118.893 Y134.472 E46.59405
G1 X96.050 Y111.629 E49.25718
G1 X95.631 Y112.100 E49.30916
G1 X118.003 Y134.472 E51.91737
G1 X117.112 Y134.472 E51.99076
G1 X95.129 Y112.488 E54.55364
G1 X94.565 Y112.814 E54.60736
G1 X116.222 Y134.472 E57.13226
G1 X115.332 Y134.472 E57.20565
G1 X93.929 Y113.069 E59.70085
G1 X93.203 Y113.232 E59.76226
G1 X114.442 Y134.472 E62.23841
G1 X113.552 Y134.472 E62.31179
G1 X92.345 Y113.265 E64.78409
G1 X91.238 Y113.048 E64.87714
G1 X112.661 Y134.472 E67.37479
G1 X111.771 Y134.472 E67.44818
G1 X78.528 Y101.229 E71.32375
G1 X78.528 Y102.119 E71.39714
G1 X110.881 Y134.472 E75.16893
G1 X109.991 Y134.472 E75.24232
G1 X78.528 Y103.009 E78.91033
G1 X78.528 Y103.899 E78.98371
G1 X109.101 Y134.472 E82.54793
G1 X108.210 Y134.472 E82.62132
G1 X78.528 Y104.790 E86.08176
G1 X78.528 Y105.680 E86.15515
G1 X107.320 Y134.472 E89.51180
G1 X106.430 Y134.472 E89.58519
G1 X78.528 Y106.570 E92.83806
G1 X78.528 Y107.460 E92.91144
G1 X105.540 Y134.472 E96.06053
G1 X104.650 Y134.472 E96.13392
G1 X78.528 Y108.350 E99.17922
G1 X78.528 Y109.241 E99.25261
G1 X103.759 Y134.472 E102.19412
G1 X102.869 Y134.472 E102.26751
G1 X78.528 Y110.131 E105.10525
G1 X78.528 Y111.021 E105.17863
G1 X101.979 Y134.472 E107.91258
G1 X101.089 Y134.472 E107.98597
G1 X78.528 Y111.911 E110.61614
G1 X78.528 Y112.802 E110.68952
G1 X100.198 Y134.472 E113.21590
G1 X99.308 Y134.472 E113.28929
G1 X78.528 Y113.692 E115.71189
G1 X78.528 Y114.582 E115.78527
G1 X98.418 Y134.472 E118.10409
G1 X97.528 Y134.472 E118.17747
G1 X78.528 Y115.472 E120.39250
G1 X78.528 Y116.362 E120.46589
G1 X96.638 Y134.472 E122.57714
G1 X95.747 Y134.472 E122.65052
G1 X78.528 Y117.253 E124.65799
G1 X78.528 Y118.143 E124.73137
G1 X94.857 Y134.472 E126.63505
G1 X93.967 Y134.472 E126.70844
G1 X78.528 Y119.033 E128.50833
G1 X78.528 Y119.923 E128.58172
G1 X93.077 Y134.472 E130.27782
G1 X92.187 Y134.472 E130.35121
G1 X78.528 Y120.813 E131.94354
G1 X78.528 Y121.704 E132.01692
G1 X91.296 Y134.472 E133.50546
G1 X90.406 Y134.472 E133.57885
G1 X78.528 Y122.594 E134.96361
G1 X78.528 Y123.484 E135.03699
G1 X89.516 Y134.472 E136.31797
G1 X88.626 Y134.472 E136.39135
G1 X78.528 Y124.374 E137.56854
G1 X78.528 Y125.264 E137.64193
G1 X87.736 Y134.472 E138.71533
G1 X86.845 Y134.472 E138.78872
G1 X78.528 Y126.155 E139.75834
G1 X78.528 Y127.045 E139.83173
G1 X85.955 Y134.472 E140.69756
G1 X85.065 Y134.472 E140.77095
G1 X78.528 Y127.935 E141.53300
G1 X78.528 Y128.825 E141.60639
G1 X84.175 Y134.472 E142.26466
G1 X83.284 Y134.472 E142.33804
G1 X78.528 Y129.716 E142.89253
G1 X78.528 Y130.606 E142.96592
G1 X82.394 Y134.472 E143.41662
G1 X81.504 Y134.472 E143.49000
G1 X78.528 Y131.496 E143.83692
G1 X78.528 Y132.386 E143.91030
G1 X80.614 Y134.472 E144.15344
G1 X79.724 Y134.472 E144.22682
G1 X78.528 Y133.276 E144.36617
G1 X78.528 Y134.167 E144.43956
G1 X78.833 Y134.472 E144.47512
G1 X88.700 Y110.510 F7800.000
G1 X78.528 Y100.339 E145.66099 F600.000
G1 X78.528 Y99.448 E145.73437
G1 X88.488 Y109.408 E146.89554
G1 X88.518 Y108.547 E146.96655
G1 X78.528 Y98.558 E148.13113
G1 X78.528 Y97.668 E148.20452
G1 X88.681 Y107.821 E149.38815
G1 X88.936 Y107.185 E149.44459
G1 X78.528 Y96.778 E150.65793
G1 X78.528 Y95.888 E150.73131
G1 X89.262 Y106.621 E151.98263
G1 X89.650 Y106.119 E152.03493
G1 X78.528 Y94.997 E153.33158
G1 X78.528 Y94.107 E153.40497
G1 X90.121 Y105.700 E154.75652
G1 X90.651 Y105.340 E154.80934
G1 X78.528 Y93.217 E156.22265
G1 X78.528 Y92.327 E156.29603
G1 X91.246 Y105.044 E157.77872
G1 X91.922 Y104.830 E157.83716
G1 X78.528 Y91.436 E159.39863
G1 X78.528 Y90.546 E159.47201
G1 X92.710 Y104.728 E161.12539
G1 X93.658 Y104.785 E161.20363
G1 X78.528 Y89.656 E162.96745
G1 X78.528 Y88.766 E163.04084
G1 X95.071 Y105.309 E164.96947
G1 X96.428 Y106.665 F7800.000
G1 X124.234 Y134.472 E168.21124 F600.000
G1 X125.124 Y134.472 E168.28462
G1 X78.528 Y87.876 E173.71696
G1 X78.528 Y86.985 E173.79035
G1 X126.015 Y134.472 E179.32647
G1 X126.905 Y134.472 E179.39985
G1 X78.528 Y86.095 E185.03976
G1 X78.528 Y85.205 E185.11314
G1 X127.795 Y134.472 E190.85683
G1 X128.685 Y134.472 E190.93022
G1 X78.528 Y84.315 E196.77769
G1 X78.632 Y83.528 E196.84308
G1 X129.575 Y134.472 E202.78224
G1 X130.466 Y134.472 E202.85562
G1 X79.522 Y83.528 E208.79478
G1 X80.413 Y83.528 E208.86817
G1 X131.356 Y134.472 E214.80732
G1 X132.246 Y134.472 E214.88071
G1 X81.303 Y83.528 E220.81986
G1 X82.193 Y83.528 E220.89325
G1 X133.136 Y134.472 E226.83240
G1 X134.027 Y134.472 E226.90579
G1 X83.083 Y83.528 E232.84494
G1 X83.973 Y83.528 E232.91833
G1 X134.917 Y134.472 E238.85749
G1 X135.807 Y134.472 E238.93087
G1 X84.864 Y83.528 E244.87003
G1 X85.754 Y83.528 E244.94341
G1 X136.697 Y134.472 E250.88257
G1 X137.587 Y134.472 E250.95595
G1 X86.644 Y83.528 E256.89511
G1 X87.534 Y83.528 E256.96850
G1 X138.478 Y134.472 E262.90765
G1 X139.368 Y134.472 E262.98104
G1 X88.424 Y83.528 E268.92019
G1 X89.315 Y83.528 E268.99358
G1 X139.472 Y133.685 E274.84106
G1 X139.472 Y132.795 E274.91445
G1 X90.205 Y83.528 E280.65814
G1 X91.095 Y83.528 E280.73153
G1 X139.472 Y131.905 E286.37144
