; generated by Slic3r 1.3.0 on 2019-09-05 at 02:04:01

; external perimeters extrusion width = 0.55mm (4.37mm^3/s)
; perimeters extrusion width = 0.70mm (11.44mm^3/s)
; infill extrusion width = 0.63mm (13.45mm^3/s)
; solid infill extrusion width = 0.70mm (3.81mm^3/s)
; top infill extrusion width = 0.70mm (2.86mm^3/s)

M107
M190 S65 ; set bed temperature and wait for it to be reached
M104 S205 ; set temperature
G28 ; home all axes
G1 Z5 F5000 ; lift nozzle

; Filament gcode

M109 S205 ; set temperature and wait for it to be reached
G21 ; set units to millimeters
G90 ; use absolute coordinates
M82 ; use absolute distances for extrusion
G92 E0
G1 Z0.350 F7800.000
G1 E-2.00000 F2400.00000
G92 E0
G1 X67.675 Y61.809 F7800.000
G1 E2.00000 F2400.00000
G1 F1800
G1 X69.466 Y60.062 E2.22750
G1 X70.971 Y59.231 E2.38385
G1 X82.971 Y54.231 E3.56593
G1 X86.000 Y53.625 E3.84679
G1 X126.000 Y53.625 E7.48397
G1 X128.470 Y54.023 E7.71147
G1 X130.691 Y55.175 E7.93897
G1 X132.438 Y56.966 E8.16647
G1 X133.536 Y59.214 E8.39397
G1 X133.875 Y61.500 E8.60409
G1 X133.875 Y102.500 E12.33220
G1 X133.477 Y104.970 E12.55970
G1 X131.886 Y107.732 E12.84953
G1 X99.886 Y143.732 E17.22927
G1 X97.947 Y145.314 E17.45677
G1 X95.611 Y146.208 E17.68428
G1 X94.000 Y146.375 E17.83153
G1 X74.000 Y146.375 E19.65012
G1 X71.530 Y145.977 E19.87762
G1 X69.309 Y144.825 E20.10512
G1 X67.562 Y143.034 E20.33262
G1 X66.464 Y140.786 E20.56012
G1 X66.125 Y138.500 E20.77024
G1 X66.125 Y66.500 E27.31717
G1 X66.523 Y64.030 E27.54467
G1 X67.641 Y61.876 E27.76535
G1 X68.296 Y62.026 F7800.000
G1 F1800
G1 X70.069 Y60.409 E27.98358
G1 X71.212 Y59.808 E28.10096
G1 X83.212 Y54.808 E29.28304
G1 X86.000 Y54.250 E29.54161
G1 X126.000 Y54.250 E33.17879
G1 X128.367 Y54.647 E33.39702
G1 X130.474 Y55.796 E33.61525
G1 X132.091 Y57.569 E33.83347
G1 X133.041 Y59.773 E34.05170
G1 X133.250 Y61.500 E34.20987
G1 X133.250 Y102.500 E37.93799
G1 X132.853 Y104.867 E38.15621
G1 X131.419 Y107.316 E38.41432
G1 X99.419 Y143.316 E42.79406
G1 X97.549 Y144.822 E43.01229
G1 X95.291 Y145.634 E43.23052
G1 X94.000 Y145.750 E43.34837
G1 X74.000 Y145.750 E45.16696
G1 X71.633 Y145.353 E45.38519
G1 X69.526 Y144.204 E45.60342
G1 X67.909 Y142.431 E45.82165
G1 X66.959 Y140.227 E46.03987
G1 X66.750 Y138.500 E46.19804
G1 X66.750 Y66.500 E52.74497
G1 X67.147 Y64.133 E52.96320
G1 X68.260 Y62.092 E53.17461
G1 X68.915 Y62.253 F7800.000
G1 F1800
G1 X71.452 Y60.385 E53.46107
G1 X83.452 Y55.385 E54.64315
G1 X86.000 Y54.875 E54.87943
G1 X126.000 Y54.875 E58.51662
G1 X128.259 Y55.272 E58.72516
G1 X130.247 Y56.415 E58.93370
G1 X131.726 Y58.168 E59.14224
G1 X132.519 Y60.320 E59.35078
G1 X132.625 Y61.500 E59.45849
G1 X132.625 Y102.500 E63.18661
G1 X132.228 Y104.759 E63.39515
G1 X130.952 Y106.901 E63.62192
G1 X98.952 Y142.901 E68.00167
G1 X97.154 Y144.326 E68.21021
G1 X94.000 Y145.125 E68.50607
G1 X74.000 Y145.125 E70.32466
G1 X71.741 Y144.728 E70.53320
G1 X69.753 Y143.585 E70.74175
G1 X68.274 Y141.832 E70.95029
G1 X67.481 Y139.680 E71.15883
G1 X67.375 Y138.500 E71.26654
G1 X67.375 Y66.500 E77.81347
G1 X67.772 Y64.241 E78.02201
G1 X68.878 Y62.318 E78.22374
G1 E76.22374 F2400.00000
G92 E0
G1 X90.600 Y127.900 F7800.000
G1 E2.00000 F2400.00000
G1 F1800
G1 X90.600 Y136.100 E2.74558
G1 X77.400 Y136.100 E3.94581
G1 X77.400 Y127.900 E4.69139
G1 X90.525 Y127.900 E5.88480
G1 X89.975 Y128.525 F7800.000
G1 F1800
G1 X89.975 Y135.475 E6.51674
G1 X78.025 Y135.475 E7.60333
G1 X78.025 Y128.525 E8.23527
G1 X89.900 Y128.525 E9.31504
G1 X89.350 Y129.150 F7800.000
G1 F1800
G1 X89.350 Y134.850 E9.83334
G1 X78.650 Y134.850 E10.80629
G1 X78.650 Y129.150 E11.32458
G1 X89.275 Y129.150 E12.29071
G1 X89.843 Y129.069 F7800.000
G1 E10.29071 F2400.00000
G92 E0
G1 X78.400 Y99.600 F7800.000
G1 E2.00000 F2400.00000
G1 F1800
G1 X78.400 Y69.400 E4.74603
G1 X121.600 Y69.400 E8.67415
G1 X121.600 Y99.600 E11.42018
G1 X78.475 Y99.600 E15.34148
G1 X79.025 Y98.975 F7800.000
G1 F1800
G1 X79.025 Y70.025 E17.97387
G1 X120.975 Y70.025 E21.78835
G1 X120.975 Y98.975 E24.42074
G1 X79.100 Y98.975 E28.22839
G1 X79.650 Y98.350 F7800.000
G1 F1800
G1 X79.650 Y70.650 E30.74714
G1 X120.350 Y70.650 E34.44798
G1 X120.350 Y98.350 E36.96672
G1 X79.725 Y98.350 E40.66074
G1 X79.160 Y98.449 F7800.000
G1 E38.66074 F2400.00000
G92 E0
G1 X92.400 Y100.900 F7800.000
G1 E2.00000 F2400.00000
G1 F1800
G1 X92.400 Y136.900 E5.27346
G1 X75.600 Y136.900 E6.80112
G1 X75.600 Y68.100 E13.05712
G1 X87.600 Y68.100 E14.14827
G1 X87.600 Y63.100 E14.60292
G1 X124.400 Y63.100 E17.94917
G1 X124.400 Y100.900 E21.38635
G1 X92.475 Y100.900 E24.28928
G1 X93.025 Y101.525 F7800.000
G1 F1800
G1 X93.025 Y137.525 E27.56274
G1 X74.975 Y137.525 E29.20404
G1 X74.975 Y67.475 E35.57368
G1 X86.975 Y67.475 E36.66483
G1 X86.975 Y62.475 E37.11948
G1 X125.025 Y62.475 E40.57937
G1 X125.025 Y101.525 E44.13019
G1 X93.100 Y101.525 E47.03312
G1 X93.650 Y102.150 F7800.000
G1 F1800
G1 X93.650 Y138.150 E50.30658
G1 X74.350 Y138.150 E52.06152
G1 X74.350 Y66.850 E58.54480
G1 X86.350 Y66.850 E59.63596
G1 X86.350 Y61.850 E60.09060
G1 X125.650 Y61.850 E63.66414
G1 X125.650 Y102.150 E67.32860
G1 X93.725 Y102.150 E70.23153
G1 X93.172 Y102.298 F7800.000
G1 E68.23153 F2400.00000
G92 E0
G1 X92.088 Y100.250 F7800.000
G1 E2.00000 F2400.00000
G1 F1800
G1 X121.912 Y100.250 E4.60585
G1 X123.532 Y100.518 F7800.000
G1 F1800
G1 X124.018 Y100.032 E4.66882
G1 X124.018 Y99.142 E4.75035
G1 X122.642 Y100.518 E4.92862
G1 X122.294 Y100.518 E4.96049
G1 X122.294 Y99.976 E5.01015
G1 X124.018 Y98.252 E5.23349
G1 X124.018 Y97.362 E5.31502
G1 X121.982 Y99.399 E5.57883
G1 X121.982 Y98.508 E5.66036
G1 X124.018 Y96.472 E5.92418
G1 X124.018 Y95.582 E6.00570
G1 X121.982 Y97.618 E6.26952
G1 X121.982 Y96.728 E6.35104
G1 X124.018 Y94.691 E6.61486
G1 X124.018 Y93.801 E6.69639
G1 X121.982 Y95.838 E6.96020
G1 X121.982 Y94.948 E7.04173
G1 X124.018 Y92.911 E7.30554
G1 X124.018 Y92.021 E7.38707
G1 X121.982 Y94.058 E7.65088
G1 X121.982 Y93.168 E7.73241
G1 X124.018 Y91.131 E7.99622
G1 X124.018 Y90.241 E8.07775
G1 X121.982 Y92.277 E8.34157
G1 X121.982 Y91.387 E8.42309
G1 X124.018 Y89.351 E8.68691
G1 X124.018 Y88.460 E8.76843
G1 X121.982 Y90.497 E9.03225
G1 X121.982 Y89.607 E9.11377
G1 X124.018 Y87.570 E9.37759
G1 X124.018 Y86.680 E9.45912
G1 X121.982 Y88.717 E9.72293
G1 X121.982 Y87.827 E9.80446
G1 X124.018 Y85.790 E10.06827
G1 X124.018 Y84.900 E10.14980
G1 X121.982 Y86.937 E10.41361
G1 X121.982 Y86.046 E10.49514
G1 X124.018 Y84.010 E10.75895
G1 X124.018 Y83.120 E10.84048
G1 X121.982 Y85.156 E11.10430
G1 X121.982 Y84.266 E11.18582
G1 X124.018 Y82.229 E11.44964
G1 X124.018 Y81.339 E11.53116
G1 X121.982 Y83.376 E11.79498
G1 X121.982 Y82.486 E11.87651
G1 X124.018 Y80.449 E12.14032
G1 X124.018 Y79.559 E12.22185
G1 X121.982 Y81.596 E12.48566
G1 X121.982 Y80.706 E12.56719
G1 X124.018 Y78.669 E12.83100
G1 X124.018 Y77.779 E12.91253
G1 X121.982 Y79.816 E13.17634
G1 X121.982 Y78.925 E13.25787
G1 X124.018 Y76.889 E13.52168
G1 X124.018 Y75.998 E13.60321
G1 X121.982 Y78.035 E13.86703
G1 X121.982 Y77.145 E13.94855
G1 X124.018 Y75.108 E14.21237
G1 X124.018 Y74.218 E14.29389
G1 X121.982 Y76.255 E14.55771
G1 X121.982 Y75.365 E14.63923
G1 X124.018 Y73.328 E14.90305
G1 X124.018 Y72.438 E14.98458
G1 X121.982 Y74.475 E15.24839
G1 X121.982 Y73.585 E15.32992
G1 X124.018 Y71.548 E15.59373
G1 X124.018 Y70.658 E15.67526
G1 X121.982 Y72.694 E15.93907
G1 X121.982 Y71.804 E16.02060
G1 X124.018 Y69.768 E16.28441
G1 X124.018 Y68.877 E16.36594
G1 X121.982 Y70.914 E16.62976
G1 X121.982 Y70.024 E16.71128
G1 X124.018 Y67.987 E16.97510
G1 X124.018 Y67.097 E17.05662
G1 X121.982 Y69.134 E17.32044
G1 X121.982 Y69.018 E17.33102
G1 X121.207 Y69.018 E17.40197
G1 X124.018 Y66.207 E17.76612
G1 X124.018 Y65.317 E17.84764
G1 X120.317 Y69.018 E18.32709
G1 X119.427 Y69.018 E18.40862
G1 X124.018 Y64.427 E19.00336
G1 X124.018 Y63.537 E19.08489
G1 X118.537 Y69.018 E19.79493
G1 X117.646 Y69.018 E19.87645
G1 X123.183 Y63.482 E20.59361
G1 X122.293 Y63.482 E20.67514
G1 X116.756 Y69.018 E21.39230
G1 X115.866 Y69.018 E21.47382
G1 X121.403 Y63.482 E22.19098
G1 X120.513 Y63.482 E22.27251
G1 X114.976 Y69.018 E22.98966
G1 X114.086 Y69.018 E23.07119
G1 X119.623 Y63.482 E23.78835
G1 X118.733 Y63.482 E23.86988
G1 X113.196 Y69.018 E24.58703
G1 X112.306 Y69.018 E24.66856
G1 X117.842 Y63.482 E25.38572
G1 X116.952 Y63.482 E25.46724
G1 X111.415 Y69.018 E26.18440
G1 X110.525 Y69.018 E26.26593
G1 X116.062 Y63.482 E26.98309
G1 X115.172 Y63.482 E27.06461
G1 X109.635 Y69.018 E27.78177
G1 X108.745 Y69.018 E27.86330
G1 X114.282 Y63.482 E28.58046
G1 X113.392 Y63.482 E28.66198
G1 X107.855 Y69.018 E29.37914
G1 X106.965 Y69.018 E29.46067
G1 X112.502 Y63.482 E30.17782
G1 X111.611 Y63.482 E30.25935
G1 X106.075 Y69.018 E30.97651
G1 X105.185 Y69.018 E31.05804
G1 X110.721 Y63.482 E31.77519
G1 X109.831 Y63.482 E31.85672
G1 X104.294 Y69.018 E32.57388
G1 X103.404 Y69.018 E32.65541
G1 X108.941 Y63.482 E33.37256
G1 X108.051 Y63.482 E33.45409
G1 X102.514 Y69.018 E34.17125
G1 X101.624 Y69.018 E34.25277
G1 X107.161 Y63.482 E34.96993
G1 X106.271 Y63.482 E35.05146
G1 X100.734 Y69.018 E35.76862
G1 X99.844 Y69.018 E35.85014
G1 X105.380 Y63.482 E36.56730
G1 X104.490 Y63.482 E36.64883
G1 X98.954 Y69.018 E37.36599
G1 X98.063 Y69.018 E37.44751
G1 X103.600 Y63.482 E38.16467
G1 X102.710 Y63.482 E38.24620
G1 X97.173 Y69.018 E38.96335
G1 X96.283 Y69.018 E39.04488
G1 X101.820 Y63.482 E39.76204
G1 X100.930 Y63.482 E39.84357
G1 X95.393 Y69.018 E40.56072
G1 X94.503 Y69.018 E40.64225
G1 X100.040 Y63.482 E41.35941
G1 X99.149 Y63.482 E41.44094
G1 X93.613 Y69.018 E42.15809
G1 X92.723 Y69.018 E42.23962
G1 X98.259 Y63.482 E42.95678
G1 X97.369 Y63.482 E43.03830
G1 X91.832 Y69.018 E43.75546
G1 X90.942 Y69.018 E43.83699
G1 X96.479 Y63.482 E44.55415
G1 X95.589 Y63.482 E44.63567
G1 X90.052 Y69.018 E45.35283
G1 X89.162 Y69.018 E45.43436
G1 X94.699 Y63.482 E46.15152
G1 X93.809 Y63.482 E46.23304
G1 X88.294 Y68.996 E46.94733
G1 X88.294 Y68.106 E47.02886
G1 X92.919 Y63.482 E47.62785
G1 X92.028 Y63.482 E47.70938
G1 X87.982 Y67.528 E48.23354
G1 X87.982 Y66.638 E48.31507
G1 X91.138 Y63.482 E48.72394
G1 X90.248 Y63.482 E48.80546
G1 X87.982 Y65.748 E49.09903
G1 X87.982 Y64.858 E49.18056
G1 X89.358 Y63.482 E49.35884
G1 X88.468 Y63.482 E49.44036
G1 X87.982 Y63.968 E49.50332
G1 E47.50332 F2400.00000
G92 E0
G1 X87.912 Y68.750 F7800.000
G1 E2.00000 F2400.00000
G1 F1800
G1 X78.088 Y68.750 E2.85839
G1 X76.468 Y68.482 F7800.000
G1 F1800
G1 X75.982 Y68.968 E2.92093
G1 X75.982 Y69.852 E3.00135
G1 X77.352 Y68.482 E3.17762
G1 X77.706 Y68.482 E3.20983
G1 X77.706 Y69.012 E3.25804
G1 X75.982 Y70.736 E3.47986
G1 X75.982 Y71.620 E3.56028
G1 X78.018 Y69.583 E3.82229
G1 X78.018 Y70.467 E3.90270
G1 X75.982 Y72.504 E4.16472
G1 X75.982 Y73.388 E4.24513
G1 X78.018 Y71.351 E4.50714
G1 X78.018 Y72.235 E4.58756
G1 X75.982 Y74.272 E4.84957
G1 X75.982 Y75.156 E4.92999
G1 X78.018 Y73.119 E5.19200
G1 X78.018 Y74.004 E5.27242
G1 X75.982 Y76.040 E5.53443
G1 X75.982 Y76.924 E5.61485
G1 X78.018 Y74.888 E5.87686
G1 X78.018 Y75.772 E5.95727
G1 X75.982 Y77.808 E6.21929
G1 X75.982 Y78.692 E6.29970
G1 X78.018 Y76.656 E6.56171
G1 X78.018 Y77.540 E6.64213
G1 X75.982 Y79.576 E6.90414
G1 X75.982 Y80.461 E6.98456
G1 X78.018 Y78.424 E7.24657
G1 X78.018 Y79.308 E7.32699
G1 X75.982 Y81.345 E7.58900
G1 X75.982 Y82.229 E7.66942
G1 X78.018 Y80.192 E7.93143
G1 X78.018 Y81.076 E8.01184
G1 X75.982 Y83.113 E8.27386
G1 X75.982 Y83.997 E8.35427
G1 X78.018 Y81.960 E8.61628
G1 X78.018 Y82.844 E8.69670
G1 X75.982 Y84.881 E8.95871
G1 X75.982 Y85.765 E9.03913
G1 X78.018 Y83.728 E9.30114
G1 X78.018 Y84.612 E9.38156
G1 X75.982 Y86.649 E9.64357
G1 X75.982 Y87.533 E9.72399
G1 X78.018 Y85.496 E9.98600
G1 X78.018 Y86.380 E10.06641
G1 X75.982 Y88.417 E10.32843
G1 X75.982 Y89.301 E10.40884
G1 X78.018 Y87.264 E10.67085
G1 X78.018 Y88.148 E10.75127
G1 X75.982 Y90.185 E11.01328
G1 X75.982 Y91.069 E11.09370
G1 X78.018 Y89.032 E11.35571
G1 X78.018 Y89.916 E11.43613
G1 X75.982 Y91.953 E11.69814
G1 X75.982 Y92.837 E11.77856
G1 X78.018 Y90.801 E12.04057
G1 X78.018 Y91.685 E12.12098
G1 X75.982 Y93.721 E12.38300
G1 X75.982 Y94.605 E12.46341
G1 X78.018 Y92.569 E12.72542
G1 X78.018 Y93.453 E12.80584
G1 X75.982 Y95.489 E13.06785
G1 X75.982 Y96.374 E13.14827
G1 X78.018 Y94.337 E13.41028
G1 X78.018 Y95.221 E13.49070
G1 X75.982 Y97.258 E13.75271
G1 X75.982 Y98.142 E13.83312
G1 X78.018 Y96.105 E14.09514
G1 X78.018 Y96.989 E14.17555
G1 X75.982 Y99.026 E14.43756
G1 X75.982 Y99.910 E14.51798
G1 X78.018 Y97.873 E14.77999
G1 X78.018 Y98.757 E14.86041
G1 X75.982 Y100.794 E15.12242
G1 X75.982 Y101.678 E15.20284
G1 X78.018 Y99.641 E15.46485
G1 X78.018 Y99.982 E15.49582
G1 X78.562 Y99.982 E15.54526
G1 X75.982 Y102.562 E15.87719
G1 X75.982 Y103.446 E15.95761
G1 X79.446 Y99.982 E16.40327
G1 X80.330 Y99.982 E16.48368
G1 X75.982 Y104.330 E17.04307
G1 X75.982 Y105.214 E17.12348
G1 X81.214 Y99.982 E17.79659
G1 X82.098 Y99.982 E17.87701
G1 X75.982 Y106.098 E18.66384
G1 X75.982 Y106.982 E18.74426
G1 X82.982 Y99.982 E19.64482
G1 X83.866 Y99.982 E19.72524
G1 X75.982 Y107.866 E20.73952
G1 X75.982 Y108.750 E20.81994
G1 X84.750 Y99.982 E21.94795
G1 X85.634 Y99.982 E22.02837
G1 X75.982 Y109.634 E23.27011
G1 X75.982 Y110.518 E23.35052
G1 X86.518 Y99.982 E24.70599
G1 X87.402 Y99.982 E24.78641
G1 X75.982 Y111.402 E26.25560
G1 X75.982 Y112.286 E26.33601
G1 X88.286 Y99.982 E27.91893
G1 X89.171 Y99.982 E27.99935
G1 X75.982 Y113.171 E29.69599
G1 X75.982 Y114.055 E29.77641
G1 X90.055 Y99.982 E31.58678
G1 X90.939 Y99.982 E31.66719
G1 X75.982 Y114.939 E33.59129
G1 X75.982 Y115.823 E33.67171
G1 X91.706 Y100.098 E35.69451
G1 X91.706 Y100.970 E35.77376
G1 X91.719 Y100.970 E35.77492
G1 X75.982 Y116.707 E37.79937
G1 X75.982 Y117.591 E37.87979
G1 X92.018 Y101.554 E39.94278
G1 X92.018 Y102.438 E40.02320
G1 X75.982 Y118.475 E42.08619
G1 X75.982 Y119.359 E42.16661
G1 X92.018 Y103.322 E44.22960
G1 X92.018 Y104.206 E44.31002
G1 X75.982 Y120.243 E46.37301
G1 X75.982 Y121.127 E46.45343
G1 X92.018 Y105.090 E48.51642
G1 X92.018 Y105.974 E48.59684
G1 X75.982 Y122.011 E50.65983
G1 X75.982 Y122.895 E50.74025
G1 X92.018 Y106.858 E52.80324
G1 X92.018 Y107.742 E52.88365
G1 X75.982 Y123.779 E54.94665
G1 X75.982 Y124.663 E55.02706
G1 X92.018 Y108.627 E57.09006
G1 X92.018 Y109.511 E57.17047
G1 X75.982 Y125.547 E59.23346
G1 X75.982 Y126.431 E59.31388
G1 X92.018 Y110.395 E61.37687
G1 X92.018 Y111.279 E61.45729
G1 X75.982 Y127.315 E63.52028
G1 X75.982 Y128.199 E63.60070
G1 X76.532 Y127.649 E63.67154
G1 X76.532 Y127.518 E63.68340
G1 X76.663 Y127.518 E63.69526
G1 X92.018 Y112.163 E65.67064
G1 X92.018 Y113.047 E65.75106
G1 X77.547 Y127.518 E67.61271
G1 X78.431 Y127.518 E67.69312
G1 X92.018 Y113.931 E69.44105
G1 X92.018 Y114.815 E69.52146
G1 X79.315 Y127.518 E71.15566
G1 X80.199 Y127.518 E71.23608
G1 X92.018 Y115.699 E72.75655
G1 X92.018 Y116.583 E72.83696
G1 X81.083 Y127.518 E74.24371
G1 X81.967 Y127.518 E74.32413
G1 X92.018 Y117.467 E75.61714
G1 X92.018 Y118.351 E75.69756
G1 X82.851 Y127.518 E76.87685
G1 X83.735 Y127.518 E76.95727
G1 X92.018 Y119.235 E78.02284
G1 X92.018 Y120.119 E78.10325
G1 X84.619 Y127.518 E79.05509
G1 X85.503 Y127.518 E79.13551
G1 X92.018 Y121.003 E79.97362
G1 X92.018 Y121.887 E80.05404
G1 X86.387 Y127.518 E80.77843
G1 X87.271 Y127.518 E80.85885
G1 X92.018 Y122.771 E81.46951
G1 X92.018 Y123.655 E81.54993
G1 X88.155 Y127.518 E82.04686
G1 X89.039 Y127.518 E82.12728
G1 X92.018 Y124.539 E82.51049
G1 X92.018 Y125.424 E82.59090
G1 X89.924 Y127.518 E82.86039
G1 X90.808 Y127.518 E82.94080
G1 X92.018 Y126.308 E83.09656
G1 X92.018 Y127.192 E83.17698
G1 X90.982 Y128.228 E83.31035
G1 X90.982 Y129.112 E83.39077
G1 X92.018 Y128.076 E83.52414
G1 X92.018 Y128.960 E83.60455
G1 X90.982 Y129.997 E83.73792
G1 X90.982 Y130.881 E83.81834
G1 X92.018 Y129.844 E83.95171
G1 X92.018 Y130.728 E84.03213
G1 X90.982 Y131.765 E84.16550
G1 X90.982 Y132.649 E84.24591
G1 X92.018 Y131.612 E84.37928
G1 X92.018 Y132.496 E84.45970
G1 X90.982 Y133.533 E84.59307
G1 X90.982 Y134.417 E84.67348
G1 X92.018 Y133.380 E84.80685
G1 X92.018 Y134.264 E84.88727
G1 X90.982 Y135.301 E85.02064
G1 X90.982 Y136.030 E85.08700
G1 X91.136 Y136.030 E85.10106
