; generated by Slic3r 1.2.9 on 2017-04-04 at 19:46:28

; external perimeters extrusion width = 0.50mm
; perimeters extrusion width = 0.72mm
; infill extrusion width = 0.72mm
; solid infill extrusion width = 0.72mm
; top infill extrusion width = 0.72mm

M107
M190 S60 ; set bed temperature
M104 S200 ; set temperature
G28 X0 Y0
G28 Z0
G1 Z0.3 F200
G1 X15 Y20 F12000
M109 S200 ; wait for temperature to be reached
G21 ; set units to millimeters
G90 ; use absolute coordinates
M82 ; use absolute distances for extrusion
G92 E0
G1 E-3.20000 F2760.00000
G92 E0
G1 Z0.350 F7800.000
G1 X68.395 Y83.593 F7800.000
G1 E3.20000 F2760.00000
G1 X85.063 Y69.955 E4.96253 F600.000
G1 X87.227 Y68.699 E5.16728
G1 X90.050 Y68.175 E5.40224
G1 X127.950 Y68.175 E8.50385
G1 X130.420 Y68.573 E8.70860
G1 X132.937 Y69.955 E8.94357 F600.000
G1 X154.937 Y87.955 E11.26980
G1 X156.597 Y89.827 E11.47455
G1 X157.586 Y92.125 E11.67930
G1 X157.825 Y94.050 E11.83802
G1 X157.825 Y123.950 E14.28494
G1 X157.427 Y126.420 E14.48969
G1 X156.275 Y128.641 E14.69444
G1 X154.937 Y130.045 E14.85316
G1 X132.937 Y148.045 E17.17939
G1 X130.773 Y149.301 E17.38415
G1 X127.950 Y149.825 E17.61911
G1 X90.050 Y149.825 E20.72072
G1 X87.580 Y149.427 E20.92547
G1 X85.063 Y148.045 E21.16044
G1 X63.063 Y130.045 E23.48667
G1 X61.403 Y128.173 E23.69142
G1 X60.414 Y125.875 E23.89617
G1 X60.175 Y123.950 E24.05489
G1 X60.175 Y94.050 E26.50181
G1 X60.573 Y91.580 E26.70656
G1 X61.725 Y89.359 E26.91131
G1 X63.063 Y87.955 E27.07003
G1 X68.337 Y83.641 E27.62760
G1 X68.732 Y84.125 F7800.000
G1 X85.459 Y70.439 E29.39626 F600.000
G1 X87.543 Y69.248 E29.59267
G1 X90.050 Y68.800 E29.80111
G1 X127.950 Y68.800 E32.90272
G1 X130.317 Y69.197 E33.09912
G1 X132.541 Y70.439 E33.30756 F600.000
G1 X154.541 Y88.439 E35.63380
G1 X156.121 Y90.245 E35.83020
G1 X157.025 Y92.468 E36.02661
G1 X157.200 Y94.050 E36.15683
G1 X157.200 Y123.950 E38.60374
G1 X156.803 Y126.317 E38.80015
G1 X155.654 Y128.424 E38.99655
G1 X154.541 Y129.561 E39.12677
G1 X132.541 Y147.561 E41.45300
G1 X130.457 Y148.752 E41.64941
G1 X127.950 Y149.200 E41.85785
G1 X90.050 Y149.200 E44.95946
G1 X87.683 Y148.803 E45.15586
G1 X85.459 Y147.561 E45.36430
G1 X63.459 Y129.561 E47.69054
G1 X61.879 Y127.755 E47.88694
G1 X60.975 Y125.532 E48.08335
G1 X60.800 Y123.950 E48.21357
G1 X60.800 Y94.050 E50.66048
G1 X61.197 Y91.683 E50.85689
G1 X62.346 Y89.576 E51.05329
G1 X63.459 Y88.439 E51.18351
G1 X68.674 Y84.172 E51.73494
G1 X69.070 Y84.656 F7800.000
G1 X85.855 Y70.923 E53.50975 F600.000
G1 X87.854 Y69.799 E53.69743
G1 X90.050 Y69.425 E53.87970
G1 X127.950 Y69.425 E56.98131
G1 X130.209 Y69.822 E57.16900
G1 X132.145 Y70.923 E57.35126 F600.000
G1 X154.145 Y88.923 E59.67750
G1 X155.642 Y90.660 E59.86518
G1 X156.457 Y92.804 E60.05287
G1 X156.575 Y94.050 E60.15529
G1 X156.575 Y123.950 E62.60220
G1 X156.178 Y126.209 E62.78989
G1 X155.035 Y128.197 E62.97758
G1 X154.145 Y129.077 E63.08000
G1 X132.145 Y147.077 E65.40623
G1 X130.146 Y148.201 E65.59392
G1 X127.950 Y148.575 E65.77619
G1 X90.050 Y148.575 E68.87779
G1 X87.791 Y148.178 E69.06548
G1 X85.855 Y147.077 E69.24775
G1 X63.855 Y129.077 E71.57398
G1 X62.358 Y127.340 E71.76167
G1 X61.543 Y125.196 E71.94936
G1 X61.425 Y123.950 E72.05178
G1 X61.425 Y94.050 E74.49869
G1 X61.822 Y91.791 E74.68638
G1 X62.965 Y89.803 E74.87407
G1 X63.855 Y88.923 E74.97648
G1 X69.012 Y84.703 E75.52178
G1 E72.32178 F2760.00000
G92 E0
G1 X90.400 Y94.400 F7800.000
G1 E3.20000 F2760.00000
G1 X105.600 Y94.400 E4.44392 F600.000
G1 X105.600 Y105.600 E5.36049
G1 X90.400 Y105.600 E6.60440 F600.000
G1 X90.400 Y94.475 E7.51484
G1 X90.833 Y94.650 F7800.000
G1 X91.025 Y95.025 F7800.000
G1 X104.975 Y95.025 E8.65648 F600.000
G1 X104.975 Y104.975 E9.47077
G1 X91.025 Y104.975 E10.61241 F600.000
G1 X91.025 Y95.100 E11.42056
G1 E8.22056 F2760.00000
G92 E0
G1 X104.350 Y100.592 F7800.000
G1 E3.20000 F2760.00000
G1 X104.350 Y104.350 E3.50758 F600.000
G1 X99.014 Y104.350 E3.94424 F600.000
G1 X98.967 Y104.030 E3.97074
G1 X99.579 Y103.846 E4.02301
G1 X100.260 Y103.485 E4.08607
G1 X100.626 Y103.216 E4.12330
G1 X100.964 Y102.910 E4.16054
G1 X101.429 Y102.344 E4.22050
G1 X101.663 Y101.954 E4.25773
G1 X101.841 Y101.577 E4.29188
G1 X101.980 Y101.183 E4.32604
G1 X102.087 Y100.741 E4.36325
G1 X102.154 Y100.012 E4.42320
G1 X102.128 Y99.557 E4.46046
G1 X102.057 Y99.110 E4.49748
G1 X101.835 Y98.395 E4.55882
G1 X101.453 Y97.685 E4.62478
G1 X100.940 Y97.060 E4.69096
G1 X100.343 Y96.570 E4.75416
G1 X99.954 Y96.337 E4.79125
G1 X99.572 Y96.157 E4.82579
G1 X99.010 Y95.963 E4.87450
G1 X99.062 Y95.650 E4.90045
G1 X104.350 Y95.650 E5.33320
G1 X104.350 Y100.517 E5.73150
G1 E2.53150 F2760.00000
G92 E0
G1 X93.900 Y99.384 F7800.000
G1 E3.20000 F2760.00000
G1 X93.869 Y99.583 E3.21654 F600.000
G1 X93.846 Y100.038 E3.25378
G1 X93.918 Y100.767 E3.31373
G1 X94.028 Y101.208 E3.35095
G1 X94.181 Y101.635 E3.38804
G1 X94.547 Y102.315 E3.45124
G1 X95.060 Y102.940 E3.51743
G1 X95.685 Y103.453 E3.58361
G1 X96.365 Y103.819 E3.64681
G1 X96.792 Y103.972 E3.68391
G1 X96.988 Y104.021 E3.70043
G1 X96.947 Y104.350 E3.72757
G1 X91.650 Y104.350 E4.16109
G1 X91.650 Y95.650 E4.87311
G1 X96.983 Y95.650 E5.30958
G1 X97.031 Y95.969 E5.33599
G1 X96.397 Y96.164 E5.39030 F600.000
G1 X95.685 Y96.547 E5.45646
G1 X95.060 Y97.060 E5.52262
G1 X94.547 Y97.685 E5.58879
G1 X94.164 Y98.397 E5.65495
G1 X93.938 Y99.133 E5.71801
G1 X93.911 Y99.309 E5.73257
G1 X95.146 Y99.497 F7800.000
G1 X95.323 Y98.881 E5.78501 F600.000
G1 X95.590 Y98.384 E5.83118
G1 X95.948 Y97.948 E5.87736
G1 X96.384 Y97.590 E5.92354
G1 X96.881 Y97.323 E5.96972
G1 X97.413 Y97.159 E6.01522
G1 X97.709 Y97.114 E6.03975
G1 X98.003 Y97.099 E6.06384 F600.000
G1 X98.458 Y97.134 E6.10120
G1 X98.792 Y97.210 E6.12926
G1 X99.101 Y97.316 E6.15594
G1 X99.365 Y97.441 E6.17988
G1 X99.621 Y97.594 E6.20428
G1 X100.052 Y97.948 E6.24991
G1 X100.410 Y98.384 E6.29609
G1 X100.677 Y98.881 E6.34223
G1 X100.837 Y99.395 E6.38634
G1 X100.884 Y99.691 E6.41081
G1 X100.901 Y99.990 E6.43535
G1 X100.851 Y100.535 E6.48017
G1 X100.780 Y100.827 E6.50469
G1 X100.683 Y101.102 E6.52855
G1 X100.559 Y101.365 E6.55240
G1 X100.405 Y101.622 E6.57693
G1 X100.057 Y102.045 E6.62175
G1 X99.835 Y102.246 E6.64628
G1 X99.593 Y102.424 E6.67081
G1 X99.102 Y102.684 E6.71631
G1 X98.562 Y102.847 E6.76249
G1 X98.000 Y102.902 E6.80867
G1 X97.447 Y102.848 E6.85417
G1 X97.156 Y102.775 E6.87869
G1 X96.875 Y102.674 E6.90309
G1 X96.384 Y102.410 E6.94872
G1 X95.948 Y102.052 E6.99491
G1 X95.590 Y101.616 E7.04109
G1 X95.326 Y101.125 E7.08672
G1 X95.225 Y100.844 E7.11112
G1 X95.152 Y100.553 E7.13564
G1 X95.099 Y100.008 E7.18046
G1 X95.135 Y99.571 E7.21635
G1 X94.777 Y99.160 F7800.000
G1 X94.517 Y99.477 F7800.000
G1 X94.548 Y99.273 E7.23327 F600.000
G1 X94.743 Y98.639 E7.28755
G1 X95.068 Y98.034 E7.34372
G1 X95.504 Y97.504 E7.39989
G1 X96.034 Y97.068 E7.45606
G1 X96.639 Y96.743 E7.51223
G1 X97.273 Y96.548 E7.56651
G1 X97.646 Y96.492 E7.59739
G1 X98.011 Y96.473 E7.62726 F600.000
G1 X98.551 Y96.514 E7.67165
G1 X98.964 Y96.608 E7.70631
G1 X99.336 Y96.737 E7.73852
G1 X99.660 Y96.889 E7.76776
G1 X99.982 Y97.082 E7.79850
G1 X100.496 Y97.504 E7.85292
G1 X100.932 Y98.034 E7.90910
G1 X101.256 Y98.638 E7.96515
G1 X101.447 Y99.253 E8.01788
G1 X101.506 Y99.624 E8.04862
G1 X101.527 Y100.001 E8.07952
G1 X101.469 Y100.638 E8.13190
G1 X101.380 Y101.005 E8.16277
G1 X101.262 Y101.339 E8.19178
G1 X101.111 Y101.660 E8.22078
G1 X100.917 Y101.983 E8.25166
G1 X100.510 Y102.478 E8.30405
G1 X100.231 Y102.731 E8.33493
G1 X99.927 Y102.955 E8.36582
G1 X99.340 Y103.265 E8.42010
G1 X98.683 Y103.463 E8.47627
G1 X98.000 Y103.530 E8.53244
G1 X97.340 Y103.465 E8.58672
G1 X96.974 Y103.374 E8.61759
G1 X96.620 Y103.246 E8.64834
G1 X96.035 Y102.932 E8.70275
G1 X95.504 Y102.496 E8.75894
G1 X95.068 Y101.965 E8.81512
G1 X94.754 Y101.380 E8.86954
G1 X94.626 Y101.026 E8.90028
G1 X94.535 Y100.660 E8.93115
G1 X94.473 Y100.023 E8.98354
G1 X94.506 Y99.552 E9.02222
G1 X93.803 Y101.858 F7800.000
G1 X92.028 Y100.083 E9.23047 F600.000
G1 X92.028 Y99.187 E9.30480
G1 X93.514 Y100.673 E9.47916
G1 X93.488 Y99.751 E9.55569
G1 X92.028 Y98.291 E9.72697
G1 X92.028 Y97.395 E9.80130
G1 X93.621 Y98.988 E9.98815
G1 X93.836 Y98.307 E10.04739
G1 X92.028 Y96.499 E10.25948
G1 X92.453 Y96.028 E10.31211
G1 X94.149 Y97.724 E10.51108
G1 X94.523 Y97.202 E10.56435
G1 X93.349 Y96.028 E10.70210
G1 X94.245 Y96.028 E10.77643
G1 X94.949 Y96.732 E10.85897
G1 X95.141 Y96.028 E10.91949
G1 X95.440 Y96.328 E10.95461
G1 X92.028 Y100.979 F7800.000
G1 X95.021 Y103.972 E11.30575 F600.000
G1 X92.333 Y103.972 F7800.000
G1 X92.028 Y103.667 E11.34155 F600.000
G1 X92.028 Y102.771 E11.41588
G1 X93.229 Y103.972 E11.55680
G1 X94.125 Y103.972 E11.63112
G1 X92.028 Y101.875 E11.87716
G1 X97.317 Y95.766 F7800.000
G1 X98.045 Y95.749 E12.00363 F600.000
G1 X98.724 Y95.775 E12.12154
G1 X103.972 Y96.333 F7800.000
G1 X103.667 Y96.028 E12.15735 F600.000
G1 X102.770 Y96.028 E12.23173
G1 X103.972 Y97.230 E12.37274
G1 X103.972 Y98.126 E12.44712
G1 X101.874 Y96.028 E12.69332
G1 X100.978 Y96.028 E12.76771
G1 X103.972 Y99.022 E13.11910
G1 X103.972 Y99.918 E13.19348
G1 X102.202 Y98.149 E13.40116
G1 X102.500 Y99.343 E13.50331
G1 X103.972 Y100.815 E13.67602
G1 X103.972 Y101.711 E13.75040
G1 X102.502 Y100.241 E13.92295
G1 X102.381 Y101.017 E13.98812
G1 X103.972 Y102.607 E14.17478
G1 X103.972 Y103.503 E14.24917
G1 X102.158 Y101.689 E14.46207
G1 X101.852 Y102.280 E14.51726
G1 X103.544 Y103.972 E14.71584
G1 X102.647 Y103.972 E14.79022
G1 X101.475 Y102.799 E14.92781
G1 X101.049 Y103.270 E14.98047
G1 X101.751 Y103.972 E15.06285
G1 X100.855 Y103.972 E15.13724
G1 X100.556 Y103.672 E15.17238
G1 X98.680 Y104.221 F7800.000
G1 X97.960 Y104.252 E15.29734 F600.000
G1 X97.278 Y104.219 E15.41579
G1 E12.21579 F2760.00000
G92 E0
G1 X97.278 Y87.600 F7800.000
G1 E3.20000 F2760.00000
G1 X90.400 Y87.600 E3.76289 F600.000
G1 X90.400 Y76.400 E4.67946
G1 X105.600 Y76.400 E5.92338
G1 X105.600 Y87.600 E6.83995
G1 X97.353 Y87.600 E7.51484 F600.000
G1 X97.028 Y87.167 F7800.000
G1 X97.353 Y86.975 F7800.000
G1 X91.025 Y86.975 E8.03273 F600.000
G1 X91.025 Y77.025 E8.84702
G1 X104.975 Y77.025 E9.98866
G1 X104.975 Y86.975 E10.80295
G1 X97.428 Y86.975 E11.42056 F600.000
G1 X101.956 Y83.250 F7800.000
G1 X102.087 Y82.741 E11.46356 F600.000
G1 X102.154 Y82.012 E11.52351
G1 X102.128 Y81.557 E11.56077
G1 X102.057 Y81.110 E11.59778
G1 X101.835 Y80.395 E11.65913
G1 X101.453 Y79.685 E11.72509
G1 X100.940 Y79.060 E11.79127
G1 X100.343 Y78.570 E11.85447
G1 X99.954 Y78.337 E11.89156
G1 X99.572 Y78.157 E11.92610
G1 X99.010 Y77.963 E11.97481
G1 X99.062 Y77.650 E12.00076
G1 X104.350 Y77.650 E12.43351
G1 X104.350 Y86.350 E13.14552
G1 X99.014 Y86.350 E13.58219 F600.000
G1 X98.967 Y86.030 E13.60868
G1 X99.579 Y85.846 E13.66095
G1 X100.260 Y85.485 E13.72401
G1 X100.626 Y85.216 E13.76125
G1 X100.964 Y84.910 E13.79848
G1 X101.429 Y84.344 E13.85844
G1 X101.663 Y83.954 E13.89567
G1 X101.841 Y83.577 E13.92982
G1 X101.931 Y83.321 E13.95203
G1 E10.75203 F2760.00000
G92 E0
G1 X91.650 Y85.308 F7800.000
G1 E3.20000 F2760.00000
G1 X91.650 Y77.650 E3.82669 F600.000
G1 X96.983 Y77.650 E4.26316
G1 X97.031 Y77.969 E4.28958
G1 X96.397 Y78.164 E4.34388 F600.000
G1 X95.685 Y78.547 E4.41005
G1 X95.060 Y79.060 E4.47621
G1 X94.547 Y79.685 E4.54237
G1 X94.164 Y80.397 E4.60854
G1 X93.938 Y81.133 E4.67159
G1 X93.869 Y81.583 E4.70884
G1 X93.846 Y82.038 E4.74608
G1 X93.918 Y82.767 E4.80603
G1 X94.028 Y83.208 E4.84325
G1 X94.181 Y83.635 E4.88034
G1 X94.547 Y84.315 E4.94354
G1 X95.060 Y84.940 E5.00972
G1 X95.685 Y85.453 E5.07591
G1 X96.365 Y85.819 E5.13911
G1 X96.792 Y85.972 E5.17620
G1 X96.988 Y86.021 E5.19273
G1 X96.947 Y86.350 E5.21986
G1 X91.650 Y86.350 E5.65339
G1 X91.650 Y85.383 E5.73257
G1 X95.444 Y83.345 F7800.000
G1 X95.326 Y83.125 E5.75300 F600.000
G1 X95.225 Y82.844 E5.77740
G1 X95.152 Y82.553 E5.80193
G1 X95.099 Y82.008 E5.84675
G1 X95.114 Y81.709 E5.87128
G1 X95.159 Y81.413 E5.89581
G1 X95.323 Y80.881 E5.94131
G1 X95.590 Y80.384 E5.98749
G1 X95.948 Y79.948 E6.03367
G1 X96.384 Y79.590 E6.07984
G1 X96.881 Y79.323 E6.12602
G1 X97.413 Y79.159 E6.17152
G1 X97.709 Y79.114 E6.19605
G1 X98.003 Y79.099 E6.22014 F600.000
G1 X98.458 Y79.134 E6.25750
G1 X98.792 Y79.210 E6.28556
G1 X99.101 Y79.316 E6.31224
G1 X99.365 Y79.441 E6.33618
G1 X99.621 Y79.594 E6.36058
G1 X100.052 Y79.948 E6.40621
G1 X100.410 Y80.384 E6.45239
G1 X100.677 Y80.881 E6.49853
G1 X100.837 Y81.395 E6.54264
G1 X100.884 Y81.691 E6.56711
G1 X100.901 Y81.990 E6.59165
G1 X100.851 Y82.535 E6.63647
G1 X100.780 Y82.827 E6.66099
G1 X100.683 Y83.102 E6.68485
G1 X100.559 Y83.365 E6.70871
G1 X100.405 Y83.622 E6.73323
G1 X100.057 Y84.045 E6.77805
G1 X99.835 Y84.246 E6.80258
G1 X99.593 Y84.424 E6.82711
G1 X99.102 Y84.684 E6.87261
G1 X98.562 Y84.847 E6.91879
G1 X98.000 Y84.902 E6.96497
G1 X97.447 Y84.848 E7.01047
G1 X97.156 Y84.775 E7.03500
G1 X96.875 Y84.674 E7.05940
G1 X96.384 Y84.410 E7.10503
G1 X95.948 Y84.052 E7.15121
G1 X95.590 Y83.616 E7.19739
G1 X95.480 Y83.411 E7.21645
G1 X95.195 Y83.337 F7800.000
G1 X94.929 Y83.706 F7800.000
G1 X94.754 Y83.380 E7.24680 F600.000
G1 X94.626 Y83.026 E7.27755
G1 X94.535 Y82.660 E7.30842
G1 X94.473 Y82.023 E7.36081
G1 X94.492 Y81.646 E7.39169
G1 X94.548 Y81.273 E7.42258
G1 X94.743 Y80.639 E7.47686
G1 X95.068 Y80.034 E7.53303
G1 X95.504 Y79.504 E7.58920
G1 X96.034 Y79.068 E7.64537
G1 X96.639 Y78.743 E7.70154
G1 X97.273 Y78.548 E7.75582
G1 X97.646 Y78.492 E7.78670
G1 X98.011 Y78.473 E7.81657 F600.000
G1 X98.551 Y78.514 E7.86096
G1 X98.964 Y78.608 E7.89562
G1 X99.336 Y78.737 E7.92783
G1 X99.660 Y78.889 E7.95707
G1 X99.982 Y79.082 E7.98781
G1 X100.496 Y79.504 E8.04223
G1 X100.932 Y80.034 E8.09841
G1 X101.256 Y80.638 E8.15446
G1 X101.447 Y81.253 E8.20719
G1 X101.506 Y81.624 E8.23793
G1 X101.527 Y82.001 E8.26883
G1 X101.469 Y82.638 E8.32121
G1 X101.380 Y83.005 E8.35208
G1 X101.262 Y83.339 E8.38109
G1 X101.111 Y83.660 E8.41009
G1 X100.917 Y83.983 E8.44097
G1 X100.510 Y84.478 E8.49336
G1 X100.231 Y84.731 E8.52424
G1 X99.927 Y84.955 E8.55513
G1 X99.340 Y85.265 E8.60940
G1 X98.683 Y85.463 E8.66558
G1 X98.000 Y85.530 E8.72175
G1 X97.340 Y85.465 E8.77603
G1 X96.974 Y85.374 E8.80690
G1 X96.620 Y85.246 E8.83765
G1 X96.035 Y84.932 E8.89206
G1 X95.504 Y84.496 E8.94825
G1 X95.068 Y83.965 E9.00443
G1 X94.965 Y83.772 E9.02236
G1 X93.803 Y83.858 F7800.000
G1 X92.028 Y82.083 E9.23061 F600.000
G1 X92.028 Y81.187 E9.30494
G1 X93.514 Y82.673 E9.47929
G1 X93.488 Y81.751 E9.55583
G1 X92.028 Y80.291 E9.72711
G1 X92.028 Y79.395 E9.80144
G1 X93.621 Y80.988 E9.98829
G1 X93.836 Y80.307 E10.04753
G1 X92.028 Y78.499 E10.25962
G1 X92.453 Y78.028 E10.31224
G1 X94.149 Y79.724 E10.51122
G1 X94.523 Y79.202 E10.56449
G1 X93.349 Y78.028 E10.70224
G1 X94.245 Y78.028 E10.77657
G1 X94.949 Y78.732 E10.85911
G1 X95.141 Y78.028 E10.91962
G1 X95.440 Y78.328 E10.95474
G1 X92.028 Y82.979 F7800.000
G1 X95.021 Y85.972 E11.30589 F600.000
G1 X92.333 Y85.972 F7800.000
G1 X92.028 Y85.667 E11.34169 F600.000
G1 X92.028 Y84.771 E11.41602
G1 X93.229 Y85.972 E11.55693
G1 X94.125 Y85.972 E11.63126
G1 X92.028 Y83.875 E11.87729
G1 X97.317 Y77.766 F7800.000
G1 X98.045 Y77.749 E12.00377 F600.000
G1 X98.724 Y77.775 E12.12168
G1 X103.972 Y78.333 F7800.000
G1 X103.667 Y78.028 E12.15749 F600.000
G1 X102.770 Y78.028 E12.23187
G1 X103.972 Y79.230 E12.37288
G1 X103.972 Y80.126 E12.44726
G1 X101.874 Y78.028 E12.69346
G1 X100.978 Y78.028 E12.76784
G1 X103.972 Y81.022 E13.11924
G1 X103.972 Y81.918 E13.19362
G1 X102.202 Y80.149 E13.40130
G1 X102.500 Y81.343 E13.50345
G1 X103.972 Y82.815 E13.67615
G1 X103.972 Y83.711 E13.75054
G1 X102.502 Y82.241 E13.92309
G1 X102.381 Y83.017 E13.98826
G1 X103.972 Y84.607 E14.17492
G1 X103.972 Y85.503 E14.24930
G1 X102.158 Y83.689 E14.46221
G1 X101.852 Y84.280 E14.51739
G1 X103.544 Y85.972 E14.71597
G1 X102.647 Y85.972 E14.79036
G1 X101.475 Y84.799 E14.92795
G1 X101.049 Y85.270 E14.98061
G1 X101.751 Y85.972 E15.06299
G1 X100.855 Y85.972 E15.13737
G1 X100.556 Y85.672 E15.17252
G1 X98.680 Y86.221 F7800.000
G1 X97.960 Y86.252 E15.29747 F600.000
G1 X97.278 Y86.219 E15.41592
G1 E12.21592 F2760.00000
G92 E0
G1 X112.400 Y86.219 F7800.000
