; generated by Slic3r 1.2.9 on 2017-08-02 at 00:19:31

; external perimeters extrusion width = 0.50mm
; perimeters extrusion width = 0.38mm
; infill extrusion width = 0.72mm
; solid infill extrusion width = 0.72mm
; top infill extrusion width = 0.72mm
; support material extrusion width = 0.50mm

M107
M190 S60 ; set bed temperature
M104 S210 ; set temperature
G28 X0 Y0
G28 Z0
G1 Z0.3 F200
G1 X15 Y20 F12000
M109 S210 ; wait for temperature to be reached
G21 ; set units to millimeters
G90 ; use absolute coordinates
M82 ; use absolute distances for extrusion
G92 E0
G1 E-3.20000 F2760.00000
G92 E0
G1 Z0.350 F7800.000
G1 X41.720 Y82.705 F7800.000
G1 E3.20000 F2760.00000
G1 X43.950 Y81.669 E3.41157 F1200.000
G1 X46.000 Y81.388 E3.58953
G1 X172.000 Y81.388 E14.42766
G1 X174.427 Y81.785 E14.63923
G1 X176.601 Y82.936 E14.85080 F1200.000
G1 X178.295 Y84.720 E15.06237
G1 X179.331 Y86.950 E15.27394
G1 X179.612 Y89.000 E15.45190
G1 X179.612 Y129.000 E18.89258
G1 X179.215 Y131.427 E19.10415
G1 X178.064 Y133.601 E19.31572
G1 X176.280 Y135.295 E19.52729
G1 X174.050 Y136.331 E19.73886
G1 X172.000 Y136.612 E19.91682
G1 X46.000 Y136.612 E30.75495
G1 X43.573 Y136.215 E30.96652
G1 X41.399 Y135.064 E31.17809
G1 X39.705 Y133.280 E31.38966
G1 X38.669 Y131.050 E31.60123
G1 X38.388 Y129.000 E31.77919
G1 X38.388 Y89.000 E35.21987
G1 X38.785 Y86.573 E35.43144
G1 X39.936 Y84.399 E35.64301
G1 X41.665 Y82.757 E35.84812
G1 X42.100 Y83.131 F7800.000
G1 X42.237 Y83.009 E35.86393 F1200.000
G1 X44.428 Y82.102 E36.06785
G1 X46.000 Y81.925 E36.20395
G1 X172.000 Y81.925 E47.04208
G1 X174.337 Y82.322 E47.24600
G1 X176.412 Y83.469 E47.44991 F1200.000
G1 X177.991 Y85.237 E47.65382
G1 X178.898 Y87.428 E47.85774
G1 X179.075 Y89.000 E47.99384
G1 X179.075 Y129.000 E51.43452
G1 X178.678 Y131.337 E51.63843
G1 X177.531 Y133.412 E51.84235
G1 X175.763 Y134.991 E52.04626
G1 X173.572 Y135.898 E52.25017
G1 X172.000 Y136.075 E52.38628
G1 X46.000 Y136.075 E63.22441
G1 X43.663 Y135.678 E63.42832
G1 X41.588 Y134.531 E63.63224
G1 X40.009 Y132.763 E63.83615
G1 X39.102 Y130.572 E64.04006
G1 X38.925 Y129.000 E64.17617
G1 X38.925 Y89.000 E67.61684
G1 X39.322 Y86.663 E67.82076
G1 X40.469 Y84.588 E68.02467
G1 X42.044 Y83.181 E68.20632
G1 X42.464 Y83.567 F7800.000
G1 X42.752 Y83.327 E68.23860 F1200.000
G1 X46.000 Y82.463 E68.52772
G1 X172.000 Y82.463 E79.36585
G1 X174.243 Y82.860 E79.56181
G1 X176.214 Y84.002 E79.75777 F1200.000
G1 X177.673 Y85.752 E79.95373
G1 X178.537 Y89.000 E80.24285
G1 X178.537 Y129.000 E83.68353
G1 X178.140 Y131.243 E83.87949
G1 X176.998 Y133.214 E84.07545
G1 X175.248 Y134.673 E84.27140
G1 X172.000 Y135.537 E84.56053
G1 X46.000 Y135.537 E95.39866
G1 X43.757 Y135.140 E95.59462
G1 X41.786 Y133.998 E95.79058
G1 X40.327 Y132.248 E95.98653
G1 X39.463 Y129.000 E96.27566
G1 X39.463 Y89.000 E99.71634
G1 X39.860 Y86.757 E99.91229
G1 X41.002 Y84.786 E100.10825
G1 X42.406 Y83.615 E100.26549
G1 E97.06549 F2760.00000
G92 E0
G1 X105.694 Y128.694 F7800.000
G1 E3.20000 F2760.00000
G1 X46.306 Y128.694 E8.30833 F1200.000
G1 X46.306 Y89.306 E11.69632
G1 X105.694 Y89.306 E16.80465
G1 X105.694 Y128.619 E20.18619
G1 X105.261 Y128.444 F7800.000
G1 X105.156 Y128.156 F7800.000
G1 X46.844 Y128.156 E25.20207 F1200.000
G1 X46.844 Y89.844 E28.49761
G1 X105.156 Y89.844 E33.51349
G1 X105.156 Y128.081 E36.80258
G1 X104.619 Y127.619 F7800.000
G1 X47.381 Y127.619 E41.72601 F1200.000
G1 X47.381 Y90.381 E44.92910
G1 X104.619 Y90.381 E49.85254
G1 X104.619 Y127.544 E53.04918
G1 X91.631 Y122.943 F7800.000
G1 X91.540 Y123.195 E53.07228 F1200.000
G1 X91.271 Y123.650 E53.11775
G1 X90.922 Y124.047 E53.16319
G1 X90.504 Y124.371 E53.20865
G1 X90.034 Y124.610 E53.25410
G1 X89.526 Y124.758 E53.29955
G1 X89.005 Y124.807 E53.34460
G1 X88.648 Y124.785 E53.37533
G1 X88.297 Y124.718 E53.40606
G1 X87.805 Y124.540 E53.45110
G1 X87.350 Y124.271 E53.49657
G1 X86.953 Y123.922 E53.54201
G1 X86.629 Y123.504 E53.58747
G1 X86.390 Y123.034 E53.63292
G1 X86.242 Y122.526 E53.67837
G1 X86.192 Y122.000 E53.72383
G1 X86.242 Y121.474 E53.76929
G1 X86.390 Y120.966 E53.81474
G1 X86.629 Y120.496 E53.86020
G1 X86.953 Y120.078 E53.90566
G1 X87.350 Y119.729 E53.95110
G1 X87.805 Y119.460 E53.99657
G1 X88.297 Y119.282 E54.04160
G1 X88.648 Y119.215 E54.07234
G1 X89.001 Y119.193 E54.10272 F1200.000
G1 X89.526 Y119.242 E54.14810
G1 X90.034 Y119.390 E54.19356
G1 X90.504 Y119.629 E54.23902
G1 X90.922 Y119.953 E54.28447
G1 X91.271 Y120.350 E54.32992
G1 X91.540 Y120.805 E54.37538
G1 X91.718 Y121.297 E54.42042
G1 X91.785 Y121.648 E54.45116
G1 X91.807 Y122.000 E54.48147
G1 X91.785 Y122.352 E54.51179
G1 X91.718 Y122.703 E54.54253
G1 X91.657 Y122.872 E54.55801
G1 X91.805 Y123.148 F7800.000
G1 X92.137 Y123.125 F7800.000
G1 X92.029 Y123.425 E54.58548 F1200.000
G1 X91.708 Y123.968 E54.63968
G1 X91.291 Y124.440 E54.69387
G1 X90.794 Y124.826 E54.74807
G1 X90.232 Y125.112 E54.80226
G1 X89.627 Y125.288 E54.85645
G1 X89.013 Y125.346 E54.90950
G1 X88.581 Y125.319 E54.94677
G1 X88.155 Y125.238 E54.98406
G1 X87.575 Y125.029 E55.03711
G1 X87.032 Y124.708 E55.09131
G1 X86.560 Y124.291 E55.14549
G1 X86.174 Y123.794 E55.19969
G1 X85.888 Y123.232 E55.25388
G1 X85.712 Y122.627 E55.30807
G1 X85.653 Y122.000 E55.36227
G1 X85.712 Y121.373 E55.41647
G1 X85.888 Y120.768 E55.47066
G1 X86.174 Y120.206 E55.52485
G1 X86.560 Y119.709 E55.57905
G1 X87.032 Y119.292 E55.63323
G1 X87.575 Y118.971 E55.68743
G1 X88.155 Y118.762 E55.74048
G1 X88.581 Y118.681 E55.77775
G1 X89.009 Y118.654 E55.81465 F1200.000
G1 X89.627 Y118.712 E55.86806
G1 X90.232 Y118.888 E55.92228
G1 X90.794 Y119.174 E55.97647
G1 X91.291 Y119.560 E56.03067
G1 X91.708 Y120.032 E56.08485
G1 X92.029 Y120.575 E56.13906
G1 X92.238 Y121.155 E56.19210
G1 X92.319 Y121.581 E56.22939
G1 X92.345 Y122.000 E56.26552
G1 X92.319 Y122.419 E56.30165
G1 X92.238 Y122.845 E56.33893
G1 X92.162 Y123.054 E56.35805
G1 X92.643 Y123.307 F7800.000
G1 X92.517 Y123.655 E56.38990 F1200.000
G1 X92.145 Y124.285 E56.45284
G1 X91.661 Y124.834 E56.51576
G1 X91.083 Y125.282 E56.57870
G1 X90.431 Y125.614 E56.64163
G1 X89.729 Y125.818 E56.70455
G1 X89.022 Y125.885 E56.76561
G1 X88.513 Y125.853 E56.80943
G1 X88.013 Y125.758 E56.85326
G1 X87.345 Y125.517 E56.91432
G1 X86.715 Y125.145 E56.97726
G1 X86.166 Y124.661 E57.04018
G1 X85.718 Y124.083 E57.10312
G1 X85.386 Y123.431 E57.16605
G1 X85.182 Y122.729 E57.22898
G1 X85.113 Y122.000 E57.29192
G1 X85.182 Y121.271 E57.35486
G1 X85.386 Y120.569 E57.41779
G1 X85.718 Y119.917 E57.48072
G1 X86.166 Y119.339 E57.54366
G1 X86.715 Y118.855 E57.60658
G1 X87.345 Y118.483 E57.66952
G1 X88.013 Y118.242 E57.73058
G1 X88.513 Y118.147 E57.77438
G1 X89.017 Y118.115 E57.81781 F1200.000
G1 X89.728 Y118.181 E57.87922
G1 X90.431 Y118.386 E57.94221
G1 X91.083 Y118.718 E58.00514
G1 X91.661 Y119.166 E58.06808
G1 X92.145 Y119.715 E58.13100
G1 X92.517 Y120.345 E58.19394
G1 X92.758 Y121.013 E58.25500
G1 X92.853 Y121.513 E58.29883
G1 X92.884 Y122.000 E58.34077
G1 X92.853 Y122.487 E58.38272
G1 X92.758 Y122.987 E58.42655
G1 X92.668 Y123.236 E58.44931
G1 X96.705 Y120.768 F7800.000
G1 X96.425 Y120.218 E58.50244 F1200.000
G1 X96.251 Y119.620 E58.55600
G1 X96.192 Y119.000 E58.60955
G1 X96.251 Y118.380 E58.66309
G1 X96.425 Y117.782 E58.71665
G1 X96.707 Y117.228 E58.77020
G1 X97.089 Y116.736 E58.82374
G1 X97.556 Y116.324 E58.87730
G1 X98.092 Y116.007 E58.93085
G1 X98.673 Y115.798 E58.98398
G1 X99.086 Y115.719 E59.02011
G1 X99.502 Y115.693 E59.05598 F1200.000
G1 X100.120 Y115.751 E59.10937
G1 X100.718 Y115.925 E59.16294
G1 X101.272 Y116.207 E59.21648
G1 X101.764 Y116.589 E59.27003
G1 X102.176 Y117.056 E59.32358
G1 X102.493 Y117.592 E59.37714
G1 X102.703 Y118.176 E59.43051
G1 X102.781 Y118.586 E59.46640
G1 X102.807 Y119.000 E59.50212
G1 X102.781 Y119.414 E59.53784
G1 X102.702 Y119.827 E59.57398
G1 X102.493 Y120.408 E59.62711
G1 X102.176 Y120.944 E59.68066
G1 X101.764 Y121.411 E59.73422
G1 X101.272 Y121.793 E59.78776
G1 X100.718 Y122.075 E59.84131
G1 X100.120 Y122.249 E59.89487
G1 X99.500 Y122.308 E59.94841
G1 X98.880 Y122.249 E60.00196
G1 X98.282 Y122.075 E60.05551
G1 X97.728 Y121.793 E60.10907
G1 X97.238 Y121.412 E60.16243
G1 X96.952 Y121.108 E60.19832
G1 X96.749 Y120.829 E60.22801
G1 X96.205 Y120.768 F7800.000
G1 X96.226 Y121.012 F7800.000
G1 X95.923 Y120.416 E60.28551 F1200.000
G1 X95.721 Y119.721 E60.34781
G1 X95.653 Y119.000 E60.41009
G1 X95.721 Y118.279 E60.47238
G1 X95.923 Y117.584 E60.53467
G1 X96.252 Y116.938 E60.59696
G1 X96.695 Y116.366 E60.65924
G1 X97.239 Y115.887 E60.72154
G1 X97.862 Y115.519 E60.78383
G1 X98.531 Y115.278 E60.84497
G1 X99.018 Y115.185 E60.88764
G1 X99.510 Y115.154 E60.93003 F1200.000
G1 X100.221 Y115.221 E60.99144
G1 X100.916 Y115.423 E61.05376
G1 X101.562 Y115.752 E61.11605
G1 X102.134 Y116.195 E61.17833
G1 X102.613 Y116.738 E61.24062
G1 X102.981 Y117.362 E61.30294
G1 X103.223 Y118.034 E61.36432
G1 X103.315 Y118.518 E61.40675
G1 X103.345 Y119.000 E61.44827
G1 X103.315 Y119.482 E61.48981
G1 X103.222 Y119.969 E61.53249
G1 X102.981 Y120.638 E61.59363
G1 X102.613 Y121.262 E61.65593
G1 X102.134 Y121.805 E61.71822
G1 X101.562 Y122.248 E61.78050
G1 X100.916 Y122.577 E61.84279
G1 X100.221 Y122.779 E61.90508
G1 X99.500 Y122.847 E61.96737
G1 X98.779 Y122.779 E62.02965
G1 X98.084 Y122.577 E62.09195
G1 X97.438 Y122.248 E62.15426
G1 X96.875 Y121.811 E62.21563
G1 X96.537 Y121.451 E62.25805
G1 X96.265 Y121.076 E62.29793
G1 X95.747 Y121.256 F7800.000
G1 X95.421 Y120.615 E62.35979 F1200.000
G1 X95.190 Y119.822 E62.43082
G1 X95.113 Y119.000 E62.50185
G1 X95.190 Y118.178 E62.57287
G1 X95.421 Y117.385 E62.64391
G1 X95.796 Y116.649 E62.71494
G1 X96.302 Y115.997 E62.78595
G1 X96.921 Y115.451 E62.85699
G1 X97.632 Y115.030 E62.92802
G1 X98.388 Y114.758 E62.99717
G1 X98.950 Y114.651 E63.04639
G1 X99.518 Y114.615 E63.09530 F1200.000
G1 X100.322 Y114.690 E63.16473
G1 X101.115 Y114.921 E63.23580
G1 X101.851 Y115.296 E63.30683
G1 X102.503 Y115.802 E63.37785
G1 X103.049 Y116.421 E63.44888
G1 X103.470 Y117.132 E63.51995
G1 X103.743 Y117.892 E63.58934
G1 X103.849 Y118.451 E63.63831
G1 X103.884 Y119.000 E63.68564
G1 X103.849 Y119.549 E63.73298
G1 X103.742 Y120.112 E63.78221
G1 X103.470 Y120.868 E63.85136
G1 X103.049 Y121.579 E63.92240
G1 X102.503 Y122.198 E63.99343
G1 X101.851 Y122.704 E64.06445
G1 X101.115 Y123.079 E64.13548
G1 X100.322 Y123.310 E64.20651
G1 X99.500 Y123.387 E64.27754
G1 X98.678 Y123.310 E64.34856
G1 X97.885 Y123.079 E64.41960
G1 X97.149 Y122.704 E64.49066
G1 X96.512 Y122.209 E64.56005
G1 X96.122 Y121.794 E64.60899
G1 X95.781 Y121.323 E64.65904
G1 X98.885 Y102.250 F7800.000
G1 X98.478 Y102.145 E64.69519 F1200.000
G1 X98.088 Y101.990 E64.73132
G1 X97.556 Y101.676 E64.78446
G1 X97.089 Y101.264 E64.83801
G1 X96.707 Y100.772 E64.89156
G1 X96.425 Y100.218 E64.94510
G1 X96.251 Y99.620 E64.99866
G1 X96.192 Y99.000 E65.05221
G1 X96.251 Y98.380 E65.10576
G1 X96.425 Y97.782 E65.15931
G1 X96.707 Y97.228 E65.21285
G1 X97.089 Y96.736 E65.26640
G1 X97.556 Y96.324 E65.31995
G1 X98.092 Y96.007 E65.37351
G1 X98.673 Y95.798 E65.42663
G1 X99.086 Y95.719 E65.46277
G1 X99.502 Y95.693 E65.49864 F1200.000
G1 X100.120 Y95.751 E65.55203
G1 X100.718 Y95.925 E65.60559
G1 X101.272 Y96.207 E65.65914
G1 X101.764 Y96.589 E65.71269
G1 X102.176 Y97.056 E65.76624
G1 X102.493 Y97.592 E65.81980
G1 X102.703 Y98.176 E65.87317
G1 X102.781 Y98.586 E65.90906
G1 X102.807 Y99.000 E65.94478
G1 X102.781 Y99.414 E65.98050
G1 X102.702 Y99.827 E66.01664
G1 X102.493 Y100.408 E66.06977
G1 X102.176 Y100.944 E66.12332
G1 X101.764 Y101.411 E66.17687
G1 X101.272 Y101.793 E66.23042
G1 X100.718 Y102.075 E66.28397
G1 X100.120 Y102.249 E66.33752
G1 X99.500 Y102.308 E66.39107
G1 X98.960 Y102.257 E66.43775
G1 X98.607 Y102.565 F7800.000
G1 X98.751 Y102.770 F7800.000
G1 X98.312 Y102.657 E66.47680 F1200.000
G1 X97.850 Y102.474 E66.51948
G1 X97.239 Y102.113 E66.58062
G1 X96.695 Y101.634 E66.64292
G1 X96.252 Y101.062 E66.70520
G1 X95.923 Y100.416 E66.76749
G1 X95.721 Y99.721 E66.82978
G1 X95.653 Y99.000 E66.89207
G1 X95.721 Y98.279 E66.95436
G1 X95.923 Y97.584 E67.01665
G1 X96.251 Y96.938 E67.07893
G1 X96.695 Y96.366 E67.14122
G1 X97.239 Y95.887 E67.20351
G1 X97.862 Y95.519 E67.26580
G1 X98.531 Y95.278 E67.32694
G1 X99.018 Y95.185 E67.36961
G1 X99.510 Y95.154 E67.41201 F1200.000
G1 X100.221 Y95.221 E67.47342
G1 X100.916 Y95.423 E67.53573
G1 X101.562 Y95.752 E67.59803
G1 X102.134 Y96.195 E67.66031
G1 X102.613 Y96.739 E67.72260
G1 X102.981 Y97.362 E67.78491
G1 X103.223 Y98.034 E67.84630
G1 X103.315 Y98.518 E67.88872
G1 X103.345 Y99.000 E67.93025
G1 X103.315 Y99.482 E67.97178
G1 X103.222 Y99.969 E68.01446
G1 X102.981 Y100.638 E68.07560
G1 X102.613 Y101.262 E68.13790
G1 X102.134 Y101.805 E68.20019
G1 X101.562 Y102.248 E68.26247
G1 X100.916 Y102.577 E68.32476
G1 X100.221 Y102.779 E68.38706
G1 X99.500 Y102.847 E68.44934
G1 X98.825 Y102.784 E68.50766
G1 X98.618 Y103.291 F7800.000
G1 X98.145 Y103.169 E68.54963 F1200.000
G1 X97.613 Y102.959 E68.59885
G1 X96.921 Y102.549 E68.66800
G1 X96.302 Y102.003 E68.73904
G1 X95.796 Y101.351 E68.81006
G1 X95.421 Y100.615 E68.88108
G1 X95.190 Y99.822 E68.95212
G1 X95.113 Y99.000 E69.02314
G1 X95.190 Y98.178 E69.09417
G1 X95.421 Y97.385 E69.16520
G1 X95.796 Y96.649 E69.23622
G1 X96.302 Y95.997 E69.30725
G1 X96.921 Y95.451 E69.37828
G1 X97.632 Y95.030 E69.44931
G1 X98.388 Y94.758 E69.51845
G1 X98.950 Y94.651 E69.56767
G1 X99.518 Y94.615 E69.61660 F1200.000
G1 X100.322 Y94.690 E69.68602
G1 X101.115 Y94.921 E69.75709
G1 X101.851 Y95.296 E69.82812
G1 X102.503 Y95.802 E69.89914
G1 X103.049 Y96.421 E69.97017
G1 X103.470 Y97.132 E70.04124
G1 X103.743 Y97.892 E70.11064
G1 X103.849 Y98.451 E70.15960
G1 X103.884 Y99.000 E70.20693
G1 X103.849 Y99.549 E70.25427
G1 X103.742 Y100.112 E70.30350
G1 X103.470 Y100.868 E70.37265
G1 X103.049 Y101.579 E70.44369
G1 X102.503 Y102.198 E70.51472
G1 X101.851 Y102.704 E70.58574
G1 X101.115 Y103.079 E70.65677
G1 X100.322 Y103.310 E70.72780
G1 X99.500 Y103.387 E70.79883
G1 X98.690 Y103.309 E70.86878
G1 X91.271 Y97.650 F7800.000
G1 X90.922 Y98.047 E70.91423 F1200.000
G1 X90.504 Y98.371 E70.95969
G1 X90.034 Y98.610 E71.00514
G1 X89.526 Y98.758 E71.05059
G1 X89.000 Y98.808 E71.09605
G1 X88.474 Y98.758 E71.14151
G1 X87.966 Y98.610 E71.18696
G1 X87.495 Y98.370 E71.23243
G1 X87.079 Y98.047 E71.27781
G1 X86.837 Y97.789 E71.30820
G1 X86.627 Y97.500 E71.33892
G1 X86.390 Y97.034 E71.38396
G1 X86.242 Y96.526 E71.42941
G1 X86.192 Y96.000 E71.47487
G1 X86.242 Y95.474 E71.52033
G1 X86.390 Y94.966 E71.56578
G1 X86.629 Y94.496 E71.61123
G1 X86.953 Y94.078 E71.65669
G1 X87.350 Y93.729 E71.70214
G1 X87.805 Y93.460 E71.74760
G1 X88.297 Y93.282 E71.79264
G1 X88.648 Y93.215 E71.82337
G1 X89.001 Y93.193 E71.85375 F1200.000
G1 X89.526 Y93.242 E71.89913
G1 X90.034 Y93.390 E71.94460
G1 X90.504 Y93.629 E71.99005
G1 X90.922 Y93.953 E72.03551
G1 X91.271 Y94.350 E72.08096
G1 X91.540 Y94.805 E72.12642
G1 X91.718 Y95.297 E72.17146
G1 X91.785 Y95.648 E72.20219
G1 X91.807 Y96.000 E72.23251
G1 X91.785 Y96.352 E72.26283
G1 X91.718 Y96.703 E72.29356
G1 X91.540 Y97.195 E72.33861
G1 X91.310 Y97.586 E72.37761
G1 X91.460 Y98.113 F7800.000
G1 X91.675 Y98.006 F7800.000
G1 X91.292 Y98.440 E72.42743 F1200.000
G1 X90.794 Y98.826 E72.48163
G1 X90.232 Y99.112 E72.53583
G1 X89.627 Y99.288 E72.59002
G1 X89.000 Y99.347 E72.64421
G1 X88.373 Y99.288 E72.69841
G1 X87.768 Y99.112 E72.75260
G1 X87.206 Y98.826 E72.80683
G1 X86.716 Y98.445 E72.86023
G1 X86.422 Y98.132 E72.89714
G1 X86.168 Y97.782 E72.93441
G1 X85.888 Y97.232 E72.98745
G1 X85.712 Y96.627 E73.04164
G1 X85.653 Y96.000 E73.09584
G1 X85.712 Y95.373 E73.15003
G1 X85.888 Y94.768 E73.20422
G1 X86.174 Y94.206 E73.25842
G1 X86.560 Y93.709 E73.31261
G1 X87.032 Y93.292 E73.36680
G1 X87.575 Y92.971 E73.42100
G1 X88.155 Y92.762 E73.47404
G1 X88.581 Y92.681 E73.51131
G1 X89.009 Y92.654 E73.54822 F1200.000
G1 X89.627 Y92.712 E73.60162
G1 X90.232 Y92.888 E73.65584
G1 X90.794 Y93.174 E73.71004
G1 X91.292 Y93.560 E73.76424
G1 X91.708 Y94.032 E73.81842
G1 X92.029 Y94.575 E73.87261
G1 X92.238 Y95.155 E73.92567
G1 X92.319 Y95.581 E73.96295
G1 X92.345 Y96.000 E73.99908
G1 X92.319 Y96.419 E74.03521
