; generated by Slic3r 1.2.9 on 2016-04-24 at 15:55:52

; external perimeters extrusion width = 0.50mm
; perimeters extrusion width = 0.72mm
; infill extrusion width = 0.72mm
; solid infill extrusion width = 0.72mm
; top infill extrusion width = 0.72mm

M107
M190 S60 ; set bed temperature
M104 S200 ; set temperature
G28 X0 Y0
G28 Z0
G1 Z0.3 F200
G1 X15 Y20 F12000
M109 S200 ; wait for temperature to be reached
G21 ; set units to millimeters
G90 ; use absolute coordinates
M82 ; use absolute distances for extrusion
G92 E0
G1 E-3.20000 F2760.00000
G92 E0
G1 Z0.350 F7800.000
G1 X72.788 Y73.359 F7800.000
G1 E3.20000 F2760.00000
G1 X74.578 Y71.612 E3.40475 F1800.000
G1 X76.827 Y70.514 E3.60950
G1 X79.112 Y70.175 E3.79861
G1 X89.013 Y70.175 E4.60879
G1 X90.011 Y70.239 E4.69065
G1 X129.136 Y75.239 E7.91854 F1800.000
G1 X131.536 Y75.946 E8.12329
G1 X133.592 Y77.371 E8.32805
G1 X135.184 Y79.534 E8.54784
G1 X144.175 Y97.565 E10.19674
G1 X144.625 Y98.560 E10.28605
G1 X145.148 Y99.882 E10.40243
G1 X145.499 Y100.906 E10.49099
G1 X145.896 Y102.272 E10.60740
G1 X146.094 Y103.082 E10.67570
G1 X146.267 Y103.898 E10.74395
G1 X146.454 Y104.966 E10.83267
G1 X146.632 Y106.375 E10.94888
G1 X146.717 Y107.455 E11.03756
G1 X146.752 Y108.288 E11.10578
G1 X146.761 Y109.123 E11.17411
G1 X146.717 Y110.545 E11.29048
G1 X146.632 Y111.625 E11.37916
G1 X146.536 Y112.452 E11.44731
G1 X146.415 Y113.280 E11.51576
G1 X146.148 Y114.678 E11.63225
G1 X145.896 Y115.728 E11.72064
G1 X145.499 Y117.094 E11.83705
G1 X145.148 Y118.118 E11.92561
G1 X144.625 Y119.440 E12.04199
G1 X144.180 Y120.426 E12.13052
G1 X135.184 Y138.466 E13.78020
G1 X133.725 Y140.499 E13.98495
G1 X131.703 Y141.971 E14.18970
G1 X130.129 Y142.569 E14.32743
G1 X111.004 Y147.569 E15.94516
G1 X109.012 Y147.825 E16.10951
G1 X99.112 Y147.825 E16.91969
G1 X95.591 Y146.993 E17.21581
G1 X75.591 Y136.993 E19.04573
G1 X73.559 Y135.533 E19.25048
G1 X72.088 Y133.509 E19.45524
G1 X71.238 Y129.950 E19.75472
G1 X71.238 Y78.050 E24.00204
G1 X71.635 Y75.580 E24.20679
G1 X72.753 Y73.426 E24.40540
G1 X73.357 Y73.669 F7800.000
G1 X73.408 Y73.576 E24.41413 F1800.000
G1 X75.181 Y71.959 E24.61053
G1 X77.386 Y71.009 E24.80694
G1 X79.112 Y70.800 E24.94929
G1 X89.013 Y70.800 E25.75948
G1 X89.932 Y70.859 E25.83484
G1 X129.057 Y75.859 E29.06273 F1800.000
G1 X131.354 Y76.553 E29.25914
G1 X133.299 Y77.959 E29.45554
G1 X134.625 Y79.813 E29.64210
G1 X143.360 Y97.321 E31.24333
G1 X143.715 Y98.054 E31.31000
G1 X144.047 Y98.799 E31.37673
G1 X144.564 Y100.103 E31.49150
G1 X144.902 Y101.090 E31.57684
G1 X145.293 Y102.437 E31.69165
G1 X145.487 Y103.228 E31.75834
G1 X145.655 Y104.025 E31.82499
G1 X145.835 Y105.054 E31.91049
G1 X146.010 Y106.444 E32.02511
G1 X146.092 Y107.485 E32.11056
G1 X146.127 Y108.298 E32.17718
G1 X146.136 Y109.113 E32.24391
G1 X146.092 Y110.515 E32.35867
G1 X146.010 Y111.556 E32.44413
G1 X145.918 Y112.364 E32.51068
G1 X145.799 Y113.172 E32.57752
G1 X145.536 Y114.551 E32.69239
G1 X145.293 Y115.563 E32.77759
G1 X144.902 Y116.910 E32.89239
G1 X144.564 Y117.897 E32.97773
G1 X144.047 Y119.201 E33.09251
G1 X143.618 Y120.151 E33.17783
G1 X134.625 Y138.187 E34.82713
G1 X133.212 Y140.127 E35.02354
G1 X131.244 Y141.500 E35.21994
G1 X129.971 Y141.964 E35.33081
G1 X110.846 Y146.964 E36.94854
G1 X109.012 Y147.200 E37.09984
G1 X99.112 Y147.200 E37.91002
G1 X95.870 Y146.434 E38.18265
G1 X75.870 Y136.434 E40.01257
G1 X73.931 Y135.021 E40.20897
G1 X72.559 Y133.051 E40.40538
G1 X71.863 Y129.950 E40.66549
G1 X71.863 Y78.050 E44.91281
G1 X72.260 Y75.683 E45.10922
G1 X73.321 Y73.735 E45.29076
G1 X73.919 Y73.992 F7800.000
G1 X74.028 Y73.803 E45.30864 F1800.000
G1 X75.781 Y72.324 E45.49633
G1 X77.933 Y71.531 E45.68401
G1 X79.112 Y71.425 E45.78095
G1 X89.013 Y71.425 E46.59113
G1 X89.852 Y71.479 E46.66000
G1 X128.977 Y76.479 E49.88790 F1800.000
G1 X131.168 Y77.159 E50.07559
G1 X132.995 Y78.545 E50.26327
G1 X134.065 Y80.092 E50.41727
G1 X142.799 Y97.596 E52.01813
G1 X143.387 Y98.847 E52.13126
G1 X143.772 Y99.774 E52.21341
G1 X144.240 Y101.075 E52.32657
G1 X144.535 Y102.035 E52.40873
G1 X144.879 Y103.374 E52.52188
G1 X145.182 Y104.926 E52.65127
G1 X145.325 Y105.929 E52.73415
G1 X145.455 Y107.306 E52.84739
G1 X145.502 Y108.308 E52.92947
G1 X145.502 Y109.692 E53.04273
G1 X145.455 Y110.694 E53.12480
G1 X145.325 Y112.072 E53.23806
G1 X145.183 Y113.065 E53.32015
G1 X144.924 Y114.424 E53.43341
G1 X144.690 Y115.398 E53.51540
G1 X144.304 Y116.727 E53.62860
G1 X143.979 Y117.676 E53.71073
G1 X143.470 Y118.962 E53.82390
G1 X143.146 Y119.688 E53.88901
G1 X142.777 Y120.447 E53.95805
G1 X134.065 Y137.908 E55.55494
G1 X132.702 Y139.752 E55.74263
G1 X129.813 Y141.359 E56.01317
G1 X110.688 Y146.359 E57.63090
G1 X109.012 Y146.575 E57.76916
G1 X99.112 Y146.575 E58.57934
G1 X96.150 Y145.875 E58.82847
G1 X76.150 Y135.875 E60.65839
G1 X74.307 Y134.510 E60.84608
G1 X73.040 Y132.598 E61.03377
G1 X72.488 Y129.950 E61.25517
G1 X72.488 Y78.050 E65.50249
G1 X72.885 Y75.791 E65.69018
G1 X73.882 Y74.057 E65.85385
G1 E62.65385 F2760.00000
G92 E0
G1 X127.787 Y134.600 F7800.000
G1 E3.20000 F2760.00000
G1 X121.587 Y134.600 E3.70739 F1800.000
G1 X121.587 Y125.333 E4.46575
G1 X122.240 Y125.271 E4.51942
G1 X122.756 Y125.198 E4.56202
G1 X123.762 Y125.006 E4.64589
G1 X124.766 Y124.748 E4.73065
G1 X125.743 Y124.431 E4.81474
G1 X126.698 Y124.052 E4.89883
G1 X127.635 Y123.611 E4.98359
G1 X128.536 Y123.116 E5.06768
G1 X129.403 Y122.566 E5.15177
G1 X129.829 Y122.267 E5.19434
G1 X130.514 Y121.739 E5.26512
G1 X131.416 Y120.953 E5.36300
G1 X132.143 Y120.227 E5.44708
G1 X132.809 Y119.472 E5.52946
G1 X133.148 Y119.050 E5.57378
G1 X133.745 Y118.228 E5.65687
G1 X134.305 Y117.346 E5.74242
G1 X134.800 Y116.446 E5.82651
G1 X135.238 Y115.516 E5.91061
G1 X135.436 Y115.037 E5.95304
G1 X135.641 Y114.488 E6.00101
G1 X135.937 Y113.575 E6.07948
G1 X136.192 Y112.580 E6.16356
G1 X136.297 Y112.073 E6.20595
G1 X136.386 Y111.563 E6.24833
G1 X136.515 Y110.543 E6.33242
G1 X136.579 Y109.518 E6.41651
G1 X136.588 Y109.000 E6.45890
G1 X136.579 Y108.482 E6.50129
G1 X136.515 Y107.457 E6.58538
G1 X136.386 Y106.437 E6.66947
G1 X136.297 Y105.927 E6.71185
G1 X136.192 Y105.420 E6.75424
G1 X135.937 Y104.425 E6.83831
G1 X135.644 Y103.521 E6.91606
G1 X135.436 Y102.963 E6.96475
G1 X135.238 Y102.484 E7.00719
G1 X134.800 Y101.554 E7.09128
G1 X134.305 Y100.654 E7.17537
G1 X134.034 Y100.212 E7.21776
G1 X133.750 Y99.780 E7.26015
G1 X133.148 Y98.950 E7.34403
G1 X132.809 Y98.528 E7.38835
G1 X132.143 Y97.773 E7.47072
G1 X131.416 Y97.047 E7.55480
G1 X130.514 Y96.261 E7.65269
G1 X129.829 Y95.733 E7.72347
G1 X129.403 Y95.434 E7.76604
G1 X128.536 Y94.884 E7.85012
G1 X127.644 Y94.393 E7.93342
G1 X126.698 Y93.948 E8.01898
G1 X125.743 Y93.569 E8.10307
G1 X124.775 Y93.255 E8.18636
G1 X124.266 Y93.115 E8.22954
G1 X123.762 Y92.994 E8.27193
G1 X122.756 Y92.802 E8.35580
G1 X122.240 Y92.729 E8.39840
G1 X121.587 Y92.667 E8.45207
G1 X121.587 Y83.400 E9.21043
G1 X127.787 Y83.400 E9.71782
G1 X127.787 Y92.288 E10.44521
G1 X129.030 Y92.921 E10.55933
G1 X129.526 Y93.204 E10.60605
G1 X130.502 Y93.823 E10.70061
G1 X131.434 Y94.501 E10.79495
G1 X132.325 Y95.237 E10.88951
G1 X132.747 Y95.622 E10.93624
G1 X133.566 Y96.441 E11.03102
G1 X133.950 Y96.863 E11.07775
G1 X134.687 Y97.753 E11.17232
G1 X135.364 Y98.686 E11.26665
G1 X135.983 Y99.661 E11.36121
G1 X136.266 Y100.157 E11.40794
G1 X136.792 Y101.189 E11.50273
G1 X137.027 Y101.710 E11.54946
G1 X137.452 Y102.784 E11.64402
G1 X137.807 Y103.874 E11.73781
G1 X138.095 Y104.994 E11.83247
G1 X138.310 Y106.120 E11.92626
G1 X138.456 Y107.276 E12.02160
G1 X138.501 Y107.845 E12.06832
G1 X138.537 Y109.000 E12.16288
G1 X138.501 Y110.155 E12.25745
G1 X138.456 Y110.724 E12.30417
G1 X138.311 Y111.871 E12.39874
G1 X138.095 Y113.003 E12.49308
G1 X137.809 Y114.119 E12.58741
G1 X137.452 Y115.216 E12.68175
G1 X137.028 Y116.288 E12.77609
G1 X136.537 Y117.331 E12.87043
G1 X135.982 Y118.341 E12.96477
G1 X135.364 Y119.314 E13.05911
G1 X134.687 Y120.247 E13.15344
G1 X133.952 Y121.135 E13.24778
G1 X133.163 Y121.975 E13.34212
G1 X132.322 Y122.764 E13.43646
G1 X131.434 Y123.499 E13.53080
G1 X130.502 Y124.177 E13.62514
G1 X129.528 Y124.794 E13.71947
G1 X128.516 Y125.351 E13.81404
G1 X127.787 Y125.708 E13.88040
G1 X127.787 Y134.525 E14.60196
G1 X127.354 Y134.350 F7800.000
G1 X127.163 Y133.975 F7800.000
G1 X122.212 Y133.975 E15.00707 F1800.000
G1 X122.212 Y125.906 E15.66740
G1 X122.858 Y125.814 E15.72079
G1 X123.894 Y125.617 E15.80708
G1 X124.945 Y125.347 E15.89585
G1 X125.955 Y125.019 E15.98275
G1 X126.942 Y124.628 E16.06966
G1 X127.924 Y124.166 E16.15844
G1 X128.854 Y123.654 E16.24534
G1 X129.751 Y123.085 E16.33224
G1 X130.200 Y122.770 E16.37715
G1 X130.906 Y122.225 E16.45014
G1 X131.848 Y121.406 E16.55231
G1 X132.598 Y120.655 E16.63920
G1 X133.287 Y119.875 E16.72435
G1 X133.644 Y119.429 E16.77108
G1 X134.259 Y118.584 E16.85660
G1 X134.846 Y117.660 E16.94619
G1 X135.357 Y116.729 E17.03309
G1 X135.809 Y115.768 E17.12000
G1 X136.018 Y115.266 E17.16454
G1 X136.232 Y114.693 E17.21455
G1 X136.537 Y113.749 E17.29574
G1 X136.801 Y112.721 E17.38260
G1 X136.911 Y112.190 E17.42699
G1 X137.004 Y111.656 E17.47138
G1 X137.137 Y110.602 E17.55829
G1 X137.204 Y109.542 E17.64519
G1 X137.213 Y109.000 E17.68958
G1 X137.204 Y108.458 E17.73398
G1 X137.137 Y107.398 E17.82088
G1 X137.004 Y106.344 E17.90778
G1 X136.911 Y105.810 E17.95218
G1 X136.801 Y105.279 E17.99657
G1 X136.537 Y104.251 E18.08343
G1 X136.234 Y103.315 E18.16388
G1 X135.809 Y102.231 E18.25915
G1 X135.357 Y101.271 E18.34606
G1 X134.846 Y100.340 E18.43296
G1 X134.264 Y99.424 E18.52174
G1 X133.644 Y98.571 E18.60806
G1 X133.287 Y98.125 E18.65480
G1 X132.598 Y97.345 E18.73996
G1 X131.848 Y96.594 E18.82684
G1 X131.444 Y96.227 E18.87154
G1 X130.906 Y95.775 E18.92903
G1 X130.200 Y95.230 E19.00203
G1 X129.751 Y94.915 E19.04693
G1 X128.854 Y94.346 E19.13383
G1 X127.932 Y93.839 E19.21992
G1 X126.942 Y93.372 E19.30951
G1 X125.955 Y92.981 E19.39641
G1 X124.954 Y92.656 E19.48251
G1 X123.894 Y92.383 E19.57210
G1 X122.858 Y92.186 E19.65838
G1 X122.212 Y92.094 E19.71177
G1 X122.212 Y84.025 E20.37210
G1 X127.163 Y84.025 E20.77721
G1 X127.163 Y92.671 E21.48480
G1 X128.733 Y93.471 E21.62906
G1 X129.204 Y93.740 E21.67337
G1 X130.150 Y94.340 E21.76511
G1 X131.051 Y94.995 E21.85624
G1 X131.915 Y95.709 E21.94799
G1 X132.315 Y96.074 E21.99231
G1 X133.114 Y96.872 E22.08468
G1 X133.478 Y97.273 E22.12899
G1 X134.193 Y98.136 E22.22075
G1 X134.847 Y99.037 E22.31187
G1 X135.448 Y99.984 E22.40362
G1 X135.716 Y100.454 E22.44794
G1 X136.229 Y101.460 E22.54032
G1 X136.452 Y101.954 E22.58463
G1 X136.864 Y102.996 E22.67639
G1 X137.208 Y104.053 E22.76738
G1 X137.484 Y105.126 E22.85801
G1 X137.692 Y106.218 E22.94900
G1 X137.834 Y107.340 E23.04152
G1 X137.877 Y107.879 E23.08582
G1 X137.912 Y109.000 E23.17757
G1 X137.877 Y110.121 E23.26933
G1 X137.834 Y110.660 E23.31364
G1 X137.694 Y111.773 E23.40539
G1 X137.485 Y112.866 E23.49651
G1 X137.208 Y113.945 E23.58764
G1 X136.864 Y115.004 E23.67876
G1 X136.454 Y116.039 E23.76989
G1 X135.980 Y117.047 E23.86101
G1 X135.444 Y118.023 E23.95214
G1 X134.847 Y118.963 E24.04326
G1 X134.193 Y119.864 E24.13438
G1 X133.483 Y120.722 E24.22551
G1 X132.721 Y121.533 E24.31663
G1 X131.909 Y122.295 E24.40775
G1 X131.051 Y123.005 E24.49888
G1 X130.150 Y123.660 E24.59001
G1 X129.210 Y124.256 E24.68113
G1 X128.228 Y124.796 E24.77288
G1 X127.163 Y125.318 E24.86993
G1 X127.163 Y133.900 E25.57224
G1 E22.37224 F2760.00000
G92 E0
G1 X126.538 Y92.540 F7800.000
G1 E3.20000 F2760.00000
G1 X126.167 Y92.393 E3.23267 F1800.000
G1 X125.133 Y92.057 E3.32157
G1 X124.577 Y91.905 E3.36876
G1 X124.026 Y91.772 E3.41520
G1 X122.837 Y91.546 E3.51420
G1 X122.837 Y84.650 E4.07852
G1 X126.538 Y84.650 E4.38135
G1 X126.538 Y92.465 E5.02092
G1 E1.82092 F2760.00000
G92 E0
G1 X126.538 Y125.460 F7800.000
G1 E3.20000 F2760.00000
G1 X126.538 Y133.350 E3.84570 F1800.000
G1 X122.837 Y133.350 E4.14853
G1 X122.837 Y126.454 E4.71286
G1 X124.026 Y126.228 E4.81185
G1 X124.577 Y126.095 E4.85826
G1 X125.124 Y125.946 E4.90466
G1 X126.166 Y125.607 E4.99437
G1 X126.468 Y125.488 E5.02092
G1 X126.850 Y125.061 F7800.000
G1 X128.066 Y124.486 E5.13099 F1800.000
G1 X129.032 Y123.955 E5.22118
G1 X129.954 Y123.370 E5.31050
G1 X131.124 Y122.495 E5.43012
G1 X131.678 Y122.033 E5.48912
G1 X132.085 Y121.656 E5.53457
G1 X132.851 Y120.891 E5.62315
G1 X133.218 Y120.488 E5.66774
G1 X133.916 Y119.649 E5.75706
G1 X134.558 Y118.766 E5.84639
G1 X135.143 Y117.844 E5.93571
G1 X135.669 Y116.887 E6.02513
G1 X136.129 Y115.909 E6.11359
G1 X136.339 Y115.393 E6.15918
G1 X136.561 Y114.809 E6.21030
G1 X136.873 Y113.847 E6.29301
G1 X137.144 Y112.790 E6.38234
G1 X137.350 Y111.709 E6.47244
G1 X137.486 Y110.625 E6.56184
G1 X137.549 Y109.557 E6.64939
G1 X137.562 Y109.000 E6.69497
G1 X137.549 Y108.443 E6.74055
G1 X137.486 Y107.375 E6.82808
G1 X137.350 Y106.291 E6.91749
G1 X137.142 Y105.200 E7.00844
G1 X136.873 Y104.154 E7.09682
G1 X136.534 Y103.115 E7.18624
G1 X136.129 Y102.090 E7.27642
G1 X135.910 Y101.613 E7.31938
G1 X135.664 Y101.113 E7.36498
G1 X135.149 Y100.165 E7.45329
G1 X134.558 Y99.234 E7.54354
G1 X133.916 Y98.351 E7.63286
G1 X133.551 Y97.902 E7.68022
G1 X132.860 Y97.114 E7.76600
G1 X132.074 Y96.327 E7.85702
G1 X131.674 Y95.964 E7.90118
G1 X131.124 Y95.505 E7.95984
G1 X129.954 Y94.630 E8.07946
G1 X129.031 Y94.044 E8.16887
G1 X128.091 Y93.532 E8.25649
G1 X126.850 Y92.933 E8.36925
G1 X123.526 Y91.264 F7800.000
G1 X123.216 Y90.954 E8.40791 F1800.000
G1 X123.216 Y90.002 E8.49175
G1 X124.730 Y91.516 E8.68045
G1 X126.083 Y91.918 E8.80479
G1 X123.216 Y89.051 E9.16208
G1 X123.216 Y88.099 E9.24591
G1 X126.159 Y91.042 E9.61267
G1 X126.159 Y90.091 E9.69651
G1 X123.216 Y87.148 E10.06327
G1 X123.216 Y86.196 E10.14710
G1 X126.159 Y89.139 E10.51386
G1 X126.159 Y88.188 E10.59770
G1 X123.216 Y85.245 E10.96445
G1 X123.951 Y85.028 E11.03198
G1 X126.159 Y87.236 E11.30712
G1 X126.159 Y86.285 E11.39096
G1 X124.903 Y85.028 E11.54754
G1 X125.854 Y85.028 E11.63138
G1 X126.159 Y85.333 E11.66940
G1 E8.46940 F2760.00000
G92 E0
G1 X126.159 Y126.370 F7800.000
G1 E3.20000 F2760.00000
G1 X125.858 Y126.069 E3.23642 F1800.000
G1 X125.161 Y126.296 E3.29916
G1 X126.159 Y127.294 E3.41997
G1 X126.159 Y128.218 E3.49903
G1 X124.433 Y126.491 E3.70796
G1 X123.674 Y126.657 E3.77436
G1 X126.159 Y129.142 E4.07502
G1 X126.159 Y130.066 E4.15408
G1 X123.216 Y127.123 E4.51023
G1 X123.216 Y128.047 E4.58929
G1 X126.159 Y130.990 E4.94544
G1 X126.159 Y131.914 E5.02450
G1 X123.216 Y128.971 E5.38066
G1 X123.216 Y129.895 E5.45972
G1 X126.159 Y132.838 E5.81587
G1 X125.369 Y132.972 E5.88445
G1 X123.216 Y130.819 E6.14498
G1 X123.216 Y131.743 E6.22404
G1 X124.445 Y132.972 E6.37277
G1 X123.521 Y132.972 E6.45183
G1 X123.216 Y132.667 E6.48875
G1 E3.28875 F2760.00000
G92 E0
G1 Z0.350 F7800.000
G1 X99.462 Y121.600 F7800.000
G1 E3.20000 F2760.00000
G1 X88.662 Y121.600 E4.08384 F1800.000
G1 X88.662 Y129.600 E4.73853
G1 X79.462 Y129.600 E5.49143
G1 X79.462 Y120.388 E6.24530
G1 X80.092 Y120.368 E6.29687
G1 X81.115 Y120.271 E6.38095
G1 X81.631 Y120.198 E6.42356
G1 X82.640 Y120.005 E6.50765
G1 X83.635 Y119.750 E6.59174
G1 X84.130 Y119.597 E6.63413
G1 X84.620 Y119.430 E6.67652
G1 X85.576 Y119.051 E6.76061
G1 X86.506 Y118.614 E6.84470
G1 X86.963 Y118.371 E6.88708
G1 X87.413 Y118.115 E6.92947
G1 X88.278 Y117.566 E7.01334
G1 X88.704 Y117.266 E7.05595
G1 X89.516 Y116.637 E7.14004
G1 X90.287 Y115.957 E7.22413
G1 X90.659 Y115.597 E7.26652
G1 X91.020 Y115.225 E7.30890
G1 X91.699 Y114.454 E7.39299
G1 X92.323 Y113.650 E7.47629
G1 X92.628 Y113.216 E7.51969
G1 X93.177 Y112.351 E7.60356
G1 X93.434 Y111.901 E7.64595
G1 X93.676 Y111.443 E7.68834
G1 X94.114 Y110.513 E7.77243
G1 X94.492 Y109.558 E7.85652
G1 X94.660 Y109.068 E7.89890
G1 X94.812 Y108.573 E7.94129
G1 X95.068 Y107.578 E8.02538
G1 X95.261 Y106.566 E8.10970
G1 X95.390 Y105.543 E8.19401
G1 X95.454 Y104.518 E8.27810
G1 X95.463 Y104.000 E8.32049
G1 X95.454 Y103.482 E8.36287
G1 X95.390 Y102.457 E8.44696
G1 X95.261 Y101.434 E8.53128
G1 X95.070 Y100.435 E8.61458
G1 X94.947 Y99.919 E8.65798
G1 X94.661 Y98.935 E8.74185
G1 X94.492 Y98.442 E8.78446
G1 X94.114 Y97.487 E8.86855
