; generated by Slic3r 1.2.9 on 2016-10-09 at 17:31:59

; external perimeters extrusion width = 0.50mm
; perimeters extrusion width = 0.72mm
; infill extrusion width = 0.72mm
; solid infill extrusion width = 0.72mm
; top infill extrusion width = 0.72mm

M107
M190 S60 ; set bed temperature
M104 S200 ; set temperature
G28 X0 Y0
G28 Z0
G1 Z0.3 F200
G1 X15 Y20 F12000
M109 S200 ; wait for temperature to be reached
G21 ; set units to millimeters
G90 ; use absolute coordinates
M82 ; use absolute distances for extrusion
G92 E0
G1 E-3.20000 F2760.00000
G92 E0
G1 Z0.350 F7800.000
G1 X95.053 Y97.405 F7800.000
G1 E3.20000 F2760.00000
G1 X97.046 Y95.957 E3.40163 F600.000
G1 X99.123 Y94.899 E3.59236
G1 X101.466 Y94.138 E3.79397
G1 X103.772 Y93.772 E3.98504
G1 X105.004 Y93.675 E4.08617
G1 X120.450 Y93.675 E5.35022
G1 X122.920 Y94.073 E5.55497
G1 X125.141 Y95.225 E5.75972 F600.000
G1 X126.888 Y97.016 E5.96447
G1 X127.986 Y99.264 E6.16923
G1 X128.325 Y101.550 E6.35833
G1 X128.325 Y116.450 E7.57770
G1 X127.927 Y118.920 E7.78245
G1 X126.775 Y121.141 E7.98720
G1 X124.651 Y123.110 E8.22422
G1 X121.639 Y125.010 E8.51567
G1 X119.338 Y125.992 E8.72042
G1 X117.438 Y126.225 E8.87706
G1 X111.562 Y126.225 E9.35790
G1 X109.613 Y125.979 E9.51872
G1 X100.748 Y123.714 E10.26745
G1 X99.123 Y123.101 E10.40960
G1 X97.046 Y122.043 E10.60034
G1 X95.053 Y120.595 E10.80196
G1 X93.405 Y118.947 E10.99271
G1 X91.957 Y116.954 E11.19433
G1 X90.899 Y114.877 E11.38506
G1 X90.138 Y112.534 E11.58668
G1 X89.773 Y110.232 E11.77744
G1 X89.773 Y107.768 E11.97904
G1 X90.138 Y105.466 E12.16980
G1 X90.899 Y103.123 E12.37140
G1 X91.957 Y101.046 E12.56214
G1 X93.405 Y99.053 E12.76376
G1 X95.000 Y97.458 E12.94836
G1 X95.442 Y97.900 F7800.000
G1 X97.330 Y96.514 E13.14005 F600.000
G1 X99.407 Y95.456 E13.33078
G1 X101.564 Y94.755 E13.51639
G1 X103.870 Y94.389 E13.70747
G1 X105.004 Y94.300 E13.80057
G1 X120.450 Y94.300 E15.06462
G1 X122.817 Y94.697 E15.26102
G1 X124.924 Y95.846 E15.45743 F600.000
G1 X126.541 Y97.619 E15.65383
G1 X127.491 Y99.823 E15.85024
G1 X127.700 Y101.550 E15.99259
G1 X127.700 Y116.450 E17.21196
G1 X127.303 Y118.817 E17.40836
G1 X126.154 Y120.924 E17.60477
G1 X124.318 Y122.582 E17.80722
G1 X121.306 Y124.482 E18.09867
G1 X119.092 Y125.409 E18.29508
G1 X117.438 Y125.600 E18.43134
G1 X111.562 Y125.600 E18.91218
G1 X109.767 Y125.374 E19.06023
G1 X100.903 Y123.109 E19.80896
G1 X99.407 Y122.544 E19.93983
G1 X97.330 Y121.486 E20.13057
G1 X95.495 Y120.153 E20.31619
G1 X93.847 Y118.505 E20.50694
G1 X92.514 Y116.670 E20.69255
G1 X91.456 Y114.593 E20.88329
G1 X90.755 Y112.436 E21.06891
G1 X90.390 Y110.134 E21.25967
G1 X90.390 Y107.866 E21.44527
G1 X90.755 Y105.564 E21.63603
G1 X91.456 Y103.407 E21.82163
G1 X92.514 Y101.330 E22.01237
G1 X93.847 Y99.495 E22.19799
G1 X95.389 Y97.953 E22.37645
G1 X95.831 Y98.395 F7800.000
G1 X95.937 Y98.289 E22.38873 F600.000
G1 X97.614 Y97.070 E22.55835
G1 X99.690 Y96.012 E22.74909
G1 X101.661 Y95.372 E22.91870
G1 X103.968 Y95.007 E23.10977
G1 X105.004 Y94.925 E23.19485
G1 X120.450 Y94.925 E24.45890
G1 X122.709 Y95.322 E24.64659
G1 X124.697 Y96.465 E24.83428 F600.000
G1 X126.176 Y98.218 E25.02196
G1 X126.969 Y100.370 E25.20965
G1 X127.075 Y101.550 E25.30659
G1 X127.075 Y116.450 E26.52596
G1 X126.678 Y118.709 E26.71364
G1 X125.535 Y120.697 E26.90133
G1 X123.984 Y122.053 E27.06989
G1 X120.972 Y123.953 E27.36134
G1 X118.850 Y124.823 E27.54903
G1 X117.438 Y124.975 E27.66526
G1 X111.562 Y124.975 E28.14610
G1 X109.922 Y124.769 E28.28140
G1 X101.058 Y122.503 E29.03012
G1 X99.690 Y121.988 E29.14972
G1 X97.614 Y120.929 E29.34045
G1 X95.937 Y119.711 E29.51008
G1 X94.289 Y118.063 E29.70083
G1 X93.070 Y116.386 E29.87044
G1 X92.012 Y114.310 E30.06118
G1 X91.372 Y112.338 E30.23080
G1 X91.007 Y110.036 E30.42155
G1 X91.007 Y107.964 E30.59116
G1 X91.372 Y105.661 E30.78191
G1 X92.012 Y103.690 E30.95152
G1 X93.071 Y101.614 E31.14226
G1 X94.289 Y99.937 E31.31188
G1 X95.778 Y98.448 E31.48420
G1 E28.28420 F2760.00000
G92 E0
G1 X100.732 Y103.359 F7800.000
G1 E3.20000 F2760.00000
G1 X100.830 Y103.260 E3.21146 F600.000
G1 X102.808 Y102.252 E3.39306
G1 X105.031 Y101.900 E3.57733
G1 X120.100 Y101.900 E4.81049
G1 X120.100 Y105.150 E5.07646
G1 X107.469 Y105.150 E6.11015 F600.000
G1 X107.303 Y105.011 E6.12785
G1 X105.800 Y104.464 E6.25877
G1 X104.200 Y104.464 E6.38968
G1 X102.697 Y105.011 E6.52060
G1 X101.471 Y106.039 E6.65151
G1 X100.672 Y107.425 E6.78243
G1 X100.394 Y109.000 E6.91334
G1 X100.672 Y110.575 E7.04426
G1 X101.471 Y111.961 E7.17517
G1 X102.697 Y112.989 E7.30609
G1 X104.200 Y113.536 E7.43700
G1 X105.800 Y113.536 E7.56791
G1 X107.303 Y112.989 E7.69883
G1 X107.469 Y112.850 E7.71653
G1 X120.100 Y112.850 E8.75023
G1 X120.100 Y116.100 E9.01620
G1 X117.088 Y116.100 E9.26270
G1 X117.088 Y118.000 E9.41819
G1 X111.912 Y118.000 E9.84175
G1 X111.912 Y116.100 E9.99724
G1 X105.031 Y116.100 E10.56033
G1 X102.808 Y115.748 E10.74460
G1 X100.830 Y114.740 E10.92626
G1 X99.283 Y113.193 E11.10528
G1 X98.252 Y111.192 E11.28952
G1 X97.905 Y109.000 E11.47112
G1 X98.252 Y106.808 E11.65278
G1 X99.245 Y104.858 E11.83179
G1 X100.679 Y103.412 E11.99844
G1 X100.867 Y103.395 F7800.000
G1 X101.123 Y103.852 F7800.000
G1 X101.203 Y103.771 E12.00782 F600.000
G1 X103.003 Y102.854 E12.17311
G1 X105.081 Y102.525 E12.34525
G1 X119.475 Y102.525 E13.52325
G1 X119.475 Y104.525 E13.68694
G1 X107.696 Y104.525 E14.65088 F600.000
G1 X107.620 Y104.461 E14.65899
G1 X105.910 Y103.839 E14.80794
G1 X104.090 Y103.839 E14.95689
G1 X102.380 Y104.461 E15.10584
G1 X100.985 Y105.631 E15.25479
G1 X100.075 Y107.208 E15.40373
G1 X99.759 Y109.000 E15.55268
G1 X100.075 Y110.792 E15.70163
G1 X100.985 Y112.369 E15.85058
G1 X102.380 Y113.539 E15.99953
G1 X104.090 Y114.161 E16.14848
G1 X105.910 Y114.161 E16.29743
G1 X107.620 Y113.539 E16.44638
G1 X107.696 Y113.475 E16.45449
G1 X119.475 Y113.475 E17.41843
G1 X119.475 Y115.475 E17.58212
G1 X116.463 Y115.475 E17.82862
G1 X116.463 Y117.375 E17.98411
G1 X112.537 Y117.375 E18.30539
G1 X112.537 Y115.475 E18.46088
G1 X105.081 Y115.475 E19.07109
G1 X103.003 Y115.146 E19.24324
G1 X101.202 Y114.228 E19.40870
G1 X99.794 Y112.820 E19.57163
G1 X98.854 Y110.995 E19.73967
G1 X98.538 Y109.000 E19.90496
G1 X98.854 Y107.003 E20.07042
G1 X99.758 Y105.229 E20.23335
G1 X101.070 Y103.906 E20.38587
G1 X108.640 Y103.900 F7800.000
G1 X107.906 Y103.900 E20.44598 F600.000
G1 X106.695 Y103.460 E20.55141
G1 X106.750 Y103.150 E20.57715
G1 X118.850 Y103.150 E21.56743
G1 X118.850 Y103.900 E21.62885
G1 X108.715 Y103.900 E22.45827 F600.000
G1 E19.25827 F2760.00000
G92 E0
G1 X109.571 Y114.100 F7800.000
G1 E3.20000 F2760.00000
G1 X118.850 Y114.100 E3.95940 F600.000
G1 X118.850 Y114.850 E4.02082
G1 X115.838 Y114.850 E4.26732 F600.000
G1 X115.838 Y116.750 E4.42281
G1 X113.162 Y116.750 E4.64181
G1 X113.162 Y114.850 E4.79730
G1 X106.750 Y114.850 E5.32207
G1 X106.695 Y114.540 E5.34782
G1 X107.906 Y114.100 E5.45325
G1 X109.496 Y114.100 E5.58339
G1 X107.714 Y114.520 F7800.000
G1 X107.972 Y114.475 E5.60479 F600.000
G1 X113.474 Y114.475 E6.05512
G1 X113.846 Y116.372 F7800.000
G1 X113.541 Y116.067 E6.09777 F600.000
G1 X113.745 Y115.204 E6.18542
G1 X114.913 Y116.372 E6.34869
G1 X115.459 Y115.851 E6.42331
G1 X114.087 Y114.478 E6.61514
G1 X115.154 Y114.478 E6.72063
G1 X115.459 Y114.783 E6.76328
G1 X106.427 Y114.818 F7800.000
G1 X105.132 Y114.818 E6.98785 F600.000
G1 X103.946 Y114.717 E7.19439
G1 X103.205 Y114.525 E7.32729
G1 X102.132 Y114.059 E7.53030
G1 X101.582 Y113.704 E7.64376
G1 X100.571 Y112.777 E7.88183
G1 X100.306 Y112.446 E7.95532
G1 X99.538 Y111.039 E8.23351
G1 X99.449 Y110.800 E8.27777
G1 X99.150 Y109.000 E8.59437
G1 X99.449 Y107.196 E8.91158
G1 X99.537 Y106.961 E8.95528
G1 X100.274 Y105.603 E9.22334
G1 X100.511 Y105.294 E9.29084
G1 X101.585 Y104.294 E9.54551
G1 X102.132 Y103.941 E9.65835
G1 X103.205 Y103.475 E9.86137
G1 X103.946 Y103.283 E9.99426
G1 X105.132 Y103.182 E10.20081
G1 X106.427 Y103.182 E10.42537
G1 X107.714 Y103.480 F7800.000
G1 X107.972 Y103.525 E10.44678 F600.000
G1 X118.538 Y103.525 E11.31147
G1 E8.11147 F2760.00000
G92 E0
G1 Z0.650 F7800.000
G1 X120.200 Y103.525 F7800.000
G1 E3.20000 F2760.00000
G1 X120.200 Y105.250 E3.28435 F1068.355
G1 X107.432 Y105.250 E3.90868 F1068.355
G1 X107.252 Y105.099 E3.92018
G1 X105.782 Y104.564 E3.99668
G1 X104.218 Y104.564 E4.07318
G1 X102.748 Y105.099 E4.14968
G1 X102.651 Y105.180 E4.15583
G1 X101.549 Y106.104 E4.22618
G1 X100.767 Y107.459 E4.30268
G1 X100.445 Y109.287 E4.39342
G1 X100.546 Y109.287 E4.39836
G1 X100.767 Y110.541 E4.46063
G1 X101.549 Y111.896 E4.53713
G1 X102.748 Y112.901 E4.61363
G1 X104.218 Y113.436 E4.69013
G1 X105.782 Y113.436 E4.76663
G1 X107.252 Y112.901 E4.84313
G1 X107.432 Y112.750 E4.85463
G1 X120.200 Y112.750 E5.47895
G1 X120.200 Y116.200 E5.64766
G1 X117.375 Y116.200 E5.78578
G1 X117.375 Y118.100 E5.87869
G1 X111.625 Y118.100 E6.15990
G1 X111.625 Y116.200 E6.25281
G1 X105.024 Y116.200 E6.57560
G1 X102.776 Y115.844 E6.68686
G1 X100.770 Y114.822 E6.79696
G1 X99.178 Y113.230 E6.90706
G1 X98.156 Y111.224 E7.01715
G1 X97.804 Y109.000 E7.12725
G1 X98.156 Y106.776 E7.23735
G1 X99.146 Y104.832 E7.34403
G1 X99.178 Y104.770 E7.34744
G1 X100.770 Y103.178 E7.45754
G1 X102.776 Y102.156 E7.56764
G1 X105.024 Y101.800 E7.67890
G1 X120.200 Y101.800 E8.42102
G1 X120.200 Y103.450 E8.50170
G1 X119.767 Y103.775 F7800.000
G1 X119.655 Y103.450 F7800.000
G1 X119.655 Y104.705 E8.59390 F2136.709
G1 X107.631 Y104.705 E9.47731 F2136.709
G1 X107.529 Y104.620 E9.48707
G1 X105.878 Y104.019 E9.61613
G1 X104.122 Y104.019 E9.74519
G1 X102.471 Y104.620 E9.87425
G1 X102.301 Y104.762 E9.89056
G1 X101.125 Y105.749 E10.00331
G1 X100.247 Y107.270 E10.13237
G1 X99.795 Y109.832 E10.32349
G1 X100.089 Y109.832 E10.34504
G1 X100.247 Y110.730 E10.41204
G1 X101.125 Y112.251 E10.54111
G1 X102.471 Y113.380 E10.67017
G1 X104.122 Y113.981 E10.79923
G1 X105.878 Y113.981 E10.92829
G1 X107.529 Y113.380 E11.05735
G1 X107.631 Y113.295 E11.06711
G1 X119.655 Y113.295 E11.95051
G1 X119.655 Y115.655 E12.12389
G1 X116.830 Y115.655 E12.33141
G1 X116.830 Y117.555 E12.47100
G1 X112.170 Y117.555 E12.81343
G1 X112.170 Y115.655 E12.95302
G1 X105.067 Y115.655 E13.47488
G1 X102.947 Y115.319 E13.63256
G1 X101.095 Y114.375 E13.78529
G1 X99.625 Y112.905 E13.93802
G1 X98.681 Y111.053 E14.09075
G1 X98.356 Y109.000 E14.24348
G1 X98.681 Y106.947 E14.39621
G1 X99.625 Y105.095 E14.54894
G1 X101.095 Y103.625 E14.70167
G1 X102.947 Y102.681 E14.85440
G1 X105.067 Y102.345 E15.01208
G1 X119.655 Y102.345 E16.08388
G1 X119.655 Y103.375 E16.15955
G1 X107.213 Y103.000 F7800.000
G1 X119.000 Y103.000 E17.02559 F600.000
G1 X119.000 Y104.050 E17.10280
G1 X107.879 Y104.050 E17.91988 F600.000
G1 X105.883 Y103.324 E18.07592
G1 X105.941 Y103.000 E18.10013
G1 X107.138 Y103.000 E18.18808
G1 E14.98808 F2760.00000
G92 E0
G1 X111.209 Y113.950 F7800.000
G1 E3.20000 F2760.00000
G1 X119.000 Y113.950 E3.77244 F600.000
G1 X119.000 Y115.000 E3.84965
G1 X116.176 Y115.000 E4.05716 F600.000
G1 X116.176 Y116.900 E4.19676
G1 X112.824 Y116.900 E4.44301
G1 X112.824 Y115.000 E4.58260
G1 X105.941 Y115.000 E5.08834
G1 X105.883 Y114.676 E5.11254
G1 X107.879 Y113.950 E5.26858
G1 X111.134 Y113.950 E5.50771
G1 X113.151 Y114.475 F7800.000
G1 X107.972 Y114.475 E5.88826 F712.236
G1 X106.949 Y114.655 E5.96458
G1 X105.582 Y114.854 F7800.000
G1 X104.064 Y114.734 E6.19938 F712.236
G1 X103.205 Y114.525 E6.33569
G1 X102.159 Y114.070 E6.51158
G1 X101.582 Y113.704 E6.61683
G1 X100.592 Y112.797 E6.82386
G1 X100.289 Y112.423 E6.89811
G1 X99.551 Y111.065 E7.13634
G1 X99.449 Y110.804 E7.17961
G1 X99.420 Y110.628 E7.20697
G1 X99.138 Y110.112 E7.29771
G1 X99.148 Y109.000 E7.46914
G1 X99.449 Y107.196 E7.75104
G1 X99.551 Y106.935 E7.79431
G1 X100.288 Y105.577 E8.03254
G1 X100.592 Y105.203 E8.10679
G1 X101.582 Y104.296 E8.31382
G1 X102.027 Y104.001 E8.39612
G1 X103.205 Y103.475 E8.59495
G1 X104.064 Y103.266 E8.73126
G1 X105.582 Y103.146 E8.96606
G1 X106.949 Y103.345 F7800.000
G1 X107.972 Y103.525 E9.04238 F712.236
G1 X118.673 Y103.525 E9.82861
G1 E6.62861 F2760.00000
G92 E0
G1 X118.673 Y114.475 F7800.000
G1 E3.20000 F2760.00000
G1 X115.849 Y114.475 E3.40752 F712.236
G1 X113.867 Y114.347 F7800.000
G1 X113.549 Y114.665 E3.44095 F712.236
G1 X113.222 Y115.929 E3.53817
G1 X114.804 Y114.347 E3.70472
G1 X115.451 Y114.637 E3.75750
G1 X113.586 Y116.503 E3.95384
G1 X114.523 Y116.503 E4.02361
G1 X115.778 Y115.248 E4.15572
G1 X115.778 Y116.185 E4.22549
G1 X115.461 Y116.503 E4.25892
G1 E1.05892 F2760.00000
G92 E0
G1 Z0.950 F7800.000
G1 X115.461 Y118.100 F7800.000
G1 E3.20000 F2760.00000
G1 X111.451 Y118.100 E3.39606 F1062.549
G1 X111.451 Y116.200 E3.48897
G1 X105.024 Y116.200 E3.80328
G1 X102.776 Y115.844 E3.91455
G1 X100.770 Y114.822 E4.02464
G1 X99.178 Y113.230 E4.13474
G1 X98.156 Y111.224 E4.24484
G1 X97.804 Y109.000 E4.35493
G1 X98.156 Y106.776 E4.46503
G1 X99.178 Y104.770 E4.57513
G1 X100.770 Y103.178 E4.68522
G1 X102.776 Y102.156 E4.79532
G1 X105.024 Y101.800 E4.90659
G1 X120.200 Y101.800 E5.64871
G1 X120.200 Y105.250 E5.81741
G1 X107.432 Y105.250 E6.44174 F1062.549
G1 X107.252 Y105.099 E6.45324
G1 X105.782 Y104.564 E6.52974
G1 X104.218 Y104.564 E6.60624
G1 X102.748 Y105.099 E6.68274
G1 X101.549 Y106.104 E6.75924
G1 X100.767 Y107.459 E6.83574
G1 X100.495 Y109.000 E6.91224
G1 X100.767 Y110.541 E6.98874
G1 X101.549 Y111.896 E7.06524
G1 X102.748 Y112.901 E7.14174
G1 X104.218 Y113.436 E7.21824
G1 X105.782 Y113.436 E7.29474
G1 X107.252 Y112.901 E7.37124
G1 X107.432 Y112.750 E7.38274
G1 X120.200 Y112.750 E8.00707
G1 X120.200 Y116.200 E8.17577
G1 X117.549 Y116.200 E8.30542
G1 X117.549 Y118.100 E8.39833
G1 X115.536 Y118.100 E8.49676
G1 X115.211 Y117.667 F7800.000
G1 X115.536 Y117.555 F7800.000
G1 X111.996 Y117.555 E8.75679 F2125.098
G1 X111.996 Y115.655 E8.89638
G1 X105.067 Y115.655 E9.40552
G1 X102.947 Y115.319 E9.56320
G1 X101.095 Y114.375 E9.71593
G1 X99.625 Y112.905 E9.86866
G1 X98.681 Y111.053 E10.02139
G1 X98.356 Y109.000 E10.17412
G1 X98.681 Y106.947 E10.32685
G1 X99.625 Y105.095 E10.47958
G1 X101.095 Y103.625 E10.63231
G1 X102.947 Y102.681 E10.78504
G1 X105.067 Y102.345 E10.94272
G1 X119.655 Y102.345 E12.01452
G1 X119.655 Y104.705 E12.18790
G1 X107.631 Y104.705 E13.07131 F2125.098
G1 X107.529 Y104.620 E13.08107
G1 X105.878 Y104.019 E13.21013
G1 X104.122 Y104.019 E13.33919
G1 X102.471 Y104.620 E13.46825
G1 X101.125 Y105.749 E13.59731
G1 X100.247 Y107.270 E13.72637
G1 X99.942 Y109.000 E13.85543
G1 X100.247 Y110.730 E13.98449
G1 X101.125 Y112.251 E14.11355
G1 X102.471 Y113.380 E14.24261
G1 X104.122 Y113.981 E14.37167
G1 X105.878 Y113.981 E14.50073
G1 X107.529 Y113.380 E14.62979
G1 X107.631 Y113.295 E14.63955
G1 X119.655 Y113.295 E15.52296
G1 X119.655 Y115.655 E15.69634
G1 X117.004 Y115.655 E15.89113
G1 X117.004 Y117.555 E16.03072
G1 X115.611 Y117.555 E16.13305
G1 E12.93305 F2760.00000
G92 E0
G1 X118.290 Y103.000 F7800.000
G1 E3.20000 F2760.00000
G1 X119.000 Y103.000 E3.25221 F600.000
G1 X119.000 Y104.050 E3.32942
G1 X107.879 Y104.050 E4.14650 F600.000
G1 X105.883 Y103.324 E4.30254
G1 X105.941 Y103.000 E4.32675
G1 X118.215 Y103.000 E5.22853
G1 E2.02853 F2760.00000
G92 E0
G1 X108.953 Y115.000 F7800.000
G1 E3.20000 F2760.00000
G1 X105.941 Y115.000 E3.42136 F600.000
G1 X105.883 Y114.676 E3.44557
G1 X107.879 Y113.950 E3.60160
G1 X119.000 Y113.950 E4.41869
G1 X119.000 Y115.000 E4.49590
G1 X116.349 Y115.000 E4.69069 F600.000
G1 X116.349 Y116.900 E4.83028
G1 X112.651 Y116.900 E5.10198
G1 X112.651 Y115.000 E5.24157
G1 X109.028 Y115.000 E5.50771
G1 X106.949 Y114.655 F7800.000
G1 X107.972 Y114.475 E5.58403 F708.366
G1 X112.978 Y114.475 E5.95185
G1 X113.376 Y114.464 F7800.000
G1 X115.414 Y116.503 E6.18623 F708.366
G1 X115.952 Y116.016 E6.24517
G1 X114.283 Y114.347 E6.43706
G1 X115.307 Y114.347 E6.52031
G1 X115.624 Y114.665 E6.55683
G1 X113.119 Y115.232 F7800.000
G1 X114.390 Y116.503 E6.70296 F708.366
G1 X113.366 Y116.503 E6.78621
G1 X113.048 Y116.185 E6.82273
G1 X116.022 Y114.475 F7800.000
G1 X118.673 Y114.475 E7.01753 F708.366
G1 E3.81753 F2760.00000
G92 E0
G1 X118.673 Y103.525 F7800.000
G1 E3.20000 F2760.00000
G1 X107.972 Y103.525 E3.98623 F708.366
