; generated by Slic3r 1.2.9 on 2016-10-09 at 18:02:10

; external perimeters extrusion width = 0.50mm
; perimeters extrusion width = 0.72mm
; infill extrusion width = 0.72mm
; solid infill extrusion width = 0.72mm
; top infill extrusion width = 0.72mm

M107
M190 S60 ; set bed temperature
M104 S200 ; set temperature
G28 X0 Y0
G28 Z0
G1 Z0.3 F200
G1 X15 Y20 F12000
M109 S200 ; wait for temperature to be reached
G21 ; set units to millimeters
G90 ; use absolute coordinates
M82 ; use absolute distances for extrusion
G92 E0
G1 E-3.20000 F2760.00000
G92 E0
G1 Z0.350 F7800.000
G1 X80.553 Y97.405 F7800.000
G1 E3.20000 F2760.00000
G1 X82.546 Y95.957 E3.40163 F600.000
G1 X84.623 Y94.899 E3.59236
G1 X86.966 Y94.138 E3.79397
G1 X89.272 Y93.772 E3.98504
G1 X90.504 Y93.675 E4.08617
G1 X134.950 Y93.675 E7.72348
G1 X137.420 Y94.073 E7.92823
G1 X139.641 Y95.225 E8.13299 F600.000
G1 X141.388 Y97.016 E8.33774
G1 X142.486 Y99.264 E8.54249
G1 X142.825 Y101.550 E8.73159
G1 X142.825 Y116.450 E9.95096
G1 X142.427 Y118.920 E10.15571
G1 X141.275 Y121.141 E10.36046
G1 X139.151 Y123.110 E10.59749
G1 X136.139 Y125.010 E10.88893
G1 X133.838 Y125.992 E11.09369
G1 X131.938 Y126.225 E11.25033
G1 X97.062 Y126.225 E14.10443
G1 X95.113 Y125.979 E14.26524
G1 X86.248 Y123.714 E15.01397
G1 X84.623 Y123.101 E15.15613
G1 X82.546 Y122.043 E15.34686
G1 X80.553 Y120.595 E15.54849
G1 X78.929 Y118.970 E15.73651
G1 X77.457 Y116.954 E15.94082
G1 X76.399 Y114.877 E16.13155
G1 X75.638 Y112.534 E16.33317
G1 X75.273 Y110.232 E16.52393
G1 X75.273 Y107.768 E16.72553
G1 X75.632 Y105.499 E16.91356
G1 X76.399 Y103.123 E17.11786
G1 X77.457 Y101.046 E17.30860
G1 X78.905 Y99.053 E17.51022
G1 X80.500 Y97.458 E17.69481
G1 X80.942 Y97.900 F7800.000
G1 X82.830 Y96.514 E17.88651 F600.000
G1 X84.907 Y95.456 E18.07724
G1 X87.064 Y94.755 E18.26285
G1 X89.370 Y94.389 E18.45392
G1 X90.504 Y94.300 E18.54702
G1 X134.950 Y94.300 E22.18434
G1 X137.317 Y94.697 E22.38074
G1 X139.424 Y95.846 E22.57715 F600.000
G1 X141.041 Y97.619 E22.77355
G1 X141.991 Y99.823 E22.96996
G1 X142.200 Y101.550 E23.11231
G1 X142.200 Y116.450 E24.33168
G1 X141.803 Y118.817 E24.52808
G1 X140.654 Y120.924 E24.72449
G1 X138.818 Y122.582 E24.92694
G1 X135.806 Y124.482 E25.21839
G1 X133.592 Y125.409 E25.41480
G1 X131.938 Y125.600 E25.55105
G1 X97.062 Y125.600 E28.40516
G1 X95.267 Y125.374 E28.55321
G1 X86.403 Y123.109 E29.30194
G1 X84.907 Y122.544 E29.43282
G1 X82.830 Y121.486 E29.62355
G1 X80.995 Y120.153 E29.80918
G1 X79.370 Y118.528 E29.99720
G1 X78.014 Y116.670 E30.18550
G1 X76.956 Y114.593 E30.37624
G1 X76.255 Y112.436 E30.56186
G1 X75.890 Y110.134 E30.75262
G1 X75.890 Y107.866 E30.93822
G1 X76.250 Y105.597 E31.12624
G1 X76.956 Y103.407 E31.31455
G1 X78.014 Y101.330 E31.50528
G1 X79.347 Y99.495 E31.69091
G1 X80.889 Y97.953 E31.86937
G1 X81.331 Y98.395 F7800.000
G1 X81.437 Y98.289 E31.88164 F600.000
G1 X83.114 Y97.070 E32.05127
G1 X85.190 Y96.012 E32.24200
G1 X87.161 Y95.372 E32.41161
G1 X89.468 Y95.007 E32.60269
G1 X90.504 Y94.925 E32.68776
G1 X134.950 Y94.925 E36.32508
G1 X137.209 Y95.322 E36.51276
G1 X139.197 Y96.465 E36.70045 F600.000
G1 X140.676 Y98.218 E36.88814
G1 X141.469 Y100.370 E37.07583
G1 X141.575 Y101.550 E37.17277
G1 X141.575 Y116.450 E38.39213
G1 X141.178 Y118.709 E38.57982
G1 X140.035 Y120.697 E38.76751
G1 X138.484 Y122.053 E38.93607
G1 X135.472 Y123.953 E39.22752
G1 X133.350 Y124.823 E39.41521
G1 X131.938 Y124.975 E39.53144
G1 X97.062 Y124.975 E42.38554
G1 X95.422 Y124.769 E42.52083
G1 X86.558 Y122.503 E43.26956
G1 X85.190 Y121.988 E43.38916
G1 X83.114 Y120.929 E43.57989
G1 X81.437 Y119.711 E43.74952
G1 X79.812 Y118.087 E43.93754
G1 X78.570 Y116.386 E44.10985
G1 X77.512 Y114.310 E44.30058
G1 X76.872 Y112.338 E44.47021
G1 X76.507 Y110.036 E44.66096
G1 X76.507 Y107.964 E44.83057
G1 X76.867 Y105.694 E45.01859
G1 X77.512 Y103.690 E45.19089
G1 X78.571 Y101.614 E45.38163
G1 X79.789 Y99.937 E45.55125
G1 X81.278 Y98.448 E45.72357
G1 E42.52357 F2760.00000
G92 E0
G1 X112.752 Y106.808 F7800.000
G1 E3.20000 F2760.00000
G1 X113.745 Y104.858 E3.37901 F600.000
G1 X115.330 Y103.260 E3.56326
G1 X117.308 Y102.252 E3.74485
G1 X119.531 Y101.900 E3.92912
G1 X134.600 Y101.900 E5.16228
G1 X134.600 Y105.150 E5.42825
G1 X121.969 Y105.150 E6.46194 F600.000
G1 X121.803 Y105.011 E6.47965
G1 X120.300 Y104.464 E6.61056
G1 X118.700 Y104.464 E6.74148
G1 X117.197 Y105.011 E6.87239
G1 X115.971 Y106.039 E7.00331
G1 X115.172 Y107.425 E7.13422
G1 X114.894 Y109.000 E7.26514
G1 X115.172 Y110.575 E7.39605
G1 X115.971 Y111.961 E7.52697
G1 X117.197 Y112.989 E7.65788
G1 X118.700 Y113.536 E7.78879
G1 X120.300 Y113.536 E7.91971
G1 X121.803 Y112.989 E8.05062
G1 X121.969 Y112.850 E8.06833
G1 X134.600 Y112.850 E9.10202
G1 X134.600 Y116.100 E9.36799
G1 X131.588 Y116.100 E9.61450
G1 X131.588 Y118.000 E9.76999
G1 X126.412 Y118.000 E10.19354
G1 X126.412 Y116.100 E10.34903
G1 X119.531 Y116.100 E10.91213
G1 X117.308 Y115.748 E11.09640
G1 X115.330 Y114.740 E11.27806
G1 X113.783 Y113.193 E11.45707
G1 X112.752 Y111.192 E11.64131
G1 X112.405 Y109.000 E11.82291
G1 X112.741 Y106.882 E11.99844
G1 X113.246 Y106.729 F7800.000
G1 X113.354 Y107.003 F7800.000
G1 X114.258 Y105.229 E12.16136 F600.000
G1 X115.703 Y103.771 E12.32941
G1 X117.503 Y102.854 E12.49469
G1 X119.581 Y102.525 E12.66684
G1 X133.975 Y102.525 E13.84483
G1 X133.975 Y104.525 E14.00852
G1 X122.196 Y104.525 E14.97247 F600.000
G1 X122.120 Y104.461 E14.98057
G1 X120.410 Y103.839 E15.12952
G1 X118.590 Y103.839 E15.27847
G1 X116.880 Y104.461 E15.42742
G1 X115.485 Y105.631 E15.57637
G1 X114.575 Y107.208 E15.72532
G1 X114.259 Y109.000 E15.87427
G1 X114.575 Y110.792 E16.02322
G1 X115.485 Y112.369 E16.17217
G1 X116.880 Y113.539 E16.32112
G1 X118.590 Y114.161 E16.47006
G1 X120.410 Y114.161 E16.61901
G1 X122.120 Y113.539 E16.76796
G1 X122.196 Y113.475 E16.77607
G1 X133.975 Y113.475 E17.74001
G1 X133.975 Y115.475 E17.90370
G1 X130.963 Y115.475 E18.15021
G1 X130.963 Y117.375 E18.30570
G1 X127.037 Y117.375 E18.62698
G1 X127.037 Y115.475 E18.78247
G1 X119.581 Y115.475 E19.39268
G1 X117.503 Y115.146 E19.56482
G1 X115.702 Y114.228 E19.73028
G1 X114.294 Y112.820 E19.89321
G1 X113.354 Y110.995 E20.06126
G1 X113.038 Y109.000 E20.22654
G1 X113.342 Y107.077 E20.38587
G1 E17.18587 F2760.00000
G92 E0
G1 X127.314 Y103.900 F7800.000
G1 E3.20000 F2760.00000
G1 X122.406 Y103.900 E3.60167 F600.000
G1 X121.195 Y103.460 E3.70710
G1 X121.250 Y103.150 E3.73284
G1 X133.350 Y103.150 E4.72312
G1 X133.350 Y103.900 E4.78453
G1 X127.389 Y103.900 E5.27241 F600.000
G1 E2.07241 F2760.00000
G92 E0
G1 X122.720 Y114.850 F7800.000
G1 E3.20000 F2760.00000
G1 X121.250 Y114.850 E3.32031 F600.000
G1 X121.195 Y114.540 E3.34606
G1 X122.406 Y114.100 E3.45149
G1 X133.350 Y114.100 E4.34717
G1 X133.350 Y114.850 E4.40858
G1 X130.338 Y114.850 E4.65509 F600.000
G1 X130.338 Y116.750 E4.81058
G1 X127.662 Y116.750 E5.02958
G1 X127.662 Y114.850 E5.18507
G1 X122.795 Y114.850 E5.58339
G1 X122.214 Y114.520 F7800.000
G1 X122.472 Y114.475 E5.60479 F600.000
G1 X127.974 Y114.475 E6.05512
G1 X128.346 Y116.372 F7800.000
G1 X128.041 Y116.067 E6.09777 F600.000
G1 X128.245 Y115.204 E6.18542
G1 X129.413 Y116.372 E6.34869
G1 X129.959 Y115.851 E6.42331
G1 X128.587 Y114.478 E6.61514
G1 X129.654 Y114.478 E6.72063
G1 X129.959 Y114.783 E6.76328
G1 X120.927 Y114.818 F7800.000
G1 X119.632 Y114.818 E6.98785 F600.000
G1 X118.446 Y114.717 E7.19439
G1 X117.705 Y114.525 E7.32729
G1 X116.632 Y114.059 E7.53030
G1 X116.082 Y113.704 E7.64376
G1 X115.071 Y112.777 E7.88183
G1 X114.806 Y112.446 E7.95532
G1 X114.038 Y111.039 E8.23351
G1 X113.949 Y110.800 E8.27777
G1 X113.650 Y109.000 E8.59437
G1 X113.949 Y107.196 E8.91158
G1 X114.037 Y106.961 E8.95528
G1 X114.774 Y105.603 E9.22334
G1 X115.011 Y105.294 E9.29084
G1 X116.085 Y104.294 E9.54551
G1 X116.632 Y103.941 E9.65835
G1 X117.705 Y103.475 E9.86137
G1 X118.446 Y103.283 E9.99426
G1 X119.632 Y103.182 E10.20081
G1 X120.927 Y103.182 E10.42537
G1 X122.214 Y103.480 F7800.000
G1 X122.472 Y103.525 E10.44678 F600.000
G1 X133.038 Y103.525 E11.31147
G1 E8.11147 F2760.00000
G92 E0
G1 X105.600 Y103.525 F7800.000
G1 E3.20000 F2760.00000
G1 X105.600 Y105.150 E3.33298 F600.000
G1 X92.969 Y105.150 E4.36668 F600.000
G1 X92.803 Y105.011 E4.38438
G1 X91.300 Y104.464 E4.51530
G1 X89.700 Y104.464 E4.64621
G1 X88.197 Y105.011 E4.77713
G1 X86.971 Y106.039 E4.90804
G1 X86.172 Y107.425 E5.03896
G1 X85.894 Y109.000 E5.16987
G1 X86.172 Y110.575 E5.30078
G1 X86.971 Y111.961 E5.43170
G1 X88.197 Y112.989 E5.56261
G1 X89.700 Y113.536 E5.69353
G1 X91.300 Y113.536 E5.82444
G1 X92.803 Y112.989 E5.95536
G1 X92.969 Y112.850 E5.97306
G1 X105.600 Y112.850 E7.00676
G1 X105.600 Y116.100 E7.27273
G1 X102.588 Y116.100 E7.51923
G1 X102.588 Y118.000 E7.67472
G1 X97.412 Y118.000 E8.09828
G1 X97.412 Y116.100 E8.25377
G1 X90.531 Y116.100 E8.81686
G1 X88.308 Y115.748 E9.00113
G1 X86.330 Y114.740 E9.18279
G1 X84.783 Y113.193 E9.36181
G1 X83.752 Y111.192 E9.54605
G1 X83.405 Y109.000 E9.72765
G1 X83.752 Y106.808 E9.90931
G1 X84.745 Y104.858 E10.08832
G1 X86.330 Y103.260 E10.27257
G1 X88.308 Y102.252 E10.45416
G1 X90.531 Y101.900 E10.63843
G1 X105.600 Y101.900 E11.87159
G1 X105.600 Y103.450 E11.99844
G1 X105.167 Y103.775 F7800.000
G1 X104.975 Y103.450 F7800.000
G1 X104.975 Y104.525 E12.08642 F600.000
G1 X93.196 Y104.525 E13.05036 F600.000
G1 X93.120 Y104.461 E13.05847
G1 X91.410 Y103.839 E13.20742
G1 X89.590 Y103.839 E13.35637
G1 X87.880 Y104.461 E13.50532
G1 X86.485 Y105.631 E13.65427
G1 X85.575 Y107.208 E13.80322
G1 X85.259 Y109.000 E13.95217
G1 X85.575 Y110.792 E14.10111
G1 X86.485 Y112.369 E14.25006
G1 X87.880 Y113.539 E14.39901
G1 X89.590 Y114.161 E14.54796
G1 X91.410 Y114.161 E14.69691
G1 X93.120 Y113.539 E14.84586
G1 X93.196 Y113.475 E14.85397
G1 X104.975 Y113.475 E15.81791
G1 X104.975 Y115.475 E15.98160
G1 X101.963 Y115.475 E16.22811
G1 X101.963 Y117.375 E16.38360
G1 X98.037 Y117.375 E16.70487
G1 X98.037 Y115.475 E16.86036
G1 X90.581 Y115.475 E17.47057
G1 X88.503 Y115.146 E17.64272
G1 X86.702 Y114.228 E17.80818
G1 X85.294 Y112.820 E17.97111
G1 X84.354 Y110.995 E18.13915
G1 X84.038 Y109.000 E18.30444
G1 X84.354 Y107.003 E18.46990
G1 X85.258 Y105.229 E18.63283
G1 X86.703 Y103.771 E18.80087
G1 X88.503 Y102.854 E18.96616
G1 X90.581 Y102.525 E19.13830
G1 X104.975 Y102.525 E20.31630
G1 X104.975 Y103.375 E20.38587
G1 X104.350 Y103.557 F7800.000
G1 X104.350 Y103.900 E20.41397 F600.000
G1 X93.406 Y103.900 E21.30964 F600.000
G1 X92.195 Y103.460 E21.41507
G1 X92.250 Y103.150 E21.44082
G1 X104.350 Y103.150 E22.43110
G1 X104.350 Y103.482 E22.45827
G1 E19.25827 F2760.00000
G92 E0
G1 X104.201 Y114.100 F7800.000
G1 E3.20000 F2760.00000
G1 X104.350 Y114.100 E3.21218 F600.000
G1 X104.350 Y114.850 E3.27360
G1 X101.338 Y114.850 E3.52010 F600.000
G1 X101.338 Y116.750 E3.67559
G1 X98.662 Y116.750 E3.89459
G1 X98.662 Y114.850 E4.05008
G1 X92.250 Y114.850 E4.57486
G1 X92.195 Y114.540 E4.60060
G1 X93.406 Y114.100 E4.70603
G1 X104.126 Y114.100 E5.58339
G1 X100.959 Y114.783 F7800.000
G1 X100.654 Y114.478 E5.62603 F600.000
G1 X99.587 Y114.478 E5.73153
G1 X100.959 Y115.851 E5.92336
G1 X100.413 Y116.372 E5.99798
G1 X99.245 Y115.204 E6.16125
G1 X99.041 Y116.067 E6.24890
G1 X99.346 Y116.372 E6.29155
G1 X98.974 Y114.475 F7800.000
G1 X93.472 Y114.475 E6.74188 F600.000
G1 X93.214 Y114.520 E6.76328
G1 X91.927 Y114.818 F7800.000
G1 X90.632 Y114.818 E6.98785 F600.000
G1 X89.446 Y114.717 E7.19439
G1 X88.705 Y114.525 E7.32729
G1 X87.632 Y114.059 E7.53030
G1 X87.082 Y113.704 E7.64376
G1 X86.071 Y112.777 E7.88183
G1 X85.806 Y112.446 E7.95532
G1 X85.038 Y111.039 E8.23351
G1 X84.949 Y110.800 E8.27777
G1 X84.650 Y109.000 E8.59437
G1 X84.949 Y107.196 E8.91158
G1 X85.037 Y106.961 E8.95528
G1 X85.774 Y105.603 E9.22334
G1 X86.011 Y105.294 E9.29084
G1 X87.085 Y104.294 E9.54551
G1 X87.632 Y103.941 E9.65835
G1 X88.705 Y103.475 E9.86137
G1 X89.446 Y103.283 E9.99426
G1 X90.632 Y103.182 E10.20081
G1 X91.927 Y103.182 E10.42537
G1 X93.214 Y103.480 F7800.000
G1 X93.472 Y103.525 E10.44678 F600.000
G1 X104.038 Y103.525 E11.31147
G1 E8.11147 F2760.00000
G92 E0
G1 Z0.650 F7800.000
G1 X112.656 Y106.776 F7800.000
G1 E3.20000 F2760.00000
G1 X113.678 Y104.770 E3.31010 F1800.000
G1 X115.270 Y103.178 E3.42019
G1 X117.276 Y102.156 E3.53029
G1 X119.524 Y101.800 E3.64156
G1 X134.700 Y101.800 E4.38367
G1 X134.700 Y105.250 E4.55238
G1 X121.932 Y105.250 E5.17671 F1800.000
G1 X121.752 Y105.099 E5.18820
G1 X120.282 Y104.564 E5.26471
G1 X118.718 Y104.564 E5.34121
G1 X117.248 Y105.099 E5.41771
G1 X117.151 Y105.180 E5.42386
G1 X116.049 Y106.104 E5.49421
G1 X115.267 Y107.459 E5.57071
G1 X114.945 Y109.287 E5.66145
G1 X115.046 Y109.287 E5.66639
G1 X115.267 Y110.541 E5.72865
G1 X116.049 Y111.896 E5.80515
G1 X117.248 Y112.901 E5.88165
G1 X118.718 Y113.436 E5.95815
G1 X120.282 Y113.436 E6.03465
G1 X121.752 Y112.901 E6.11116
G1 X121.932 Y112.750 E6.12265
G1 X134.700 Y112.750 E6.74698
G1 X134.700 Y116.200 E6.91568
G1 X131.875 Y116.200 E7.05380
G1 X131.875 Y118.100 E7.14671
G1 X126.125 Y118.100 E7.42793
G1 X126.125 Y116.200 E7.52084
G1 X119.524 Y116.200 E7.84362
G1 X117.276 Y115.844 E7.95489
G1 X115.270 Y114.822 E8.06498
G1 X113.678 Y113.230 E8.17508
G1 X112.656 Y111.224 E8.28518
G1 X112.304 Y109.000 E8.39527
G1 X112.644 Y106.850 E8.50170
G1 X113.150 Y106.698 F7800.000
G1 X113.181 Y106.947 F7800.000
G1 X114.125 Y105.095 E8.65443 F3600.000
G1 X115.595 Y103.625 E8.80716
G1 X117.447 Y102.681 E8.95989
G1 X119.567 Y102.345 E9.11757
G1 X134.155 Y102.345 E10.18938
G1 X134.155 Y104.705 E10.36275
G1 X122.131 Y104.705 E11.24616 F3600.000
G1 X122.029 Y104.620 E11.25592
G1 X120.378 Y104.019 E11.38498
G1 X118.622 Y104.019 E11.51404
G1 X116.971 Y104.620 E11.64310
G1 X116.801 Y104.762 E11.65941
G1 X115.625 Y105.749 E11.77216
G1 X114.747 Y107.270 E11.90122
G1 X114.295 Y109.832 E12.09234
G1 X114.589 Y109.832 E12.11389
G1 X114.747 Y110.730 E12.18090
G1 X115.625 Y112.251 E12.30996
G1 X116.971 Y113.380 E12.43902
G1 X118.622 Y113.981 E12.56808
G1 X120.378 Y113.981 E12.69714
G1 X122.029 Y113.380 E12.82620
G1 X122.131 Y113.295 E12.83596
G1 X134.155 Y113.295 E13.71936
G1 X134.155 Y115.655 E13.89274
G1 X131.330 Y115.655 E14.10026
G1 X131.330 Y117.555 E14.23985
G1 X126.670 Y117.555 E14.58228
G1 X126.670 Y115.655 E14.72187
G1 X119.567 Y115.655 E15.24373
G1 X117.447 Y115.319 E15.40141
G1 X115.595 Y114.375 E15.55414
G1 X114.125 Y112.905 E15.70687
G1 X113.181 Y111.053 E15.85960
G1 X112.856 Y109.000 E16.01233
G1 X113.169 Y107.021 E16.15955
G1 X123.069 Y103.000 F7800.000
G1 X133.500 Y103.000 E16.92591 F900.000
G1 X133.500 Y104.050 E17.00312
G1 X122.379 Y104.050 E17.82020 F900.000
G1 X120.383 Y103.324 E17.97624
G1 X120.441 Y103.000 E18.00045
G1 X122.994 Y103.000 E18.18808
G1 E14.98808 F2760.00000
G92 E0
G1 X130.676 Y116.900 F7800.000
G1 E3.20000 F2760.00000
G1 X127.324 Y116.900 E3.44625 F900.000
G1 X127.324 Y115.000 E3.58585
G1 X120.441 Y115.000 E4.09158
G1 X120.383 Y114.676 E4.11579
G1 X122.379 Y113.950 E4.27182
G1 X133.500 Y113.950 E5.08891
G1 X133.500 Y115.000 E5.16611
G1 X130.676 Y115.000 E5.37363 F900.000
G1 X130.676 Y116.825 E5.50771
G1 X129.961 Y116.503 F7800.000
G1 X130.278 Y116.185 E5.54115 F1200.000
G1 X130.278 Y115.248 E5.61092
G1 X129.023 Y116.503 E5.74302
G1 X128.086 Y116.503 E5.81279
G1 X129.951 Y114.637 E6.00913
G1 X129.304 Y114.347 E6.06192
G1 X127.722 Y115.929 E6.22846
G1 X128.049 Y114.665 E6.32568
G1 X128.367 Y114.347 E6.35912
G1 X127.651 Y114.475 F7800.000
G1 X122.472 Y114.475 E6.73967 F1200.000
G1 X121.449 Y114.655 E6.81598
G1 X120.082 Y114.854 F7800.000
G1 X118.564 Y114.734 E7.05078 F1200.000
G1 X117.705 Y114.525 E7.18710
G1 X116.659 Y114.070 E7.36298
G1 X116.082 Y113.704 E7.46823
G1 X115.092 Y112.797 E7.67527
G1 X114.789 Y112.423 E7.74951
G1 X114.051 Y111.065 E7.98775
G1 X113.949 Y110.804 E8.03101
G1 X113.920 Y110.628 E8.05837
G1 X113.638 Y110.112 E8.14912
G1 X113.648 Y109.000 E8.32054
G1 X113.949 Y107.196 E8.60245
G1 X114.051 Y106.935 E8.64571
G1 X114.788 Y105.577 E8.88395
G1 X115.092 Y105.203 E8.95819
G1 X116.082 Y104.296 E9.16522
G1 X116.527 Y104.001 E9.24753
G1 X117.705 Y103.475 E9.44635
G1 X118.564 Y103.266 E9.58267
G1 X120.082 Y103.146 E9.81747
