; generated by Slic3r 1.2.9 on 2017-09-30 at 17:46:16

; external perimeters extrusion width = 0.50mm
; perimeters extrusion width = 0.38mm
; infill extrusion width = 0.72mm
; solid infill extrusion width = 0.72mm
; top infill extrusion width = 0.72mm
; support material extrusion width = 0.50mm

M107
M190 S60 ; set bed temperature
M104 S210 ; set temperature
G28 X0 Y0
G28 Z0
G1 Z0.3 F200
G1 X15 Y20 F12000
M109 S210 ; wait for temperature to be reached
G21 ; set units to millimeters
G90 ; use absolute coordinates
M82 ; use absolute distances for extrusion
G92 E0
G1 E-5.00000 F2760.00000
G92 E0
G1 Z0.350 F7800.000
G1 X31.720 Y49.705 F7800.000
G1 E5.00000 F2760.00000
G1 X33.950 Y48.669 E5.17310 F1200.000
G1 X36.000 Y48.388 E5.31871
G1 X182.000 Y48.388 E15.59382
G1 X184.427 Y48.785 E15.76692
G1 X186.601 Y49.936 E15.94002 F1200.000
G1 X188.295 Y51.720 E16.11313
G1 X189.331 Y53.950 E16.28623
G1 X189.612 Y56.000 E16.43184
G1 X189.612 Y162.000 E23.89185
G1 X189.215 Y164.427 E24.06495
G1 X188.064 Y166.601 E24.23805
G1 X186.280 Y168.295 E24.41115
G1 X184.050 Y169.331 E24.58425
G1 X182.000 Y169.612 E24.72986
G1 X112.000 Y169.612 E29.65628
G1 X109.573 Y169.215 E29.82939
G1 X107.484 Y168.128 E29.99506
G1 X31.484 Y112.128 E36.63893
G1 X29.766 Y110.368 E36.81203
G1 X28.699 Y108.153 E36.98513
G1 X28.388 Y106.000 E37.13819
G1 X28.388 Y56.000 E40.65707
G1 X28.785 Y53.573 E40.83017
G1 X29.936 Y51.399 E41.00327
G1 X31.665 Y49.757 E41.17109
G1 X32.100 Y50.131 F7800.000
G1 X32.237 Y50.009 E41.18403 F1200.000
G1 X34.428 Y49.102 E41.35087
G1 X36.000 Y48.925 E41.46223
G1 X182.000 Y48.925 E51.73734
G1 X184.337 Y49.322 E51.90418
G1 X186.412 Y50.469 E52.07101 F1200.000
G1 X187.991 Y52.237 E52.23785
G1 X188.898 Y54.428 E52.40469
G1 X189.075 Y56.000 E52.51605
G1 X189.075 Y162.000 E59.97606
G1 X188.678 Y164.337 E60.14290
G1 X187.531 Y166.412 E60.30974
G1 X185.763 Y167.991 E60.47658
G1 X183.572 Y168.898 E60.64341
G1 X182.000 Y169.075 E60.75477
G1 X112.000 Y169.075 E65.68120
G1 X109.663 Y168.678 E65.84803
G1 X107.803 Y167.696 E65.99604
G1 X31.803 Y111.696 E72.63991
G1 X30.157 Y109.989 E72.80675
G1 X29.167 Y107.835 E72.97359
G1 X28.925 Y106.000 E73.10388
G1 X28.925 Y56.000 E76.62275
G1 X29.322 Y53.663 E76.78959
G1 X30.469 Y51.588 E76.95643
G1 X32.044 Y50.181 E77.10505
G1 X32.464 Y50.567 F7800.000
G1 X32.752 Y50.327 E77.13146 F1200.000
G1 X36.000 Y49.463 E77.36802
G1 X182.000 Y49.463 E87.64313
G1 X184.243 Y49.860 E87.80346
G1 X186.214 Y51.002 E87.96378 F1200.000
G1 X187.673 Y52.752 E88.12411
G1 X188.537 Y56.000 E88.36067
G1 X188.537 Y162.000 E95.82068
G1 X188.140 Y164.243 E95.98101
G1 X186.998 Y166.214 E96.14134
G1 X185.248 Y167.673 E96.30167
G1 X182.000 Y168.537 E96.53823
G1 X112.000 Y168.537 E101.46465
G1 X109.757 Y168.140 E101.62498
G1 X108.122 Y167.263 E101.75555
G1 X32.122 Y111.263 E108.39943
G1 X30.552 Y109.613 E108.55975
G1 X29.643 Y107.524 E108.72008
G1 X29.463 Y106.000 E108.82806
G1 X29.463 Y56.000 E112.34694
G1 X29.860 Y53.757 E112.50727
G1 X31.002 Y51.786 E112.66760
G1 X32.406 Y50.615 E112.79624
G1 E107.79624 F2760.00000
G92 E0
G1 X112.306 Y105.694 F7800.000
G1 E5.00000 F2760.00000
G1 X112.306 Y56.306 E8.47577 F1200.000
G1 X181.694 Y56.306 E13.35908
G1 X181.694 Y65.694 E14.01975
G1 X166.995 Y65.694 E15.05420
G1 X166.039 Y65.724 E15.12154
G1 X165.082 Y65.814 E15.18921
G1 X164.132 Y65.965 E15.25688
G1 X163.193 Y66.175 E15.32456
G1 X162.254 Y66.448 E15.39340
G1 X161.365 Y66.769 E15.45990
G1 X160.483 Y67.150 E15.52757
G1 X159.626 Y67.587 E15.59524
G1 X158.798 Y68.076 E15.66291
G1 X158.003 Y68.617 E15.73059
G1 X157.243 Y69.206 E15.79826
G1 X156.522 Y69.842 E15.86594
G1 X155.842 Y70.522 E15.93361
G1 X155.206 Y71.243 E16.00128
G1 X154.617 Y72.003 E16.06895
G1 X154.076 Y72.798 E16.13663
G1 X153.587 Y73.626 E16.20430
G1 X153.150 Y74.483 E16.27197
G1 X152.769 Y75.365 E16.33964
G1 X152.443 Y76.270 E16.40731
G1 X152.175 Y77.193 E16.47499
G1 X151.965 Y78.132 E16.54266
G1 X151.814 Y79.082 E16.61034
G1 X151.725 Y80.022 E16.67683
G1 X151.694 Y81.000 E16.74567
G1 X151.724 Y81.961 E16.81336
G1 X151.814 Y82.918 E16.88103
G1 X151.965 Y83.868 E16.94870
G1 X152.175 Y84.807 E17.01637
G1 X152.438 Y85.714 E17.08288
G1 X152.768 Y86.635 E17.15171
G1 X153.150 Y87.517 E17.21939
G1 X153.587 Y88.374 E17.28706
G1 X154.076 Y89.202 E17.35473
G1 X154.617 Y89.997 E17.42241
G1 X155.206 Y90.757 E17.49008
G1 X155.842 Y91.478 E17.55775
G1 X156.522 Y92.158 E17.62542
G1 X157.243 Y92.794 E17.69310
G1 X158.003 Y93.383 E17.76077
G1 X158.798 Y93.924 E17.82844
G1 X159.626 Y94.413 E17.89612
G1 X160.483 Y94.850 E17.96379
G1 X161.365 Y95.231 E18.03146
G1 X162.270 Y95.557 E18.09913
G1 X163.193 Y95.825 E18.16681
G1 X164.132 Y96.035 E18.23448
G1 X165.082 Y96.186 E18.30215
G1 X166.039 Y96.276 E18.36982
G1 X166.995 Y96.306 E18.43716
G1 X181.694 Y96.306 E19.47161
G1 X181.694 Y105.694 E20.13228
G1 X112.381 Y105.694 E25.01032
G1 X112.556 Y105.261 F7800.000
G1 E20.01032 F2760.00000
G92 E0
G1 X165.063 Y63.819 F7800.000
G1 E5.00000 F2760.00000
G1 X164.756 Y63.424 E5.03520 F1200.000
G1 X164.529 Y62.978 E5.07041
G1 X164.389 Y62.498 E5.10561
G1 X164.342 Y62.000 E5.14081
G1 X164.389 Y61.502 E5.17602
G1 X164.529 Y61.022 E5.21122
G1 X164.756 Y60.576 E5.24642
G1 X165.063 Y60.181 E5.28163
G1 X165.438 Y59.850 E5.31683
G1 X165.868 Y59.595 E5.35203
G1 X166.335 Y59.428 E5.38690
G1 X166.667 Y59.364 E5.41072
G1 X167.002 Y59.343 E5.43435 F1200.000
G1 X167.498 Y59.389 E5.46939
G1 X167.978 Y59.529 E5.50461
G1 X168.424 Y59.756 E5.53981
G1 X168.815 Y60.060 E5.57467
G1 X169.047 Y60.306 E5.59849
G1 X169.246 Y60.580 E5.62231
G1 X169.471 Y61.022 E5.65718
G1 X169.611 Y61.502 E5.69238
G1 X169.658 Y62.000 E5.72758
G1 X169.611 Y62.498 E5.76279
G1 X169.471 Y62.978 E5.79799
G1 X169.244 Y63.424 E5.83319
G1 X168.937 Y63.819 E5.86840
G1 X168.562 Y64.150 E5.90360
G1 X168.132 Y64.405 E5.93880
G1 X167.665 Y64.572 E5.97367
G1 X167.333 Y64.636 E5.99749
G1 X167.000 Y64.657 E6.02097
G1 X166.667 Y64.636 E6.04445
G1 X166.335 Y64.572 E6.06827
G1 X165.868 Y64.405 E6.10314
G1 X165.438 Y64.150 E6.13834
G1 X165.119 Y63.869 E6.16827
G1 X164.573 Y63.918 F7800.000
G1 X165.772 Y65.209 F7800.000
G1 X165.014 Y65.281 E6.22187 F1200.000
G1 X164.031 Y65.437 E6.29191
G1 X163.059 Y65.654 E6.36200
G1 X162.088 Y65.937 E6.43321
G1 X161.167 Y66.269 E6.50206
G1 X160.254 Y66.664 E6.57211
G1 X159.367 Y67.116 E6.64216
G1 X158.510 Y67.622 E6.71221
G1 X157.687 Y68.182 E6.78226
G1 X156.901 Y68.792 E6.85232
G1 X156.154 Y69.450 E6.92237
G1 X155.450 Y70.154 E6.99241
G1 X154.792 Y70.901 E7.06246
G1 X154.182 Y71.687 E7.13251
G1 X153.622 Y72.510 E7.20256
G1 X153.116 Y73.367 E7.27261
G1 X152.664 Y74.254 E7.34266
G1 X152.269 Y75.167 E7.41271
G1 X151.931 Y76.104 E7.48276
G1 X151.654 Y77.060 E7.55281
G1 X151.437 Y78.031 E7.62286
G1 X151.281 Y79.014 E7.69291
G1 X151.189 Y79.988 E7.76177
G1 X151.156 Y81.000 E7.83298
G1 X151.187 Y81.995 E7.90306
G1 X151.281 Y82.986 E7.97311
G1 X151.437 Y83.969 E8.04316
G1 X151.654 Y84.940 E8.11321
G1 X151.927 Y85.880 E8.18207
G1 X152.268 Y86.832 E8.25328
G1 X152.664 Y87.746 E8.32336
G1 X153.116 Y88.633 E8.39341
G1 X153.622 Y89.490 E8.46346
G1 X154.182 Y90.313 E8.53351
G1 X154.792 Y91.099 E8.60356
G1 X155.450 Y91.846 E8.67361
G1 X156.154 Y92.550 E8.74366
G1 X156.901 Y93.208 E8.81370
G1 X157.687 Y93.818 E8.88376
G1 X158.510 Y94.378 E8.95381
G1 X159.367 Y94.884 E9.02386
G1 X160.254 Y95.336 E9.09391
G1 X161.167 Y95.731 E9.16396
G1 X162.104 Y96.069 E9.23401
G1 X163.060 Y96.346 E9.30406
G1 X164.031 Y96.563 E9.37411
G1 X165.014 Y96.719 E9.44416
G1 X165.773 Y96.791 E9.49776
G1 X165.805 Y97.047 E9.51594
G1 X165.639 Y97.107 E9.52838
G1 X165.121 Y97.413 E9.57073
G1 X164.669 Y97.811 E9.61309
G1 X164.300 Y98.287 E9.65544
G1 X164.027 Y98.823 E9.69780
G1 X163.859 Y99.401 E9.74016
G1 X163.803 Y100.000 E9.78250
G1 X163.859 Y100.599 E9.82485
G1 X164.027 Y101.177 E9.86721
G1 X164.300 Y101.713 E9.90956
G1 X164.661 Y102.178 E9.95098
G1 X164.963 Y102.462 E9.98016
G1 X165.299 Y102.706 E10.00933
G1 X165.823 Y102.973 E10.05075
G1 X166.401 Y103.141 E10.09311
G1 X167.000 Y103.197 E10.13545
G1 X167.599 Y103.141 E10.17780
G1 X168.177 Y102.973 E10.22016
G1 X168.713 Y102.700 E10.26251
G1 X169.178 Y102.339 E10.30394
G1 X169.462 Y102.037 E10.33310
G1 X169.704 Y101.704 E10.36207
G1 X169.973 Y101.177 E10.40368
G1 X170.141 Y100.599 E10.44606
G1 X170.197 Y100.000 E10.48841
G1 X170.141 Y99.401 E10.53075
G1 X169.973 Y98.823 E10.57311
G1 X169.706 Y98.299 E10.61453
G1 X169.462 Y97.963 E10.64370
G1 X169.178 Y97.661 E10.67288
G1 X168.713 Y97.300 E10.71430
G1 X168.302 Y97.091 E10.74678
G1 X168.361 Y96.844 E10.76467
G1 X181.156 Y96.844 E11.66514
G1 X181.156 Y105.156 E12.25017
G1 X112.844 Y105.156 E17.05785
G1 X112.844 Y56.844 E20.45797
G1 X181.156 Y56.844 E25.26565
G1 X181.156 Y65.156 E25.85068
G1 X168.383 Y65.156 E26.74967
G1 X168.318 Y64.919 E26.76699
G1 X168.879 Y64.587 E26.81292
G1 X169.331 Y64.189 E26.85528
G1 X169.700 Y63.713 E26.89763
G1 X169.973 Y63.177 E26.93999
G1 X170.141 Y62.599 E26.98234
G1 X170.197 Y62.000 E27.02469
G1 X170.141 Y61.401 E27.06704
G1 X169.973 Y60.823 E27.10940
G1 X169.706 Y60.299 E27.15081
G1 X169.462 Y59.963 E27.17999
G1 X169.178 Y59.661 E27.20917
G1 X168.713 Y59.300 E27.25058
G1 X168.177 Y59.027 E27.29294
G1 X167.599 Y58.859 E27.33532
G1 X167.010 Y58.804 E27.37692
G1 X166.599 Y58.830 E27.40589
G1 X166.192 Y58.908 E27.43506
G1 X165.639 Y59.107 E27.47647
G1 X165.121 Y59.413 E27.51882
G1 X164.669 Y59.811 E27.56118
G1 X164.300 Y60.287 E27.60353
G1 X164.027 Y60.823 E27.64589
G1 X163.859 Y61.401 E27.68824
G1 X163.803 Y62.000 E27.73059
G1 X163.859 Y62.599 E27.77295
G1 X164.027 Y63.177 E27.81530
G1 X164.300 Y63.713 E27.85765
G1 X164.669 Y64.189 E27.90001
G1 X165.121 Y64.587 E27.94236
G1 X165.639 Y64.893 E27.98472
G1 X165.805 Y64.953 E27.99715
G1 X165.782 Y65.135 E28.01005
G1 X164.560 Y64.809 F7800.000
G1 X163.930 Y64.908 E28.05490 F1200.000
G1 X162.925 Y65.133 E28.12738
G1 X161.922 Y65.426 E28.20097
G1 X160.969 Y65.769 E28.27218
G1 X160.025 Y66.177 E28.34460
G1 X159.108 Y66.645 E28.41703
G1 X158.222 Y67.168 E28.48946
G1 X157.371 Y67.747 E28.56188
G1 X156.558 Y68.378 E28.63432
G1 X155.786 Y69.058 E28.70675
G1 X155.058 Y69.786 E28.77916
G1 X154.378 Y70.558 E28.85159
G1 X153.747 Y71.371 E28.92403
G1 X153.168 Y72.222 E28.99645
G1 X152.645 Y73.108 E29.06888
G1 X152.177 Y74.025 E29.14130
G1 X151.769 Y74.969 E29.21373
G1 X151.420 Y75.938 E29.28616
G1 X151.133 Y76.926 E29.35859
G1 X150.908 Y77.930 E29.43101
G1 X150.747 Y78.947 E29.50344
G1 X150.652 Y79.954 E29.57465
G1 X150.618 Y80.999 E29.64824
G1 X150.651 Y82.029 E29.72072
G1 X150.747 Y83.053 E29.79315
G1 X150.908 Y84.070 E29.86557
G1 X151.133 Y85.074 E29.93800
G1 X151.415 Y86.046 E30.00922
G1 X151.768 Y87.030 E30.08280
G1 X152.177 Y87.975 E30.15528
G1 X152.645 Y88.892 E30.22771
G1 X153.168 Y89.778 E30.30013
G1 X153.747 Y90.629 E30.37256
G1 X154.378 Y91.442 E30.44499
G1 X155.058 Y92.214 E30.51742
G1 X155.786 Y92.942 E30.58984
G1 X156.558 Y93.622 E30.66226
G1 X157.371 Y94.253 E30.73470
G1 X158.222 Y94.832 E30.80713
G1 X159.108 Y95.355 E30.87955
G1 X160.025 Y95.823 E30.95198
G1 X160.969 Y96.231 E31.02440
G1 X161.938 Y96.580 E31.09683
G1 X162.926 Y96.867 E31.16926
G1 X163.930 Y97.092 E31.24168
G1 X164.560 Y97.191 E31.28654
G1 X164.276 Y97.442 E31.31319
G1 X163.845 Y97.998 E31.36270
G1 X163.525 Y98.624 E31.41220
G1 X163.329 Y99.300 E31.46171
G1 X163.263 Y100.000 E31.51121
G1 X163.329 Y100.700 E31.56070
G1 X163.525 Y101.376 E31.61021
G1 X163.845 Y102.002 E31.65972
G1 X164.262 Y102.541 E31.70770
G1 X164.620 Y102.877 E31.74222
G1 X165.017 Y103.165 E31.77674
G1 X165.624 Y103.475 E31.82472
G1 X166.300 Y103.671 E31.87423
G1 X167.000 Y103.737 E31.92373
G1 X167.700 Y103.671 E31.97322
G1 X168.376 Y103.475 E32.02273
G1 X169.002 Y103.155 E32.07224
G1 X169.541 Y102.738 E32.12021
G1 X169.877 Y102.380 E32.15473
G1 X170.163 Y101.986 E32.18903
G1 X170.475 Y101.376 E32.23720
G1 X170.671 Y100.700 E32.28675
G1 X170.737 Y100.000 E32.33624
G1 X170.671 Y99.300 E32.38574
G1 X170.475 Y98.624 E32.43525
G1 X170.165 Y98.017 E32.48322
G1 X169.703 Y97.381 E32.53854
G1 X180.619 Y97.381 E33.30677
G1 X180.619 Y104.619 E33.81616
G1 X113.381 Y104.619 E38.54820
G1 X113.381 Y57.381 E41.87268
G1 X180.619 Y57.381 E46.60472
G1 X180.619 Y64.619 E47.11411
G1 X169.677 Y64.619 E47.88416
G1 X170.155 Y64.002 E47.93907
G1 X170.475 Y63.376 E47.98857
G1 X170.671 Y62.700 E48.03808
G1 X170.737 Y62.000 E48.08758
G1 X170.671 Y61.300 E48.13708
G1 X170.475 Y60.624 E48.18659
G1 X170.165 Y60.017 E48.23456
G1 X169.877 Y59.620 E48.26909
G1 X169.541 Y59.262 E48.30362
G1 X169.002 Y58.845 E48.35159
G1 X168.376 Y58.525 E48.40109
G1 X167.700 Y58.329 E48.45063
G1 X167.018 Y58.265 E48.49879
G1 X166.532 Y58.296 E48.53310
G1 X166.050 Y58.388 E48.56762
G1 X165.409 Y58.618 E48.61559
G1 X164.803 Y58.977 E48.66509
G1 X164.276 Y59.442 E48.71460
G1 X163.845 Y59.998 E48.76410
G1 X163.525 Y60.624 E48.81361
G1 X163.329 Y61.300 E48.86311
G1 X163.263 Y62.000 E48.91261
G1 X163.329 Y62.700 E48.96211
G1 X163.525 Y63.376 E49.01162
G1 X163.845 Y64.002 E49.06112
G1 X164.276 Y64.558 E49.11063
G1 X164.504 Y64.759 E49.13201
G1 E44.13201 F2760.00000
G92 E0
G1 X125.108 Y66.000 F7800.000
G1 E5.00000 F2760.00000
G1 X125.053 Y66.582 E5.04117 F1200.000
G1 X124.889 Y67.142 E5.08221
G1 X124.723 Y67.497 E5.10979
G1 X124.511 Y67.830 E5.13759
G1 X124.127 Y68.265 E5.17841
G1 X123.665 Y68.624 E5.21957
G1 X123.144 Y68.889 E5.26074
G1 X122.582 Y69.053 E5.30190
G1 X122.000 Y69.108 E5.34306
G1 X121.418 Y69.053 E5.38423
G1 X120.856 Y68.889 E5.42539
G1 X120.335 Y68.624 E5.46656
G1 X119.874 Y68.266 E5.50758
G1 X119.606 Y67.980 E5.53518
G1 X119.374 Y67.661 E5.56298
G1 X119.111 Y67.144 E5.60380
G1 X118.947 Y66.582 E5.64496
G1 X118.892 Y66.000 E5.68613
G1 X118.947 Y65.418 E5.72729
G1 X119.111 Y64.856 E5.76845
G1 X119.376 Y64.335 E5.80962
G1 X119.735 Y63.873 E5.85078
G1 X120.173 Y63.486 E5.89195
G1 X120.677 Y63.188 E5.93311
G1 X121.223 Y62.992 E5.97393
G1 X121.611 Y62.918 E6.00173
G1 X122.002 Y62.893 E6.02932 F1200.000
G1 X122.582 Y62.947 E6.07035
G1 X123.144 Y63.111 E6.11151
G1 X123.665 Y63.376 E6.15268
G1 X124.123 Y63.732 E6.19350
G1 X124.394 Y64.020 E6.22130
G1 X124.626 Y64.339 E6.24910
G1 X124.889 Y64.856 E6.28992
G1 X125.053 Y65.418 E6.33109
G1 X125.101 Y65.925 E6.36697
G1 X125.533 Y66.263 F7800.000
G1 X125.643 Y66.051 F7800.000
G1 X125.583 Y66.684 E6.41174 F1200.000
G1 X125.394 Y67.333 E6.45933
G1 X125.194 Y67.756 E6.49225
G1 X124.942 Y68.154 E6.52540
G1 X124.497 Y68.659 E6.57277
G1 X123.954 Y69.080 E6.62108
G1 X123.343 Y69.391 E6.66940
G1 X122.683 Y69.583 E6.71771
G1 X122.000 Y69.647 E6.76603
G1 X121.317 Y69.583 E6.81434
G1 X120.657 Y69.391 E6.86265
G1 X120.045 Y69.079 E6.91099
G1 X119.512 Y68.665 E6.95857
G1 X119.191 Y68.324 E6.99150
G1 X118.914 Y67.942 E7.02466
G1 X118.609 Y67.343 E7.07203
G1 X118.417 Y66.684 E7.12034
G1 X118.353 Y66.000 E7.16866
G1 X118.417 Y65.317 E7.21697
G1 X118.609 Y64.657 E7.26528
G1 X118.920 Y64.046 E7.31360
G1 X119.341 Y63.503 E7.36191
G1 X119.856 Y63.049 E7.41023
G1 X120.447 Y62.700 E7.45854
G1 X121.080 Y62.472 E7.50592
G1 X121.543 Y62.383 E7.53906
G1 X122.010 Y62.354 E7.57200 F1200.000
G1 X122.683 Y62.417 E7.61958
G1 X123.343 Y62.609 E7.66791
G1 X123.954 Y62.920 E7.71622
G1 X124.486 Y63.333 E7.76360
G1 X124.809 Y63.676 E7.79675
G1 X125.086 Y64.057 E7.82990
G1 X125.391 Y64.657 E7.87728
G1 X125.583 Y65.317 E7.92560
G1 X125.645 Y65.976 E7.97221
G1 X126.178 Y66.101 F7800.000
G1 X126.113 Y66.785 E8.02056 F1200.000
G1 X125.898 Y67.524 E8.07471
G1 X125.666 Y68.016 E8.11298
G1 X125.373 Y68.478 E8.15148
G1 X124.866 Y69.052 E8.20540
G1 X124.244 Y69.535 E8.26086
G1 X123.541 Y69.893 E8.31633
G1 X122.785 Y70.113 E8.37179
G1 X122.000 Y70.187 E8.42725
G1 X121.215 Y70.113 E8.48272
G1 X120.459 Y69.893 E8.53818
G1 X119.756 Y69.535 E8.59368
G1 X119.149 Y69.063 E8.64781
G1 X118.776 Y68.667 E8.68609
G1 X118.455 Y68.224 E8.72460
G1 X118.107 Y67.541 E8.77852
G1 X117.887 Y66.785 E8.83398
G1 X117.813 Y66.000 E8.88945
G1 X117.887 Y65.215 E8.94491
G1 X118.107 Y64.459 E9.00038
G1 X118.465 Y63.756 E9.05584
G1 X118.948 Y63.134 E9.11130
G1 X119.539 Y62.612 E9.16677
G1 X120.217 Y62.211 E9.22223
