; generated by Slic3r 1.2.9 on 2017-08-17 at 23:28:36

; external perimeters extrusion width = 0.50mm
; perimeters extrusion width = 0.38mm
; infill extrusion width = 0.72mm
; solid infill extrusion width = 0.72mm
; top infill extrusion width = 0.72mm
; support material extrusion width = 0.50mm

M107
M190 S60 ; set bed temperature
M104 S210 ; set temperature
G28 X0 Y0
G28 Z0
G1 Z0.3 F200
G1 X15 Y20 F12000
M109 S210 ; wait for temperature to be reached
G21 ; set units to millimeters
G90 ; use absolute coordinates
M82 ; use absolute distances for extrusion
G92 E0
G1 E-5.00000 F2760.00000
G92 E0
G1 Z0.350 F7800.000
G1 X67.453 Y47.058 F7800.000
G1 E5.00000 F2760.00000
G1 X68.113 Y46.184 E5.07707 F1200.000
G1 X68.424 Y45.807 E5.11148
G1 X68.840 Y45.335 E5.15573
G1 X69.611 Y44.543 E5.23359
G1 X70.431 Y43.800 E5.31141
G1 X71.296 Y43.110 E5.38927
G1 X72.202 Y42.476 E5.46712
G1 X72.606 Y42.220 E5.50078
G1 X73.565 Y41.670 E5.57861
G1 X74.125 Y41.384 E5.62286
G1 X75.135 Y40.931 E5.70071
G1 X75.579 Y40.755 E5.73436
G1 X76.625 Y40.395 E5.81221
G1 X77.691 Y40.101 E5.89005
G1 X78.305 Y39.964 E5.93429
G1 X79.395 Y39.776 E6.01215
G1 X80.495 Y39.657 E6.09001
G1 X81.839 Y39.603 E6.18469
G1 X122.078 Y39.607 E9.01660
G1 X123.183 Y39.657 E9.09448 F1200.000
G1 X124.283 Y39.776 E9.17233
G1 X125.373 Y39.964 E9.25019
G1 X125.986 Y40.101 E9.29440
G1 X127.053 Y40.395 E9.37225
G1 X127.507 Y40.542 E9.40588
G1 X128.542 Y40.931 E9.48370
G1 X129.553 Y41.385 E9.56164
G1 X130.531 Y41.900 E9.63946
G1 X131.476 Y42.476 E9.71734
G1 X132.383 Y43.111 E9.79525
G1 X133.247 Y43.800 E9.87300
G1 X133.718 Y44.215 E9.91723
G1 X134.512 Y44.987 E9.99514
G1 X135.255 Y45.808 E10.07309
G1 X135.944 Y46.671 E10.15081
G1 X136.225 Y47.059 E10.18451
G1 X136.834 Y47.982 E10.26235
G1 X137.385 Y48.942 E10.34022
G1 X137.873 Y49.934 E10.41807
G1 X138.123 Y50.511 E10.46228
G1 X138.512 Y51.547 E10.54015
G1 X138.835 Y52.606 E10.61811
G1 X154.455 Y107.169 E14.61236
G1 X154.938 Y109.297 E14.76591
G1 X155.096 Y111.475 E14.91961
G1 X153.754 Y130.222 E16.24234
G1 X152.621 Y133.704 E16.50006
G1 X128.001 Y173.209 E19.77608
G1 X126.380 Y175.059 E19.94918
G1 X124.253 Y176.296 E20.12228
G1 X122.147 Y176.771 E20.27424
G1 X92.538 Y179.139 E22.36472
G1 X75.063 Y179.806 E23.59547
G1 X73.573 Y179.811 E23.70031
G1 X71.146 Y179.414 E23.87341
G1 X69.265 Y178.475 E24.02134
G1 X68.371 Y177.861 E24.09769
G1 X66.594 Y176.160 E24.27079
G1 X65.453 Y173.981 E24.44390
G1 X65.067 Y171.641 E24.61080
G1 X64.231 Y56.976 E32.68083
G1 X64.280 Y55.871 E32.75868
G1 X64.399 Y54.771 E32.83654
G1 X64.587 Y53.681 E32.91440
G1 X64.724 Y53.068 E32.95861
G1 X65.019 Y52.001 E33.03647
G1 X65.379 Y50.955 E33.11433
G1 X65.555 Y50.511 E33.14798
G1 X66.008 Y49.502 E33.22584
G1 X66.524 Y48.523 E33.30370
G1 X66.844 Y47.982 E33.34791
G1 X67.411 Y47.120 E33.42052
G1 X67.898 Y47.360 F7800.000
G1 X68.537 Y46.513 E33.49522 F1200.000
G1 X68.827 Y46.162 E33.52725
G1 X69.243 Y45.691 E33.57150
G1 X69.991 Y44.923 E33.64698
G1 X70.786 Y44.203 E33.72243
G1 X71.625 Y43.535 E33.79791
G1 X72.504 Y42.921 E33.87339
G1 X72.879 Y42.682 E33.90467
G1 X73.809 Y42.149 E33.98013
G1 X74.369 Y41.863 E34.02437
G1 X75.348 Y41.425 E34.09985
G1 X75.805 Y41.245 E34.13437
G1 X76.775 Y40.911 E34.20660
G1 X77.809 Y40.625 E34.28207
G1 X78.422 Y40.488 E34.32631
G1 X79.479 Y40.306 E34.40179
G1 X80.545 Y40.192 E34.47727
G1 X81.839 Y40.140 E34.56839
G1 X122.061 Y40.144 E37.39911
G1 X123.133 Y40.192 E37.47461 F1200.000
G1 X124.199 Y40.306 E37.55009
G1 X125.256 Y40.488 E37.62557
G1 X125.869 Y40.625 E37.66978
G1 X126.903 Y40.911 E37.74526
G1 X127.336 Y41.052 E37.77729
G1 X128.329 Y41.424 E37.85196
G1 X129.309 Y41.863 E37.92752
G1 X130.258 Y42.362 E38.00297
G1 X131.174 Y42.920 E38.07847
G1 X132.054 Y43.535 E38.15401
G1 X132.891 Y44.203 E38.22938
G1 X133.363 Y44.618 E38.27362
G1 X134.132 Y45.367 E38.34915
G1 X134.852 Y46.163 E38.42471
G1 X135.519 Y47.001 E38.50006
G1 X135.781 Y47.361 E38.53138
G1 X136.372 Y48.256 E38.60685
G1 X136.906 Y49.186 E38.68235
G1 X137.380 Y50.148 E38.75782
G1 X137.630 Y50.724 E38.80203
G1 X138.006 Y51.729 E38.87752
G1 X138.319 Y52.756 E38.95311
G1 X153.938 Y107.317 E42.94721
G1 X154.413 Y109.412 E43.09840
G1 X154.560 Y111.437 E43.24125
G1 X153.218 Y130.183 E44.56398
G1 X152.165 Y133.420 E44.80351
G1 X127.545 Y172.925 E48.07953
G1 X125.972 Y174.699 E48.24636
G1 X123.901 Y175.853 E48.41320
G1 X122.104 Y176.236 E48.54247
G1 X92.495 Y178.603 E50.63294
G1 X75.042 Y179.269 E51.86211
G1 X73.573 Y179.274 E51.96552
G1 X71.236 Y178.877 E52.13236
G1 X69.569 Y178.032 E52.26386
G1 X68.675 Y177.418 E52.34021
G1 X66.973 Y175.768 E52.50705
G1 X65.911 Y173.648 E52.67389
G1 X65.604 Y171.637 E52.81707
G1 X64.768 Y56.993 E60.88563
G1 X64.815 Y55.922 E60.96111
G1 X64.875 Y55.296 E61.00532
G1 X65.029 Y54.235 E61.08080
G1 X65.249 Y53.185 E61.15629
G1 X65.535 Y52.151 E61.23177
G1 X65.885 Y51.137 E61.30725
G1 X66.048 Y50.724 E61.33853
G1 X66.487 Y49.746 E61.41401
G1 X66.986 Y48.796 E61.48950
G1 X67.306 Y48.256 E61.53371
G1 X67.856 Y47.422 E61.60394
G1 X68.342 Y47.663 F7800.000
G1 X68.962 Y46.843 E61.67625 F1200.000
G1 X69.230 Y46.518 E61.70592
G1 X69.646 Y46.046 E61.75017
G1 X70.371 Y45.303 E61.82327
G1 X71.142 Y44.606 E61.89635
G1 X71.954 Y43.960 E61.96946
G1 X72.806 Y43.365 E62.04256
G1 X73.153 Y43.145 E62.07147
G1 X74.053 Y42.627 E62.14455
G1 X74.613 Y42.342 E62.18879
G1 X75.561 Y41.918 E62.26189
G1 X75.943 Y41.767 E62.29080
G1 X76.925 Y41.427 E62.36390
G1 X77.926 Y41.150 E62.43699
G1 X78.539 Y41.012 E62.48122
G1 X79.563 Y40.837 E62.55433
G1 X80.596 Y40.727 E62.62744
G1 X81.839 Y40.678 E62.71499
G1 X122.044 Y40.681 E65.54453
G1 X123.082 Y40.727 E65.61765 F1200.000
G1 X124.115 Y40.837 E65.69075
G1 X125.139 Y41.012 E65.76386
G1 X125.752 Y41.149 E65.80807
G1 X126.753 Y41.427 E65.88118
G1 X127.154 Y41.558 E65.91088
G1 X128.116 Y41.917 E65.98313
G1 X129.065 Y42.342 E66.05630
G1 X129.984 Y42.825 E66.12938
G1 X130.872 Y43.365 E66.20251
G1 X131.724 Y43.960 E66.27566
G1 X132.536 Y44.606 E66.34867
G1 X133.007 Y45.021 E66.39290
G1 X133.752 Y45.747 E66.46606
G1 X134.449 Y46.519 E66.53923
G1 X135.095 Y47.330 E66.61222
G1 X135.336 Y47.663 E66.64117
G1 X135.909 Y48.529 E66.71426
G1 X136.427 Y49.430 E66.78738
G1 X136.887 Y50.361 E66.86048
G1 X137.137 Y50.938 E66.90469
G1 X137.501 Y51.911 E66.97780
G1 X137.803 Y52.906 E67.05100
G1 X153.422 Y107.465 E71.04496
G1 X153.888 Y109.528 E71.19380
G1 X154.024 Y111.398 E71.32580
G1 X152.682 Y130.145 E72.64853
G1 X151.709 Y133.136 E72.86986
G1 X127.089 Y172.641 E76.14588
G1 X125.565 Y174.335 E76.30621
G1 X123.553 Y175.403 E76.46654
G1 X122.062 Y175.700 E76.57357
G1 X92.452 Y178.067 E78.66404
G1 X75.022 Y178.732 E79.89162
G1 X73.573 Y178.736 E79.99360
G1 X71.330 Y178.339 E80.15393
G1 X69.874 Y177.589 E80.26924
G1 X68.979 Y176.975 E80.34559
G1 X67.354 Y175.378 E80.50592
G1 X66.376 Y173.321 E80.66625
G1 X66.141 Y171.633 E80.78616
G1 X65.305 Y57.010 E88.85325
G1 X65.350 Y55.972 E88.92636
G1 X65.410 Y55.347 E88.97057
G1 X65.559 Y54.319 E89.04368
G1 X65.773 Y53.302 E89.11679
G1 X66.051 Y52.301 E89.18990
G1 X66.390 Y51.320 E89.26300
G1 X66.542 Y50.938 E89.29191
G1 X66.966 Y49.990 E89.36501
G1 X67.449 Y49.070 E89.43812
G1 X67.769 Y48.529 E89.48233
G1 X68.300 Y47.725 E89.55019
G1 E84.55019 F2760.00000
G92 E0
G1 X125.966 Y65.986 F7800.000
G1 E5.00000 F2760.00000
G1 X125.407 Y66.228 E5.04286 F1200.000
G1 X124.835 Y66.434 E5.08571
G1 X124.250 Y66.604 E5.12857
G1 X123.655 Y66.737 E5.17143
G1 X123.054 Y66.832 E5.21429
G1 X122.448 Y66.890 E5.25715
G1 X121.834 Y66.909 E5.30034
G1 X81.844 Y66.909 E8.11476
G1 X81.230 Y66.890 E8.15796
G1 X80.624 Y66.832 E8.20082
G1 X80.023 Y66.737 E8.24367
G1 X79.428 Y66.604 E8.28653
G1 X78.844 Y66.434 E8.32939
G1 X78.271 Y66.228 E8.37225
G1 X77.712 Y65.986 E8.41510
G1 X77.169 Y65.710 E8.45796
G1 X76.645 Y65.400 E8.50082
G1 X76.141 Y65.058 E8.54368
G1 X75.660 Y64.684 E8.58654
G1 X75.203 Y64.282 E8.62939
G1 X74.773 Y63.851 E8.67225
G1 X74.370 Y63.394 E8.71511
G1 X73.997 Y62.913 E8.75796
G1 X73.655 Y62.409 E8.80082
G1 X73.345 Y61.885 E8.84368
G1 X73.068 Y61.343 E8.88654
G1 X72.826 Y60.784 E8.92940
G1 X72.624 Y60.221 E8.97149
G1 X72.450 Y59.626 E9.01512
G1 X72.317 Y59.032 E9.05797
G1 X72.222 Y58.430 E9.10083
G1 X72.165 Y57.824 E9.14368
G1 X72.145 Y57.215 E9.18654
G1 X72.164 Y56.617 E9.22863
G1 X72.222 Y56.000 E9.27226
G1 X72.317 Y55.399 E9.31511
G1 X72.450 Y54.805 E9.35797
G1 X72.620 Y54.220 E9.40083
G1 X72.826 Y53.647 E9.44368
G1 X73.068 Y53.088 E9.48654
G1 X73.345 Y52.545 E9.52940
G1 X73.655 Y52.021 E9.57226
G1 X73.997 Y51.517 E9.61511
G1 X74.370 Y51.036 E9.65797
G1 X74.773 Y50.580 E9.70083
G1 X75.203 Y50.149 E9.74367
G1 X75.669 Y49.740 E9.78730
G1 X76.141 Y49.373 E9.82940
G1 X76.645 Y49.031 E9.87226
G1 X77.169 Y48.721 E9.91511
G1 X77.712 Y48.444 E9.95797
G1 X78.271 Y48.202 E10.00083
G1 X78.844 Y47.996 E10.04369
G1 X79.428 Y47.826 E10.08654
G1 X80.023 Y47.693 E10.12940
G1 X80.624 Y47.598 E10.17226
G1 X81.230 Y47.541 E10.21512
G1 X81.844 Y47.521 E10.25831
G1 X121.845 Y47.522 E13.07351
G1 X122.448 Y47.541 E13.11593 F1200.000
G1 X123.054 Y47.598 E13.15879
G1 X123.655 Y47.693 E13.20164
G1 X124.250 Y47.826 E13.24450
G1 X124.835 Y47.996 E13.28736
G1 X125.407 Y48.202 E13.33022
G1 X125.966 Y48.444 E13.37308
G1 X126.509 Y48.721 E13.41593
G1 X127.033 Y49.031 E13.45879
G1 X127.537 Y49.373 E13.50165
G1 X128.018 Y49.746 E13.54450
G1 X128.475 Y50.149 E13.58737
G1 X128.905 Y50.580 E13.63022
G1 X129.308 Y51.036 E13.67308
G1 X129.681 Y51.517 E13.71594
G1 X130.024 Y52.021 E13.75879
G1 X130.328 Y52.536 E13.80089
G1 X130.610 Y53.088 E13.84452
G1 X130.852 Y53.647 E13.88737
G1 X131.058 Y54.220 E13.93022
G1 X131.228 Y54.805 E13.97308
G1 X131.361 Y55.399 E14.01594
G1 X131.456 Y56.000 E14.05880
G1 X131.514 Y56.607 E14.10165
G1 X131.533 Y57.215 E14.14451
G1 X131.514 Y57.824 E14.18737
G1 X131.456 Y58.430 E14.23022
G1 X131.361 Y59.032 E14.27308
G1 X131.228 Y59.626 E14.31594
G1 X131.058 Y60.211 E14.35880
G1 X130.852 Y60.784 E14.40165
G1 X130.610 Y61.343 E14.44451
G1 X130.334 Y61.885 E14.48737
G1 X130.024 Y62.409 E14.53023
G1 X129.687 Y62.904 E14.57232
G1 X129.308 Y63.394 E14.61595
G1 X128.905 Y63.851 E14.65880
G1 X128.475 Y64.282 E14.70166
G1 X128.018 Y64.684 E14.74452
G1 X127.537 Y65.058 E14.78737
G1 X127.033 Y65.400 E14.83023
G1 X126.509 Y65.710 E14.87309
G1 X126.033 Y65.952 E14.91067
G1 X125.559 Y65.697 F7800.000
G1 X77.939 Y61.059 F7800.000
G1 X77.939 Y53.372 E15.45168 F1200.000
G1 X73.527 Y53.372 E15.76221
G1 X73.816 Y52.804 E15.80701
G1 X74.108 Y52.309 E15.84749
G1 X74.432 Y51.834 E15.88797
G1 X74.784 Y51.379 E15.92845
G1 X75.165 Y50.948 E15.96894
G1 X75.571 Y50.541 E16.00938
G1 X76.011 Y50.154 E16.05064
G1 X76.457 Y49.808 E16.09038
G1 X76.933 Y49.485 E16.13086
G1 X77.428 Y49.192 E16.17134
G1 X77.941 Y48.931 E16.21182
G1 X78.469 Y48.702 E16.25230
G1 X79.010 Y48.507 E16.29278
G1 X79.562 Y48.347 E16.33326
G1 X80.123 Y48.221 E16.37374
G1 X80.692 Y48.131 E16.41422
G1 X81.264 Y48.077 E16.45470
G1 X81.852 Y48.059 E16.49611
G1 X121.837 Y48.059 E19.31012
G1 X122.414 Y48.077 E19.35076
G1 X122.987 Y48.131 E19.39124
G1 X123.555 Y48.221 E19.43172
G1 X124.116 Y48.347 E19.47220
G1 X124.668 Y48.507 E19.51268
G1 X125.210 Y48.702 E19.55316
G1 X125.737 Y48.931 E19.59364
G1 X126.250 Y49.192 E19.63412
G1 X126.745 Y49.485 E19.67461
G1 X127.221 Y49.808 E19.71508
G1 X127.675 Y50.160 E19.75556
G1 X128.107 Y50.541 E19.79605
G1 X128.513 Y50.948 E19.83652
G1 X128.894 Y51.379 E19.87700
G1 X129.246 Y51.834 E19.91749
G1 X129.570 Y52.309 E19.95797
G1 X129.857 Y52.795 E19.99771
G1 X130.124 Y53.317 E20.03896
G1 X130.352 Y53.845 E20.07941
G1 X130.547 Y54.386 E20.11988
G1 X130.707 Y54.938 E20.16037
G1 X130.833 Y55.500 E20.20085
G1 X130.923 Y56.068 E20.24133
G1 X130.977 Y56.640 E20.28181
G1 X130.995 Y57.215 E20.32229
G1 X130.977 Y57.790 E20.36277
G1 X130.923 Y58.363 E20.40325
G1 X130.833 Y58.931 E20.44373
G1 X130.707 Y59.492 E20.48421
G1 X130.547 Y60.045 E20.52469
G1 X130.352 Y60.586 E20.56517
G1 X130.124 Y61.114 E20.60565
G1 X129.863 Y61.626 E20.64613
G1 X129.570 Y62.121 E20.68662
G1 X129.252 Y62.588 E20.72635
G1 X128.894 Y63.052 E20.76760
G1 X128.513 Y63.483 E20.80806
G1 X128.107 Y63.890 E20.84853
G1 X127.675 Y64.270 E20.88902
G1 X127.221 Y64.623 E20.92950
G1 X126.745 Y64.946 E20.96997
G1 X126.250 Y65.239 E21.01046
G1 X125.737 Y65.500 E21.05094
G1 X125.210 Y65.728 E21.09142
G1 X124.668 Y65.923 E21.13189
G1 X124.116 Y66.083 E21.17238
G1 X123.555 Y66.209 E21.21286
G1 X122.987 Y66.299 E21.25334
G1 X122.414 Y66.353 E21.29382
G1 X121.826 Y66.372 E21.33523
G1 X81.852 Y66.372 E24.14847
G1 X81.264 Y66.353 E24.18988
G1 X80.692 Y66.299 E24.23036
G1 X80.123 Y66.209 E24.27084
G1 X79.562 Y66.083 E24.31132
G1 X79.010 Y65.923 E24.35180
G1 X78.469 Y65.728 E24.39228
G1 X77.941 Y65.500 E24.43276
G1 X77.428 Y65.239 E24.47324
G1 X76.933 Y64.946 E24.51372
G1 X76.457 Y64.623 E24.55420
G1 X76.003 Y64.270 E24.59469
G1 X75.571 Y63.890 E24.63517
G1 X75.165 Y63.483 E24.67564
G1 X74.784 Y63.051 E24.71613
G1 X74.432 Y62.597 E24.75661
G1 X74.108 Y62.121 E24.79708
G1 X73.816 Y61.626 E24.83757
G1 X73.527 Y61.059 E24.88237
G1 X77.864 Y61.059 E25.18762
G1 X78.476 Y61.596 F7800.000
G1 X78.476 Y52.834 E25.80428 F1200.000
G1 X74.401 Y52.834 E26.09106
G1 X74.867 Y52.150 E26.14932
G1 X75.199 Y51.722 E26.18742
G1 X75.557 Y51.316 E26.22552
G1 X75.939 Y50.933 E26.26357
G1 X76.354 Y50.568 E26.30245
G1 X76.773 Y50.243 E26.33983
G1 X77.221 Y49.939 E26.37794
G1 X77.687 Y49.663 E26.41604
G1 X78.170 Y49.417 E26.45414
G1 X78.666 Y49.202 E26.49225
G1 X79.176 Y49.019 E26.53035
G1 X79.696 Y48.868 E26.56845
G1 X80.224 Y48.750 E26.60656
G1 X80.759 Y48.665 E26.64466
G1 X81.298 Y48.614 E26.68276
G1 X81.861 Y48.596 E26.72239
G1 X121.828 Y48.597 E29.53521
G1 X122.380 Y48.614 E29.57407
G1 X122.919 Y48.665 E29.61217
G1 X123.454 Y48.750 E29.65028
G1 X123.982 Y48.868 E29.68838
G1 X124.502 Y49.019 E29.72648
G1 X125.012 Y49.202 E29.76458
G1 X125.509 Y49.417 E29.80269
G1 X125.991 Y49.663 E29.84079
G1 X126.457 Y49.939 E29.87890
G1 X126.905 Y50.243 E29.91700
G1 X127.333 Y50.575 E29.95510
G1 X127.739 Y50.933 E29.99321
G1 X128.122 Y51.316 E30.03131
G1 X128.480 Y51.722 E30.06941
G1 X128.811 Y52.150 E30.10752
G1 X129.116 Y52.597 E30.14562
G1 X129.386 Y53.055 E30.18300
G1 X129.637 Y53.546 E30.22188
G1 X129.852 Y54.043 E30.25993
G1 X130.036 Y54.552 E30.29803
G1 X130.187 Y55.072 E30.33613
G1 X130.305 Y55.600 E30.37424
G1 X130.389 Y56.135 E30.41234
G1 X130.440 Y56.674 E30.45045
G1 X130.457 Y57.215 E30.48855
G1 X130.440 Y57.756 E30.52665
G1 X130.389 Y58.295 E30.56475
G1 X130.305 Y58.830 E30.60286
G1 X130.187 Y59.359 E30.64096
G1 X130.036 Y59.879 E30.67907
G1 X129.852 Y60.388 E30.71716
G1 X129.637 Y60.885 E30.75527
G1 X129.391 Y61.367 E30.79337
G1 X129.116 Y61.833 E30.83148
G1 X128.817 Y62.272 E30.86886
G1 X128.479 Y62.709 E30.90774
G1 X128.121 Y63.115 E30.94580
G1 X127.739 Y63.498 E30.98388
G1 X127.333 Y63.856 E31.02200
G1 X126.905 Y64.188 E31.06010
G1 X126.457 Y64.492 E31.09820
G1 X125.991 Y64.768 E31.13631
G1 X125.509 Y65.013 E31.17441
G1 X125.012 Y65.228 E31.21252
G1 X124.502 Y65.412 E31.25061
G1 X123.982 Y65.563 E31.28872
G1 X123.454 Y65.681 E31.32682
G1 X122.919 Y65.766 E31.36493
G1 X122.380 Y65.817 E31.40303
G1 X121.817 Y65.834 E31.44266
G1 X81.861 Y65.834 E34.25471
G1 X81.298 Y65.817 E34.29433
G1 X80.759 Y65.766 E34.33244
G1 X80.224 Y65.681 E34.37054
G1 X79.696 Y65.563 E34.40865
G1 X79.176 Y65.412 E34.44675
G1 X78.666 Y65.228 E34.48485
G1 X78.170 Y65.013 E34.52296
G1 X77.687 Y64.768 E34.56106
G1 X77.221 Y64.492 E34.59916
G1 X76.773 Y64.188 E34.63726
G1 X76.346 Y63.856 E34.67537
G1 X75.939 Y63.498 E34.71348
G1 X75.557 Y63.115 E34.75157
G1 X75.199 Y62.709 E34.78968
G1 X74.867 Y62.281 E34.82778
G1 X74.401 Y61.596 E34.88604
G1 X78.401 Y61.596 E35.16755
G1 E30.16755 F2760.00000
G92 E0
G1 X122.750 Y57.411 F7800.000
G1 E5.00000 F2760.00000
G1 X122.731 Y57.215 E5.01384 F1200.000
G1 X122.787 Y56.633 E5.05501
G1 X122.950 Y56.071 E5.09617
G1 X123.215 Y55.550 E5.13734
G1 X123.574 Y55.088 E5.17850
G1 X124.012 Y54.701 E5.21966
G1 X124.516 Y54.403 E5.26083
G1 X125.062 Y54.207 E5.30165
G1 X125.450 Y54.133 E5.32945
