; generated by Slic3r 1.2.9 on 2017-08-15 at 19:16:17

; external perimeters extrusion width = 0.50mm
; perimeters extrusion width = 0.38mm
; infill extrusion width = 0.72mm
; solid infill extrusion width = 0.72mm
; top infill extrusion width = 0.72mm
; support material extrusion width = 0.50mm

M107
M190 S60 ; set bed temperature
M104 S210 ; set temperature
G28 X0 Y0
G28 Z0
G1 Z0.3 F200
G1 X15 Y20 F12000
M109 S210 ; wait for temperature to be reached
G21 ; set units to millimeters
G90 ; use absolute coordinates
M82 ; use absolute distances for extrusion
G92 E0
G1 E-5.00000 F2760.00000
G92 E0
G1 Z0.350 F7800.000
G1 X69.720 Y82.705 F7800.000
G1 E5.00000 F2760.00000
G1 X71.950 Y81.669 E5.17310 F1200.000
G1 X74.000 Y81.388 E5.31871
G1 X144.000 Y81.388 E10.24513
G1 X146.427 Y81.785 E10.41823
G1 X148.601 Y82.936 E10.59134 F1200.000
G1 X150.295 Y84.720 E10.76444
G1 X151.331 Y86.950 E10.93754
G1 X151.612 Y89.000 E11.08315
G1 X151.612 Y129.000 E13.89825
G1 X151.215 Y131.427 E14.07135
G1 X150.064 Y133.601 E14.24445
G1 X148.280 Y135.295 E14.41755
G1 X146.050 Y136.331 E14.59065
G1 X144.000 Y136.612 E14.73626
G1 X74.000 Y136.612 E19.66268
G1 X71.573 Y136.215 E19.83579
G1 X69.399 Y135.064 E20.00889
G1 X67.705 Y133.280 E20.18199
G1 X66.669 Y131.050 E20.35509
G1 X66.388 Y129.000 E20.50070
G1 X66.388 Y89.000 E23.31580
G1 X66.785 Y86.573 E23.48890
G1 X67.936 Y84.399 E23.66200
G1 X69.665 Y82.757 E23.82983
G1 X70.100 Y83.131 F7800.000
G1 X70.237 Y83.009 E23.84276 F1200.000
G1 X72.428 Y82.102 E24.00960
G1 X74.000 Y81.925 E24.12096
G1 X144.000 Y81.925 E29.04738
G1 X146.337 Y82.322 E29.21422
G1 X148.412 Y83.469 E29.38106 F1200.000
G1 X149.991 Y85.237 E29.54790
G1 X150.898 Y87.428 E29.71473
G1 X151.075 Y89.000 E29.82609
G1 X151.075 Y129.000 E32.64119
G1 X150.678 Y131.337 E32.80803
G1 X149.531 Y133.412 E32.97487
G1 X147.763 Y134.991 E33.14171
G1 X145.572 Y135.898 E33.30854
G1 X144.000 Y136.075 E33.41990
G1 X74.000 Y136.075 E38.34633
G1 X71.663 Y135.678 E38.51316
G1 X69.588 Y134.531 E38.68000
G1 X68.009 Y132.763 E38.84684
G1 X67.102 Y130.572 E39.01368
G1 X66.925 Y129.000 E39.12504
G1 X66.925 Y89.000 E41.94014
G1 X67.322 Y86.663 E42.10698
G1 X68.469 Y84.588 E42.27381
G1 X70.044 Y83.181 E42.42244
G1 X70.464 Y83.567 F7800.000
G1 X70.752 Y83.327 E42.44884 F1200.000
G1 X74.000 Y82.463 E42.68540
G1 X144.000 Y82.463 E47.61182
G1 X146.243 Y82.860 E47.77215
G1 X148.214 Y84.002 E47.93248 F1200.000
G1 X149.673 Y85.752 E48.09281
G1 X150.537 Y89.000 E48.32937
G1 X150.537 Y129.000 E51.14447
G1 X150.140 Y131.243 E51.30480
G1 X148.998 Y133.214 E51.46513
G1 X147.248 Y134.673 E51.62546
G1 X144.000 Y135.537 E51.86201
G1 X74.000 Y135.537 E56.78844
G1 X71.757 Y135.140 E56.94877
G1 X69.786 Y133.998 E57.10910
G1 X68.327 Y132.248 E57.26943
G1 X67.463 Y129.000 E57.50598
G1 X67.463 Y89.000 E60.32108
G1 X67.860 Y86.757 E60.48141
G1 X69.002 Y84.786 E60.64174
G1 X70.406 Y83.615 E60.77039
G1 E55.77039 F2760.00000
G92 E0
G1 X143.694 Y128.694 F7800.000
G1 E5.00000 F2760.00000
G1 X74.306 Y128.694 E9.88332 F1200.000
G1 X74.306 Y89.306 E12.65531
G1 X143.694 Y89.306 E17.53863
G1 X143.694 Y98.194 E18.16411
G1 X128.995 Y98.194 E19.19855
G1 X128.321 Y98.215 E19.24599
G1 X127.646 Y98.279 E19.29377
G1 X126.975 Y98.385 E19.34155
G1 X126.313 Y98.533 E19.38932
G1 X125.661 Y98.722 E19.43710
G1 X125.022 Y98.952 E19.48488
G1 X124.399 Y99.222 E19.53267
G1 X123.784 Y99.536 E19.58126
G1 X123.210 Y99.876 E19.62821
G1 X122.648 Y100.257 E19.67598
G1 X122.112 Y100.674 E19.72377
G1 X121.603 Y101.122 E19.77154
G1 X121.122 Y101.603 E19.81932
G1 X120.674 Y102.112 E19.86710
G1 X120.257 Y102.648 E19.91488
G1 X119.876 Y103.210 E19.96265
G1 X119.530 Y103.794 E20.01043
G1 X119.227 Y104.388 E20.05738
G1 X118.952 Y105.022 E20.10597
G1 X118.722 Y105.661 E20.15376
G1 X118.533 Y106.313 E20.20154
G1 X118.385 Y106.975 E20.24932
G1 X118.281 Y107.634 E20.29627
G1 X118.215 Y108.321 E20.34486
G1 X118.194 Y109.000 E20.39265
G1 X118.215 Y109.679 E20.44042
G1 X118.279 Y110.354 E20.48820
G1 X118.385 Y111.025 E20.53598
G1 X118.533 Y111.687 E20.58375
G1 X118.722 Y112.339 E20.63153
G1 X118.952 Y112.978 E20.67931
G1 X119.222 Y113.601 E20.72709
G1 X119.530 Y114.206 E20.77487
G1 X119.876 Y114.790 E20.82265
G1 X120.251 Y115.342 E20.86959
G1 X120.673 Y115.888 E20.91819
G1 X121.122 Y116.397 E20.96597
G1 X121.603 Y116.878 E21.01376
G1 X122.112 Y117.326 E21.06153
G1 X122.648 Y117.743 E21.10931
G1 X123.210 Y118.124 E21.15708
G1 X123.794 Y118.470 E21.20486
G1 X124.399 Y118.778 E21.25264
G1 X125.022 Y119.048 E21.30042
G1 X125.661 Y119.278 E21.34819
G1 X126.313 Y119.467 E21.39598
G1 X126.975 Y119.615 E21.44375
G1 X127.646 Y119.721 E21.49153
G1 X128.321 Y119.785 E21.53930
G1 X128.995 Y119.806 E21.58674
G1 X143.694 Y119.806 E22.62119
G1 X143.694 Y128.619 E23.24139
G1 X143.261 Y128.444 F7800.000
G1 E18.24139 F2760.00000
G92 E0
G1 X130.132 Y96.905 F7800.000
G1 E5.00000 F2760.00000
G1 X129.665 Y97.072 E5.03487 F1200.000
G1 X129.333 Y97.136 E5.05869
G1 X129.000 Y97.157 E5.08217
G1 X128.667 Y97.136 E5.10565
G1 X128.335 Y97.072 E5.12947
G1 X127.868 Y96.905 E5.16433
G1 X127.438 Y96.650 E5.19954
G1 X127.063 Y96.319 E5.23474
G1 X126.756 Y95.924 E5.26994
G1 X126.529 Y95.478 E5.30515
G1 X126.389 Y94.998 E5.34035
G1 X126.342 Y94.500 E5.37555
G1 X126.389 Y94.002 E5.41076
G1 X126.529 Y93.522 E5.44596
G1 X126.756 Y93.076 E5.48116
G1 X127.063 Y92.681 E5.51637
G1 X127.438 Y92.350 E5.55157
G1 X127.868 Y92.095 E5.58677
G1 X128.335 Y91.928 E5.62164
G1 X128.667 Y91.864 E5.64546
G1 X129.002 Y91.843 E5.66909 F1200.000
G1 X129.498 Y91.889 E5.70413
G1 X129.978 Y92.029 E5.73934
G1 X130.424 Y92.256 E5.77455
G1 X130.815 Y92.560 E5.80941
G1 X131.047 Y92.806 E5.83323
G1 X131.246 Y93.080 E5.85705
G1 X131.471 Y93.522 E5.89192
G1 X131.611 Y94.002 E5.92712
G1 X131.658 Y94.500 E5.96232
G1 X131.611 Y94.998 E5.99753
G1 X131.471 Y95.478 E6.03273
G1 X131.244 Y95.924 E6.06793
G1 X130.937 Y96.319 E6.10314
G1 X130.562 Y96.650 E6.13834
G1 X130.196 Y96.867 E6.16827
G1 X130.075 Y97.397 F7800.000
G1 X130.383 Y97.656 F7800.000
G1 X130.318 Y97.419 E6.18558 F1200.000
G1 X130.879 Y97.087 E6.23152
G1 X131.331 Y96.689 E6.27387
G1 X131.700 Y96.213 E6.31623
G1 X131.973 Y95.677 E6.35858
G1 X132.141 Y95.099 E6.40094
G1 X132.197 Y94.500 E6.44329
G1 X132.141 Y93.901 E6.48564
G1 X131.973 Y93.323 E6.52799
G1 X131.706 Y92.799 E6.56941
G1 X131.462 Y92.463 E6.59859
G1 X131.178 Y92.161 E6.62776
G1 X130.713 Y91.800 E6.66918
G1 X130.177 Y91.527 E6.71153
G1 X129.599 Y91.359 E6.75391
G1 X129.010 Y91.304 E6.79551
G1 X128.599 Y91.330 E6.82448
G1 X128.192 Y91.408 E6.85365
G1 X127.639 Y91.607 E6.89507
G1 X127.121 Y91.913 E6.93742
G1 X126.669 Y92.311 E6.97977
G1 X126.300 Y92.787 E7.02213
G1 X126.027 Y93.323 E7.06448
G1 X125.859 Y93.901 E7.10684
G1 X125.803 Y94.500 E7.14919
G1 X125.859 Y95.099 E7.19154
G1 X126.027 Y95.677 E7.23389
G1 X126.300 Y96.213 E7.27625
G1 X126.669 Y96.689 E7.31860
G1 X127.121 Y97.087 E7.36096
G1 X127.639 Y97.393 E7.40331
G1 X127.844 Y97.467 E7.41868
G1 X127.812 Y97.723 E7.43686
G1 X126.874 Y97.857 E7.50349
G1 X126.179 Y98.012 E7.55364
G1 X125.495 Y98.211 E7.60380
G1 X124.824 Y98.453 E7.65395
G1 X124.169 Y98.736 E7.70414
G1 X123.525 Y99.065 E7.75511
G1 X122.922 Y99.422 E7.80442
G1 X122.332 Y99.822 E7.85456
G1 X121.769 Y100.259 E7.90473
G1 X121.234 Y100.731 E7.95488
G1 X120.731 Y101.234 E8.00503
G1 X120.259 Y101.769 E8.05519
G1 X119.822 Y102.332 E8.10535
G1 X119.422 Y102.922 E8.15549
G1 X119.059 Y103.535 E8.20565
G1 X118.741 Y104.159 E8.25496
G1 X118.453 Y104.824 E8.30593
G1 X118.211 Y105.495 E8.35612
G1 X118.012 Y106.179 E8.40627
G1 X117.857 Y106.874 E8.45642
G1 X117.747 Y107.566 E8.50573
G1 X117.678 Y108.287 E8.55670
G1 X117.656 Y109.000 E8.60688
G1 X117.678 Y109.712 E8.65704
G1 X117.745 Y110.422 E8.70720
G1 X117.857 Y111.126 E8.75735
G1 X118.012 Y111.821 E8.80750
G1 X118.211 Y112.505 E8.85765
G1 X118.453 Y113.176 E8.90781
G1 X118.736 Y113.830 E8.95797
G1 X119.059 Y114.465 E9.00812
G1 X119.422 Y115.078 E9.05828
G1 X119.816 Y115.658 E9.10758
G1 X120.259 Y116.231 E9.15855
G1 X120.731 Y116.766 E9.20874
G1 X121.234 Y117.269 E9.25889
G1 X121.769 Y117.741 E9.30904
G1 X122.332 Y118.178 E9.35921
G1 X122.922 Y118.578 E9.40935
G1 X123.535 Y118.941 E9.45951
G1 X124.170 Y119.264 E9.50966
G1 X124.824 Y119.547 E9.55982
G1 X125.495 Y119.789 E9.60998
G1 X126.179 Y119.988 E9.66013
G1 X126.874 Y120.143 E9.71028
G1 X127.812 Y120.277 E9.77692
G1 X127.844 Y120.533 E9.79510
G1 X127.639 Y120.607 E9.81047
G1 X127.121 Y120.913 E9.85282
G1 X126.669 Y121.311 E9.89518
G1 X126.300 Y121.787 E9.93753
G1 X126.027 Y122.323 E9.97989
G1 X125.859 Y122.901 E10.02224
G1 X125.803 Y123.500 E10.06459
G1 X125.859 Y124.099 E10.10694
G1 X126.027 Y124.677 E10.14930
G1 X126.300 Y125.213 E10.19165
G1 X126.661 Y125.678 E10.23307
G1 X126.963 Y125.962 E10.26225
G1 X127.299 Y126.206 E10.29142
G1 X127.823 Y126.473 E10.33284
G1 X128.401 Y126.641 E10.37520
G1 X129.000 Y126.697 E10.41754
G1 X129.599 Y126.641 E10.45989
G1 X130.177 Y126.473 E10.50225
G1 X130.713 Y126.200 E10.54460
G1 X131.178 Y125.839 E10.58602
G1 X131.462 Y125.537 E10.61520
G1 X131.706 Y125.201 E10.64437
G1 X131.973 Y124.677 E10.68579
G1 X132.141 Y124.099 E10.72815
G1 X132.197 Y123.500 E10.77050
G1 X132.141 Y122.901 E10.81284
G1 X131.973 Y122.323 E10.85520
G1 X131.706 Y121.799 E10.89662
G1 X131.462 Y121.463 E10.92579
G1 X131.178 Y121.161 E10.95497
G1 X130.713 Y120.800 E10.99639
G1 X130.302 Y120.591 E11.02887
G1 X130.361 Y120.344 E11.04676
G1 X143.156 Y120.344 E11.94723
G1 X143.156 Y128.156 E12.49707
G1 X74.844 Y128.156 E17.30475
G1 X74.844 Y89.844 E20.00110
G1 X143.156 Y89.844 E24.80878
G1 X143.156 Y97.656 E25.35862
G1 X130.458 Y97.656 E26.25233
G1 X131.677 Y97.119 F7800.000
G1 X132.155 Y96.502 E26.30724 F1200.000
G1 X132.475 Y95.876 E26.35674
G1 X132.671 Y95.200 E26.40625
G1 X132.737 Y94.500 E26.45575
G1 X132.671 Y93.800 E26.50525
G1 X132.475 Y93.124 E26.55476
G1 X132.165 Y92.517 E26.60272
G1 X131.877 Y92.120 E26.63726
G1 X131.541 Y91.762 E26.67179
G1 X131.002 Y91.345 E26.71976
G1 X130.376 Y91.025 E26.76926
G1 X129.700 Y90.829 E26.81880
G1 X129.018 Y90.765 E26.86696
G1 X128.532 Y90.796 E26.90127
G1 X128.050 Y90.888 E26.93579
G1 X127.409 Y91.118 E26.98376
G1 X126.803 Y91.477 E27.03326
G1 X126.276 Y91.942 E27.08277
G1 X125.845 Y92.498 E27.13227
G1 X125.525 Y93.124 E27.18178
G1 X125.329 Y93.800 E27.23128
G1 X125.263 Y94.500 E27.28078
G1 X125.329 Y95.200 E27.33028
G1 X125.525 Y95.876 E27.37979
G1 X125.845 Y96.502 E27.42929
G1 X126.276 Y97.058 E27.47880
G1 X126.621 Y97.363 E27.51121
G1 X126.045 Y97.492 E27.55274
G1 X125.328 Y97.700 E27.60527
G1 X124.626 Y97.953 E27.65781
G1 X123.940 Y98.249 E27.71040
G1 X123.265 Y98.594 E27.76374
G1 X122.633 Y98.968 E27.81540
G1 X122.016 Y99.387 E27.86792
G1 X121.426 Y99.845 E27.92047
G1 X120.866 Y100.339 E27.97300
G1 X120.339 Y100.866 E28.02553
G1 X119.845 Y101.426 E28.07806
G1 X119.387 Y102.016 E28.13060
G1 X118.968 Y102.633 E28.18312
G1 X118.588 Y103.276 E28.23565
G1 X118.255 Y103.930 E28.28732
G1 X117.953 Y104.625 E28.34067
G1 X117.700 Y105.328 E28.39325
G1 X117.492 Y106.045 E28.44578
G1 X117.329 Y106.774 E28.49831
G1 X117.214 Y107.499 E28.54998
G1 X117.142 Y108.253 E28.60332
G1 X117.118 Y109.000 E28.65590
G1 X117.142 Y109.746 E28.70844
G1 X117.212 Y110.489 E28.76097
G1 X117.329 Y111.226 E28.81350
G1 X117.492 Y111.955 E28.86603
G1 X117.700 Y112.672 E28.91856
G1 X117.953 Y113.374 E28.97109
G1 X118.249 Y114.059 E29.02363
G1 X118.588 Y114.724 E29.07616
G1 X118.968 Y115.367 E29.12869
G1 X119.381 Y115.974 E29.18035
G1 X119.844 Y116.573 E29.23370
G1 X120.339 Y117.134 E29.28628
G1 X120.866 Y117.661 E29.33881
G1 X121.426 Y118.155 E29.39134
G1 X122.016 Y118.613 E29.44389
G1 X122.633 Y119.032 E29.49641
G1 X123.276 Y119.412 E29.54894
G1 X123.941 Y119.751 E29.60147
G1 X124.626 Y120.047 E29.65401
G1 X125.328 Y120.300 E29.70654
G1 X126.045 Y120.508 E29.75907
G1 X126.621 Y120.637 E29.80061
G1 X126.276 Y120.942 E29.83302
G1 X125.845 Y121.498 E29.88252
G1 X125.525 Y122.124 E29.93203
G1 X125.329 Y122.800 E29.98154
G1 X125.263 Y123.500 E30.03103
G1 X125.329 Y124.200 E30.08053
G1 X125.525 Y124.876 E30.13004
G1 X125.845 Y125.502 E30.17954
G1 X126.262 Y126.041 E30.22752
G1 X126.620 Y126.377 E30.26205
G1 X127.017 Y126.665 E30.29657
G1 X127.624 Y126.975 E30.34454
G1 X128.300 Y127.171 E30.39405
G1 X129.000 Y127.237 E30.44355
G1 X129.700 Y127.171 E30.49305
G1 X130.376 Y126.975 E30.54255
G1 X131.002 Y126.655 E30.59206
G1 X131.541 Y126.238 E30.64004
G1 X131.877 Y125.880 E30.67456
G1 X132.165 Y125.483 E30.70909
G1 X132.475 Y124.876 E30.75706
G1 X132.671 Y124.200 E30.80657
G1 X132.737 Y123.500 E30.85607
G1 X132.671 Y122.800 E30.90556
G1 X132.475 Y122.124 E30.95507
G1 X132.165 Y121.517 E31.00305
G1 X131.703 Y120.881 E31.05837
G1 X142.619 Y120.881 E31.82660
G1 X142.619 Y127.619 E32.30080
G1 X75.381 Y127.619 E37.03283
G1 X75.381 Y90.381 E39.65355
G1 X142.619 Y90.381 E44.38558
G1 X142.619 Y97.119 E44.85978
G1 X131.752 Y97.119 E45.62456
G1 X107.108 Y99.000 F7800.000
G1 X107.053 Y99.582 E45.66572 F1200.000
G1 X106.889 Y100.144 E45.70689
G1 X106.624 Y100.663 E45.74791
G1 X106.394 Y100.980 E45.77551
G1 X106.123 Y101.268 E45.80330
G1 X105.665 Y101.624 E45.84413
G1 X105.144 Y101.889 E45.88529
G1 X104.582 Y102.053 E45.92645
G1 X104.000 Y102.108 E45.96762
G1 X103.418 Y102.053 E46.00878
G1 X102.856 Y101.889 E46.04995
G1 X102.335 Y101.624 E46.09112
G1 X101.875 Y101.266 E46.13213
G1 X101.606 Y100.980 E46.15973
G1 X101.374 Y100.661 E46.18753
G1 X101.111 Y100.144 E46.22836
G1 X100.947 Y99.582 E46.26951
G1 X100.892 Y99.000 E46.31068
G1 X100.947 Y98.418 E46.35184
G1 X101.111 Y97.856 E46.39301
G1 X101.376 Y97.335 E46.43418
G1 X101.735 Y96.873 E46.47534
G1 X102.173 Y96.486 E46.51650
G1 X102.677 Y96.188 E46.55766
G1 X103.223 Y95.992 E46.59849
G1 X103.611 Y95.918 E46.62629
G1 X104.002 Y95.893 E46.65388 F1200.000
G1 X104.582 Y95.947 E46.69490
G1 X105.144 Y96.111 E46.73607
G1 X105.665 Y96.376 E46.77723
G1 X106.123 Y96.732 E46.81806
G1 X106.394 Y97.020 E46.84585
G1 X106.626 Y97.339 E46.87365
G1 X106.889 Y97.856 E46.91448
G1 X107.053 Y98.418 E46.95564
G1 X107.101 Y98.925 E46.99153
G1 X107.533 Y99.263 F7800.000
G1 X107.643 Y99.051 F7800.000
G1 X107.583 Y99.683 E47.03627 F1200.000
G1 X107.391 Y100.343 E47.08460
G1 X107.084 Y100.945 E47.13218
G1 X106.809 Y101.324 E47.16512
G1 X106.486 Y101.667 E47.19827
G1 X105.954 Y102.080 E47.24564
G1 X105.343 Y102.391 E47.29396
G1 X104.683 Y102.583 E47.34227
G1 X104.000 Y102.647 E47.39058
G1 X103.317 Y102.583 E47.43890
G1 X102.657 Y102.391 E47.48722
G1 X102.045 Y102.079 E47.53555
G1 X101.512 Y101.665 E47.58312
G1 X101.191 Y101.324 E47.61606
G1 X100.914 Y100.942 E47.64921
G1 X100.609 Y100.343 E47.69658
G1 X100.417 Y99.683 E47.74489
G1 X100.353 Y99.000 E47.79321
G1 X100.417 Y98.317 E47.84152
G1 X100.609 Y97.657 E47.88984
G1 X100.920 Y97.046 E47.93816
G1 X101.341 Y96.503 E47.98647
G1 X101.856 Y96.049 E48.03478
G1 X102.447 Y95.700 E48.08310
G1 X103.080 Y95.472 E48.13047
G1 X103.543 Y95.383 E48.16362
G1 X104.010 Y95.354 E48.19656 F1200.000
G1 X104.683 Y95.417 E48.24414
G1 X105.343 Y95.609 E48.29246
G1 X105.954 Y95.920 E48.34078
G1 X106.486 Y96.333 E48.38816
G1 X106.809 Y96.676 E48.42131
G1 X107.086 Y97.057 E48.45446
G1 X107.391 Y97.657 E48.50184
G1 X107.583 Y98.317 E48.55016
G1 X107.645 Y98.976 E48.59676
G1 X108.178 Y99.101 F7800.000
G1 X108.113 Y99.785 E48.64508 F1200.000
G1 X107.893 Y100.542 E48.70057
G1 X107.543 Y101.227 E48.75471
G1 X107.223 Y101.667 E48.79300
G1 X106.849 Y102.066 E48.83149
G1 X106.244 Y102.535 E48.88541
G1 X105.541 Y102.893 E48.94088
G1 X104.785 Y103.113 E48.99634
G1 X104.000 Y103.187 E49.05181
G1 X103.215 Y103.113 E49.10727
G1 X102.458 Y102.893 E49.16274
G1 X101.756 Y102.535 E49.21824
G1 X101.149 Y102.063 E49.27236
G1 X100.776 Y101.667 E49.31064
G1 X100.455 Y101.224 E49.34914
G1 X100.107 Y100.541 E49.40308
G1 X99.887 Y99.785 E49.45854
G1 X99.813 Y99.000 E49.51400
G1 X99.887 Y98.215 E49.56946
G1 X100.107 Y97.459 E49.62493
G1 X100.465 Y96.756 E49.68040
G1 X100.948 Y96.134 E49.73586
G1 X101.539 Y95.613 E49.79132
G1 X102.217 Y95.211 E49.84679
G1 X102.938 Y94.952 E49.90072
G1 X103.475 Y94.849 E49.93921
