; generated by Slic3r 1.2.9 on 2017-08-15 at 14:02:59

; external perimeters extrusion width = 0.50mm
; perimeters extrusion width = 0.38mm
; infill extrusion width = 0.72mm
; solid infill extrusion width = 0.72mm
; top infill extrusion width = 0.72mm
; support material extrusion width = 0.50mm

M107
M190 S60 ; set bed temperature
M104 S210 ; set temperature
G28 X0 Y0
G28 Z0
G1 Z0.3 F200
G1 X15 Y20 F12000
M109 S210 ; wait for temperature to be reached
G21 ; set units to millimeters
G90 ; use absolute coordinates
M82 ; use absolute distances for extrusion
G92 E0
G1 E-5.00000 F2760.00000
G92 E0
G1 Z0.350 F7800.000
G1 X47.720 Y70.205 F7800.000
G1 E5.00000 F2760.00000
G1 X50.668 Y69.005 E5.22405 F1200.000
G1 X58.626 Y67.591 E5.79289
G1 X59.958 Y67.474 E5.88699
G1 X84.134 Y67.475 E7.58840
G1 X166.131 Y68.889 E13.36004 F1200.000
G1 X168.551 Y69.328 E13.53314
G1 X170.705 Y70.516 E13.70624
G1 X172.368 Y72.329 E13.87934
G1 X173.365 Y74.577 E14.05244
G1 X173.612 Y76.500 E14.18889
G1 X173.612 Y141.500 E18.76343
G1 X173.215 Y143.927 E18.93653
G1 X172.064 Y146.101 E19.10963
G1 X170.280 Y147.795 E19.28274
G1 X168.050 Y148.831 E19.45584
G1 X166.000 Y149.112 E19.60145
G1 X92.000 Y149.112 E24.80938
G1 X89.573 Y148.715 E24.98248
G1 X87.989 Y147.970 E25.10567
G1 X47.989 Y123.170 E28.41793
G1 X46.135 Y121.553 E28.59103
G1 X44.894 Y119.429 E28.76413
G1 X44.388 Y116.700 E28.95950
G1 X44.388 Y76.500 E31.78867
G1 X44.785 Y74.073 E31.96177
G1 X45.936 Y71.899 E32.13487
G1 X47.665 Y70.257 E32.30270
G1 X48.100 Y70.631 F7800.000
G1 X48.237 Y70.509 E32.31563 F1200.000
G1 X50.762 Y69.534 E32.50611
G1 X58.720 Y68.120 E33.07496
G1 X59.958 Y68.011 E33.16241
G1 X84.125 Y68.012 E34.86317
G1 X166.122 Y69.426 E40.63481 F1200.000
G1 X168.452 Y69.864 E40.80165
G1 X170.507 Y71.046 E40.96849
G1 X172.055 Y72.841 E41.13532
G1 X172.924 Y75.047 E41.30216
G1 X173.075 Y76.500 E41.40498
G1 X173.075 Y141.500 E45.97952
G1 X172.678 Y143.837 E46.14636
G1 X171.531 Y145.912 E46.31320
G1 X169.763 Y147.491 E46.48003
G1 X167.572 Y148.398 E46.64687
G1 X166.000 Y148.575 E46.75823
G1 X92.000 Y148.575 E51.96616
G1 X89.663 Y148.178 E52.13300
G1 X88.272 Y147.513 E52.24149
G1 X48.272 Y122.713 E55.55375
G1 X46.495 Y121.144 E55.72059
G1 X45.336 Y119.076 E55.88743
G1 X44.925 Y116.700 E56.05711
G1 X44.925 Y76.500 E58.88629
G1 X45.322 Y74.163 E59.05313
G1 X46.469 Y72.088 E59.21996
G1 X48.044 Y70.681 E59.36859
G1 X48.464 Y71.067 F7800.000
G1 X48.752 Y70.827 E59.39499 F1200.000
G1 X50.856 Y70.063 E59.55255
G1 X58.814 Y68.649 E60.12140
G1 X59.958 Y68.548 E60.20220
G1 X84.115 Y68.549 E61.90232
G1 X166.113 Y69.964 E67.67395 F1200.000
G1 X168.349 Y70.399 E67.83428
G1 X170.300 Y71.576 E67.99461
G1 X171.728 Y73.350 E68.15494
G1 X172.537 Y76.500 E68.38382
G1 X172.537 Y141.500 E72.95835
G1 X172.140 Y143.743 E73.11868
G1 X170.998 Y145.714 E73.27901
G1 X169.248 Y147.173 E73.43934
G1 X166.000 Y148.037 E73.67590
G1 X92.000 Y148.037 E78.88383
G1 X89.757 Y147.640 E79.04416
G1 X88.555 Y147.056 E79.13819
G1 X48.555 Y122.256 E82.45045
G1 X46.858 Y120.737 E82.61078
G1 X45.785 Y118.727 E82.77111
G1 X45.463 Y116.700 E82.91556
G1 X45.463 Y76.500 E85.74474
G1 X45.860 Y74.257 E85.90506
G1 X47.002 Y72.286 E86.06539
G1 X48.406 Y71.115 E86.19404
G1 E81.19404 F2760.00000
G92 E0
G1 X92.306 Y116.394 F7800.000
G1 E5.00000 F2760.00000
G1 X52.306 Y116.394 E7.81510 F1200.000
G1 X52.306 Y76.806 E10.60117
G1 X165.694 Y76.806 E18.58109
G1 X165.694 Y141.194 E23.11252
G1 X92.306 Y141.194 E28.27735
G1 X92.306 Y116.469 E30.01743
G1 X92.306 Y115.894 F7800.000
G1 X92.844 Y115.856 F7800.000
G1 X52.844 Y115.856 E32.83253 F1200.000
G1 X52.844 Y77.344 E35.54296
G1 X165.156 Y77.344 E43.44724
G1 X165.156 Y140.656 E47.90303
G1 X92.844 Y140.656 E52.99222
G1 X92.844 Y115.931 E54.73230
G1 X93.381 Y115.319 F7800.000
G1 X53.381 Y115.319 E57.54740 F1200.000
G1 X53.381 Y77.881 E60.18219
G1 X164.619 Y77.881 E68.01083
G1 X164.619 Y140.119 E72.39098
G1 X93.381 Y140.119 E77.40453
G1 X93.381 Y115.394 E79.14461
G1 E74.14461 F2760.00000
G92 E0
G1 X151.742 Y130.474 F7800.000
G1 E5.00000 F2760.00000
G1 X151.890 Y129.966 E5.03719 F1200.000
G1 X152.129 Y129.496 E5.07438
G1 X152.453 Y129.078 E5.11157
G1 X152.850 Y128.729 E5.14875
G1 X153.305 Y128.460 E5.18595
G1 X153.797 Y128.282 E5.22280
G1 X154.148 Y128.215 E5.24794
G1 X154.500 Y128.193 E5.27275 F1200.000
G1 X155.026 Y128.242 E5.30993
G1 X155.534 Y128.390 E5.34713
G1 X156.004 Y128.629 E5.38432
G1 X156.422 Y128.953 E5.42151
G1 X156.771 Y129.350 E5.45869
G1 X157.041 Y129.805 E5.49590
G1 X157.219 Y130.302 E5.53308
G1 X157.285 Y130.648 E5.55789
G1 X157.307 Y131.000 E5.58269
G1 X157.285 Y131.352 E5.60749
G1 X157.218 Y131.703 E5.63264
G1 X157.040 Y132.195 E5.66949
G1 X156.771 Y132.650 E5.70669
G1 X156.422 Y133.047 E5.74387
G1 X156.004 Y133.371 E5.78106
G1 X155.534 Y133.610 E5.81826
G1 X155.026 Y133.758 E5.85544
G1 X154.505 Y133.807 E5.89229
G1 X154.148 Y133.785 E5.91744
G1 X153.797 Y133.718 E5.94259
G1 X153.305 Y133.540 E5.97944
G1 X152.850 Y133.271 E6.01663
G1 X152.453 Y132.922 E6.05382
G1 X152.129 Y132.504 E6.09101
G1 X151.890 Y132.034 E6.12820
G1 X151.742 Y131.526 E6.16539
G1 X151.692 Y131.000 E6.20258
G1 X151.735 Y130.549 E6.23450
G1 X151.374 Y130.135 F7800.000
G1 X151.207 Y130.423 F7800.000
G1 X151.388 Y129.768 E6.28235 F1200.000
G1 X151.674 Y129.206 E6.32669
G1 X152.060 Y128.708 E6.37103
G1 X152.532 Y128.292 E6.41536
G1 X153.075 Y127.971 E6.45971
G1 X153.655 Y127.762 E6.50311
G1 X154.081 Y127.681 E6.53361
G1 X154.508 Y127.654 E6.56375 F1200.000
G1 X155.127 Y127.712 E6.60749
G1 X155.732 Y127.888 E6.65186
G1 X156.294 Y128.174 E6.69620
G1 X156.791 Y128.560 E6.74054
G1 X157.208 Y129.032 E6.78487
G1 X157.529 Y129.575 E6.82925
G1 X157.739 Y130.160 E6.87299
G1 X157.819 Y130.581 E6.90314
G1 X157.845 Y131.000 E6.93269
G1 X157.819 Y131.419 E6.96225
G1 X157.738 Y131.845 E6.99275
G1 X157.529 Y132.425 E7.03616
G1 X157.208 Y132.968 E7.08050
G1 X156.791 Y133.440 E7.12483
G1 X156.294 Y133.826 E7.16918
G1 X155.732 Y134.112 E7.21352
G1 X155.127 Y134.288 E7.25785
G1 X154.513 Y134.346 E7.30126
G1 X154.081 Y134.319 E7.33176
G1 X153.655 Y134.238 E7.36226
G1 X153.075 Y134.029 E7.40566
G1 X152.532 Y133.708 E7.45001
G1 X152.060 Y133.291 E7.49434
G1 X151.674 Y132.794 E7.53869
G1 X151.388 Y132.232 E7.58303
G1 X151.212 Y131.627 E7.62736
G1 X151.153 Y131.000 E7.67171
G1 X151.200 Y130.498 E7.70720
G1 X150.672 Y130.373 F7800.000
G1 X150.682 Y130.271 E7.71435 F1200.000
G1 X150.886 Y129.569 E7.76584
G1 X151.218 Y128.917 E7.81732
G1 X151.666 Y128.339 E7.86882
G1 X152.215 Y127.855 E7.92030
G1 X152.845 Y127.483 E7.97180
G1 X153.513 Y127.242 E8.02175
G1 X154.013 Y127.147 E8.05759
G1 X154.516 Y127.115 E8.09307 F1200.000
G1 X155.228 Y127.181 E8.14337
G1 X155.931 Y127.386 E8.19491
G1 X156.583 Y127.718 E8.24640
G1 X157.161 Y128.166 E8.29789
G1 X157.645 Y128.715 E8.34937
G1 X158.018 Y129.346 E8.40093
G1 X158.259 Y130.018 E8.45123
G1 X158.353 Y130.514 E8.48671
G1 X158.384 Y131.000 E8.52100
G1 X158.353 Y131.487 E8.55532
G1 X158.258 Y131.987 E8.59118
G1 X158.017 Y132.655 E8.64114
G1 X157.645 Y133.285 E8.69264
G1 X157.161 Y133.834 E8.74412
G1 X156.583 Y134.282 E8.79561
G1 X155.931 Y134.614 E8.84710
G1 X155.229 Y134.818 E8.89859
G1 X154.522 Y134.885 E8.94854
G1 X154.013 Y134.853 E8.98440
G1 X153.513 Y134.758 E9.02026
G1 X152.845 Y134.517 E9.07022
G1 X152.215 Y134.145 E9.12171
G1 X151.666 Y133.661 E9.17319
G1 X151.218 Y133.083 E9.22469
G1 X150.886 Y132.431 E9.27618
G1 X150.682 Y131.729 E9.32766
G1 X150.613 Y131.000 E9.37916
G1 X150.665 Y130.447 E9.41823
G1 X154.500 Y86.808 F7800.000
G1 X153.983 Y86.759 E9.45481 F1200.000
G1 X153.703 Y86.694 E9.47496
G1 X153.458 Y86.606 E9.49333
G1 X152.995 Y86.370 E9.52986
G1 X152.578 Y86.046 E9.56703
G1 X152.337 Y85.789 E9.59185
G1 X152.127 Y85.500 E9.61699
G1 X151.890 Y85.034 E9.65383
G1 X151.742 Y84.526 E9.69102
G1 X151.692 Y84.000 E9.72821
G1 X151.742 Y83.474 E9.76541
G1 X151.890 Y82.966 E9.80260
G1 X152.129 Y82.496 E9.83979
G1 X152.453 Y82.078 E9.87698
G1 X152.850 Y81.729 E9.91416
G1 X153.305 Y81.460 E9.95136
G1 X153.797 Y81.282 E9.98821
G1 X154.148 Y81.215 E10.01335
G1 X154.500 Y81.193 E10.03816 F1200.000
G1 X155.026 Y81.242 E10.07534
G1 X155.534 Y81.390 E10.11254
G1 X156.004 Y81.629 E10.14973
G1 X156.422 Y81.953 E10.18692
G1 X156.771 Y82.350 E10.22411
G1 X157.041 Y82.805 E10.26131
G1 X157.219 Y83.302 E10.29849
G1 X157.285 Y83.648 E10.32330
G1 X157.307 Y84.000 E10.34810
G1 X157.285 Y84.352 E10.37291
G1 X157.218 Y84.703 E10.39805
G1 X157.040 Y85.195 E10.43491
G1 X156.771 Y85.650 E10.47210
G1 X156.422 Y86.047 E10.50928
G1 X156.004 Y86.371 E10.54647
G1 X155.534 Y86.610 E10.58367
G1 X155.026 Y86.758 E10.62085
G1 X154.575 Y86.801 E10.65277
G1 X154.237 Y87.233 F7800.000
G1 X154.551 Y87.343 F7800.000
G1 X153.897 Y87.290 E10.69894 F1200.000
G1 X153.552 Y87.211 E10.72385
G1 X153.244 Y87.100 E10.74686
G1 X152.706 Y86.826 E10.78937
G1 X152.215 Y86.445 E10.83310
G1 X151.922 Y86.132 E10.86325
G1 X151.668 Y85.782 E10.89374
G1 X151.388 Y85.232 E10.93713
G1 X151.212 Y84.627 E10.98147
G1 X151.153 Y84.000 E11.02581
G1 X151.212 Y83.373 E11.07016
G1 X151.388 Y82.768 E11.11450
G1 X151.674 Y82.206 E11.15883
G1 X152.060 Y81.709 E11.20317
G1 X152.532 Y81.292 E11.24751
G1 X153.075 Y80.971 E11.29186
G1 X153.655 Y80.762 E11.33526
G1 X154.081 Y80.681 E11.36575
G1 X154.508 Y80.654 E11.39589 F1200.000
G1 X155.127 Y80.712 E11.43963
G1 X155.732 Y80.888 E11.48400
G1 X156.294 Y81.174 E11.52834
G1 X156.792 Y81.560 E11.57269
G1 X157.208 Y82.032 E11.61702
G1 X157.529 Y82.575 E11.66140
G1 X157.739 Y83.160 E11.70514
G1 X157.819 Y83.581 E11.73529
G1 X157.845 Y84.000 E11.76483
G1 X157.819 Y84.419 E11.79439
G1 X157.738 Y84.845 E11.82490
G1 X157.529 Y85.425 E11.86831
G1 X157.208 Y85.968 E11.91265
G1 X156.792 Y86.440 E11.95698
G1 X156.294 Y86.826 E12.00132
G1 X155.732 Y87.112 E12.04567
G1 X155.127 Y87.288 E12.09000
G1 X154.625 Y87.336 E12.12549
G1 X154.601 Y87.878 F7800.000
G1 X154.500 Y87.887 E12.13264 F1200.000
G1 X153.811 Y87.822 E12.18137
G1 X153.400 Y87.727 E12.21104
G1 X153.030 Y87.594 E12.23869
G1 X152.416 Y87.282 E12.28717
G1 X151.852 Y86.843 E12.33747
G1 X151.507 Y86.475 E12.37295
G1 X151.208 Y86.063 E12.40879
G1 X150.886 Y85.431 E12.45873
G1 X150.682 Y84.728 E12.51022
G1 X150.613 Y84.000 E12.56171
G1 X150.682 Y83.272 E12.61321
G1 X150.886 Y82.569 E12.66470
G1 X151.218 Y81.917 E12.71618
G1 X151.666 Y81.339 E12.76767
G1 X152.215 Y80.855 E12.81916
G1 X152.845 Y80.483 E12.87066
G1 X153.513 Y80.242 E12.92061
G1 X154.013 Y80.147 E12.95645
G1 X154.516 Y80.115 E12.99192 F1200.000
G1 X155.228 Y80.181 E13.04222
G1 X155.931 Y80.386 E13.09377
G1 X156.583 Y80.718 E13.14526
G1 X157.161 Y81.166 E13.19676
G1 X157.645 Y81.715 E13.24824
G1 X158.018 Y82.346 E13.29978
G1 X158.259 Y83.018 E13.35009
G1 X158.353 Y83.514 E13.38557
G1 X158.384 Y84.000 E13.41987
G1 X158.353 Y84.487 E13.45418
G1 X158.258 Y84.987 E13.49005
G1 X158.017 Y85.655 E13.54001
G1 X157.645 Y86.285 E13.59150
G1 X157.161 Y86.834 E13.64298
G1 X156.583 Y87.282 E13.69447
G1 X155.931 Y87.614 E13.74597
G1 X155.228 Y87.818 E13.79745
G1 X154.676 Y87.871 E13.83652
G1 X110.285 Y84.352 F7800.000
G1 X110.218 Y84.703 E13.86167 F1200.000
G1 X110.040 Y85.195 E13.89852
G1 X109.771 Y85.650 E13.93571
G1 X109.422 Y86.047 E13.97289
G1 X109.004 Y86.371 E14.01009
G1 X108.534 Y86.610 E14.04728
G1 X108.026 Y86.758 E14.08447
G1 X107.500 Y86.808 E14.12166
G1 X106.974 Y86.758 E14.15885
G1 X106.466 Y86.610 E14.19604
G1 X105.996 Y86.371 E14.23323
G1 X105.578 Y86.047 E14.27042
G1 X105.229 Y85.650 E14.30761
G1 X104.960 Y85.195 E14.34480
G1 X104.782 Y84.703 E14.38165
G1 X104.715 Y84.352 E14.40680
G1 X104.693 Y83.995 E14.43195
G1 X104.742 Y83.474 E14.46880
G1 X104.890 Y82.966 E14.50599
G1 X105.129 Y82.496 E14.54318
G1 X105.453 Y82.078 E14.58037
G1 X105.850 Y81.729 E14.61755
G1 X106.305 Y81.460 E14.65475
G1 X106.797 Y81.282 E14.69160
G1 X107.148 Y81.215 E14.71674
G1 X107.500 Y81.193 E14.74155 F1200.000
G1 X108.026 Y81.242 E14.77873
G1 X108.534 Y81.390 E14.81593
G1 X109.004 Y81.629 E14.85312
G1 X109.422 Y81.953 E14.89031
G1 X109.771 Y82.350 E14.92750
G1 X110.040 Y82.805 E14.96469
G1 X110.218 Y83.297 E15.00154
G1 X110.285 Y83.648 E15.02669
G1 X110.307 Y84.000 E15.05149
G1 X110.289 Y84.277 E15.07102
G1 X110.565 Y84.574 F7800.000
G1 X110.813 Y84.452 F7800.000
G1 X110.738 Y84.845 E15.09915 F1200.000
G1 X110.529 Y85.425 E15.14255
G1 X110.208 Y85.968 E15.18689
G1 X109.792 Y86.440 E15.23123
G1 X109.294 Y86.826 E15.27557
G1 X108.732 Y87.112 E15.31991
G1 X108.127 Y87.288 E15.36425
G1 X107.500 Y87.347 E15.40859
G1 X106.873 Y87.288 E15.45294
G1 X106.268 Y87.112 E15.49727
G1 X105.706 Y86.826 E15.54161
G1 X105.208 Y86.440 E15.58596
G1 X104.792 Y85.968 E15.63029
G1 X104.471 Y85.425 E15.67463
G1 X104.262 Y84.845 E15.71804
G1 X104.181 Y84.419 E15.74854
G1 X104.154 Y83.987 E15.77905
G1 X104.212 Y83.373 E15.82245
G1 X104.388 Y82.768 E15.86679
G1 X104.674 Y82.206 E15.91112
G1 X105.060 Y81.709 E15.95546
G1 X105.532 Y81.292 E15.99980
G1 X106.075 Y80.971 E16.04415
G1 X106.655 Y80.762 E16.08755
G1 X107.081 Y80.681 E16.11804
G1 X107.508 Y80.654 E16.14818 F1200.000
G1 X108.127 Y80.712 E16.19192
G1 X108.732 Y80.888 E16.23629
G1 X109.294 Y81.174 E16.28063
G1 X109.792 Y81.560 E16.32498
G1 X110.208 Y82.032 E16.36931
G1 X110.529 Y82.575 E16.41365
G1 X110.738 Y83.155 E16.45706
G1 X110.819 Y83.581 E16.48756
G1 X110.845 Y84.000 E16.51712
G1 X110.822 Y84.378 E16.54379
G1 X111.340 Y84.553 F7800.000
G1 X111.258 Y84.987 E16.57489 F1200.000
G1 X111.017 Y85.655 E16.62485
G1 X110.645 Y86.285 E16.67634
G1 X110.161 Y86.834 E16.72782
G1 X109.583 Y87.282 E16.77932
G1 X108.931 Y87.614 E16.83081
G1 X108.228 Y87.818 E16.88230
G1 X107.500 Y87.887 E16.93379
G1 X106.772 Y87.818 E16.98529
G1 X106.069 Y87.614 E17.03677
G1 X105.417 Y87.282 E17.08826
G1 X104.839 Y86.834 E17.13976
G1 X104.355 Y86.285 E17.19124
G1 X103.983 Y85.655 E17.24273
G1 X103.742 Y84.987 E17.29269
G1 X103.647 Y84.487 E17.32855
G1 X103.615 Y83.978 E17.36441
G1 X103.682 Y83.272 E17.41436
G1 X103.886 Y82.569 E17.46585
G1 X104.218 Y81.917 E17.51734
G1 X104.666 Y81.339 E17.56883
G1 X105.215 Y80.855 E17.62032
G1 X105.845 Y80.483 E17.67182
G1 X106.513 Y80.242 E17.72176
G1 X107.013 Y80.147 E17.75760
G1 X107.516 Y80.115 E17.79308 F1200.000
G1 X108.228 Y80.181 E17.84338
G1 X108.931 Y80.386 E17.89492
G1 X109.583 Y80.718 E17.94641
G1 X110.161 Y81.166 E17.99791
G1 X110.645 Y81.715 E18.04939
G1 X111.017 Y82.345 E18.10088
G1 X111.258 Y83.013 E18.15084
G1 X111.353 Y83.513 E18.18670
G1 X111.384 Y84.000 E18.22102
G1 X111.354 Y84.479 E18.25482
G1 X117.899 Y91.992 F7800.000
G1 X119.064 Y91.072 E18.35929 F1200.000
G1 X120.119 Y90.355 E18.44908
G1 X121.217 Y89.705 E18.53885
G1 X122.354 Y89.126 E18.62863
G1 X123.525 Y88.620 E18.71841
G1 X124.725 Y88.187 E18.80819
G1 X125.950 Y87.832 E18.89797
G1 X127.195 Y87.553 E18.98775
G1 X128.455 Y87.354 E19.07752
G1 X129.725 Y87.234 E19.16731
G1 X130.963 Y87.195 E19.25449 F1200.000
G1 X132.275 Y87.234 E19.34684
G1 X133.545 Y87.354 E19.43664
G1 X134.805 Y87.553 E19.52641
G1 X136.050 Y87.832 E19.61619
G1 X137.275 Y88.187 E19.70597
G1 X138.475 Y88.620 E19.79575
G1 X139.646 Y89.126 E19.88553
G1 X140.783 Y89.705 E19.97531
G1 X141.881 Y90.355 E20.06509
G1 X142.936 Y91.072 E20.15487
G1 X143.944 Y91.854 E20.24465
G1 X144.901 Y92.697 E20.33442
G1 X145.803 Y93.599 E20.42421
G1 X146.646 Y94.556 E20.51399
G1 X147.428 Y95.564 E20.60376
G1 X148.145 Y96.620 E20.69357
G1 X148.811 Y97.750 E20.78591
G1 X149.374 Y98.854 E20.87309
G1 X149.880 Y100.025 E20.96287
G1 X150.313 Y101.225 E21.05266
G1 X150.668 Y102.450 E21.14243
G1 X150.947 Y103.695 E21.23223
G1 X151.150 Y104.992 E21.32458
G1 X151.266 Y106.225 E21.41177
G1 X151.306 Y107.500 E21.50154
G1 X151.266 Y108.775 E21.59132
G1 X151.146 Y110.045 E21.68110
G1 X150.947 Y111.305 E21.77088
G1 X150.668 Y112.550 E21.86066
G1 X150.312 Y113.775 E21.95046
G1 X149.866 Y115.009 E22.04281
G1 X149.374 Y116.146 E22.12999
G1 X148.795 Y117.283 E22.21977
G1 X148.145 Y118.381 E22.30955
G1 X147.428 Y119.436 E22.39935
G1 X146.622 Y120.471 E22.49170
G1 X145.803 Y121.401 E22.57888
G1 X144.901 Y122.303 E22.66866
G1 X143.944 Y123.146 E22.75844
