; generated by Slic3r 1.2.9 on 2017-08-02 at 23:40:09

; external perimeters extrusion width = 0.50mm
; perimeters extrusion width = 0.38mm
; infill extrusion width = 0.72mm
; solid infill extrusion width = 0.72mm
; top infill extrusion width = 0.72mm
; support material extrusion width = 0.50mm

M107
M190 S60 ; set bed temperature
M104 S210 ; set temperature
G28 X0 Y0
G28 Z0
G1 Z0.3 F200
G1 X15 Y20 F12000
M109 S210 ; wait for temperature to be reached
G21 ; set units to millimeters
G90 ; use absolute coordinates
M82 ; use absolute distances for extrusion
G92 E0
G1 E-5.00000 F2760.00000
G92 E0
G1 Z0.350 F7800.000
G1 X41.720 Y82.705 F7800.000
G1 E5.00000 F2760.00000
G1 X43.950 Y81.669 E5.17310 F1200.000
G1 X46.000 Y81.388 E5.31871
G1 X172.000 Y81.388 E14.18627
G1 X174.427 Y81.785 E14.35937
G1 X176.601 Y82.936 E14.53247 F1200.000
G1 X178.295 Y84.720 E14.70558
G1 X179.331 Y86.950 E14.87868
G1 X179.612 Y89.000 E15.02429
G1 X179.612 Y129.000 E17.83938
G1 X179.215 Y131.427 E18.01249
G1 X178.064 Y133.601 E18.18559
G1 X176.280 Y135.295 E18.35869
G1 X174.050 Y136.331 E18.53179
G1 X172.000 Y136.612 E18.67740
G1 X46.000 Y136.612 E27.54496
G1 X43.573 Y136.215 E27.71806
G1 X41.399 Y135.064 E27.89116
G1 X39.705 Y133.280 E28.06427
G1 X38.669 Y131.050 E28.23737
G1 X38.388 Y129.000 E28.38298
G1 X38.388 Y89.000 E31.19807
G1 X38.785 Y86.573 E31.37118
G1 X39.936 Y84.399 E31.54428
G1 X41.665 Y82.757 E31.71210
G1 X42.100 Y83.131 F7800.000
G1 X42.237 Y83.009 E31.72504 F1200.000
G1 X44.428 Y82.102 E31.89188
G1 X46.000 Y81.925 E32.00324
G1 X172.000 Y81.925 E40.87080
G1 X174.337 Y82.322 E41.03763
G1 X176.412 Y83.469 E41.20447 F1200.000
G1 X177.991 Y85.237 E41.37131
G1 X178.898 Y87.428 E41.53815
G1 X179.075 Y89.000 E41.64951
G1 X179.075 Y129.000 E44.46461
G1 X178.678 Y131.337 E44.63145
G1 X177.531 Y133.412 E44.79828
G1 X175.763 Y134.991 E44.96512
G1 X173.572 Y135.898 E45.13196
G1 X172.000 Y136.075 E45.24332
G1 X46.000 Y136.075 E54.11088
G1 X43.663 Y135.678 E54.27772
G1 X41.588 Y134.531 E54.44456
G1 X40.009 Y132.763 E54.61139
G1 X39.102 Y130.572 E54.77823
G1 X38.925 Y129.000 E54.88959
G1 X38.925 Y89.000 E57.70469
G1 X39.322 Y86.663 E57.87153
G1 X40.469 Y84.588 E58.03837
G1 X42.044 Y83.181 E58.18699
G1 X42.464 Y83.567 F7800.000
G1 X42.752 Y83.327 E58.21340 F1200.000
G1 X46.000 Y82.463 E58.44995
G1 X172.000 Y82.463 E67.31752
G1 X174.243 Y82.860 E67.47784
G1 X176.214 Y84.002 E67.63817 F1200.000
G1 X177.673 Y85.752 E67.79850
G1 X178.537 Y89.000 E68.03506
G1 X178.537 Y129.000 E70.85016
G1 X178.140 Y131.243 E71.01049
G1 X176.998 Y133.214 E71.17082
G1 X175.248 Y134.673 E71.33115
G1 X172.000 Y135.537 E71.56771
G1 X46.000 Y135.537 E80.43527
G1 X43.757 Y135.140 E80.59560
G1 X41.786 Y133.998 E80.75593
G1 X40.327 Y132.248 E80.91626
G1 X39.463 Y129.000 E81.15281
G1 X39.463 Y89.000 E83.96791
G1 X39.860 Y86.757 E84.12824
G1 X41.002 Y84.786 E84.28857
G1 X42.406 Y83.615 E84.41722
G1 E79.41722 F2760.00000
G92 E0
G1 X105.694 Y128.694 F7800.000
G1 E5.00000 F2760.00000
G1 X46.306 Y128.694 E9.17954 F1200.000
G1 X46.306 Y89.306 E11.95153
G1 X105.694 Y89.306 E16.13108
G1 X105.694 Y128.619 E18.89779
G1 X105.261 Y128.444 F7800.000
G1 X102.179 Y123.230 F7800.000
G1 X101.636 Y123.528 E18.94136 F1200.000
G1 X101.043 Y123.763 E18.98629
G1 X100.443 Y123.917 E19.02986
G1 X100.123 Y123.968 E19.05267
G1 X99.500 Y124.007 E19.09656
G1 X98.913 Y123.971 E19.13798
G1 X98.558 Y123.917 E19.16323
G1 X97.953 Y123.762 E19.20722
G1 X97.368 Y123.530 E19.25147
G1 X96.821 Y123.230 E19.29538
G1 X96.553 Y123.048 E19.31819
G1 X96.076 Y122.653 E19.36176
G1 X95.847 Y122.424 E19.38458
G1 X95.452 Y121.947 E19.42815
G1 X95.270 Y121.679 E19.45096
G1 X94.972 Y121.136 E19.49453
G1 X94.737 Y120.543 E19.53946
G1 X94.583 Y119.942 E19.58310
G1 X94.529 Y119.587 E19.60835
G1 X94.493 Y119.000 E19.64977
G1 X94.532 Y118.377 E19.69367
G1 X94.583 Y118.057 E19.71647
G1 X94.737 Y117.457 E19.76005
G1 X94.972 Y116.864 E19.80497
G1 X95.270 Y116.321 E19.84854
G1 X95.452 Y116.053 E19.87135
G1 X95.847 Y115.576 E19.91493
G1 X96.076 Y115.347 E19.93774
G1 X96.553 Y114.952 E19.98132
G1 X96.821 Y114.770 E20.00412
G1 X97.368 Y114.470 E20.04803
G1 X97.948 Y114.240 E20.09195
G1 X98.260 Y114.150 E20.11477
G1 X98.872 Y114.033 E20.15865
G1 X99.459 Y113.995 E20.20007 F1200.000
G1 X99.818 Y114.004 E20.22532
G1 X100.438 Y114.082 E20.26930
G1 X101.043 Y114.237 E20.31322
G1 X101.343 Y114.345 E20.33569
G1 X101.636 Y114.472 E20.35816
G1 X102.179 Y114.770 E20.40174
G1 X102.447 Y114.952 E20.42454
G1 X102.924 Y115.347 E20.46812
G1 X103.153 Y115.576 E20.49093
G1 X103.548 Y116.053 E20.53451
G1 X103.730 Y116.321 E20.55731
G1 X104.030 Y116.868 E20.60122
G1 X104.262 Y117.453 E20.64548
G1 X104.417 Y118.058 E20.68946
G1 X104.471 Y118.413 E20.71471
G1 X104.507 Y119.000 E20.75613
G1 X104.468 Y119.624 E20.80010
G1 X104.409 Y119.978 E20.82535
G1 X104.262 Y120.547 E20.86676
G1 X104.030 Y121.132 E20.91100
G1 X103.730 Y121.679 E20.95491
G1 X103.548 Y121.947 E20.97771
G1 X103.153 Y122.424 E21.02129
G1 X102.924 Y122.653 E21.04410
G1 X102.447 Y123.048 E21.08768
G1 X102.241 Y123.188 E21.10521
G1 X102.184 Y123.730 F7800.000
G1 X104.875 Y120.324 F7800.000
G1 X105.156 Y120.360 E21.12519 F1200.000
G1 X105.156 Y128.156 E21.67390
G1 X46.844 Y128.156 E25.77780
G1 X46.844 Y120.359 E26.32654
G1 X47.125 Y120.323 E26.34653
G1 X47.226 Y120.714 E26.37493
G1 X47.482 Y121.361 E26.42390
G1 X47.812 Y121.960 E26.47197
G1 X48.022 Y122.270 E26.49835
G1 X48.449 Y122.786 E26.54549
G1 X48.714 Y123.051 E26.57187
G1 X49.230 Y123.478 E26.61902
G1 X49.540 Y123.688 E26.64539
G1 X50.127 Y124.011 E26.69253
G1 X50.459 Y124.155 E26.71797
G1 X50.799 Y124.277 E26.74342
G1 X51.451 Y124.444 E26.79076
G1 X51.856 Y124.506 E26.81961
G1 X52.501 Y124.545 E26.86507
G1 X53.182 Y124.502 E26.91309
G1 X53.552 Y124.444 E26.93946
G1 X54.201 Y124.277 E26.98660
G1 X54.873 Y124.011 E27.03746
G1 X55.460 Y123.688 E27.08461
G1 X55.770 Y123.478 E27.11098
G1 X56.286 Y123.051 E27.15812
G1 X56.551 Y122.786 E27.18450
G1 X56.978 Y122.270 E27.23165
G1 X57.188 Y121.960 E27.25802
G1 X57.518 Y121.361 E27.30609
G1 X57.774 Y120.714 E27.35511
G1 X57.944 Y120.052 E27.40318
G1 X58.002 Y119.682 E27.42956
G1 X58.045 Y119.001 E27.47758
G1 X58.006 Y118.356 E27.52304
G1 X57.944 Y117.951 E27.55189
G1 X57.774 Y117.286 E27.60016
G1 X57.518 Y116.639 E27.64918
G1 X57.188 Y116.040 E27.69725
G1 X56.978 Y115.730 E27.72362
G1 X56.551 Y115.214 E27.77076
G1 X56.286 Y114.949 E27.79715
G1 X55.770 Y114.522 E27.84429
G1 X55.460 Y114.312 E27.87066
G1 X54.873 Y113.989 E27.91781
G1 X54.201 Y113.723 E27.96866
G1 X53.539 Y113.553 E28.01674
G1 X52.859 Y113.467 E28.06501
G1 X52.449 Y113.457 E28.09387
G1 X51.804 Y113.499 E28.13933
G1 X51.134 Y113.626 E28.18733
G1 X50.774 Y113.731 E28.21371
G1 X50.139 Y113.982 E28.26180
G1 X49.540 Y114.312 E28.30987
G1 X49.230 Y114.522 E28.33624
G1 X48.714 Y114.949 E28.38339
G1 X48.449 Y115.214 E28.40977
G1 X48.022 Y115.730 E28.45691
G1 X47.812 Y116.040 E28.48328
G1 X47.489 Y116.627 E28.53042
G1 X47.345 Y116.959 E28.55587
G1 X47.223 Y117.299 E28.58132
G1 X47.126 Y117.678 E28.60880
G1 X46.844 Y117.642 E28.62881
G1 X46.844 Y100.359 E29.84512
G1 X47.125 Y100.323 E29.86512
G1 X47.226 Y100.714 E29.89351
G1 X47.482 Y101.361 E29.94248
G1 X47.812 Y101.960 E29.99056
G1 X48.022 Y102.270 E30.01694
G1 X48.449 Y102.786 E30.06407
G1 X48.714 Y103.051 E30.09046
G1 X49.230 Y103.478 E30.13760
G1 X49.540 Y103.688 E30.16397
G1 X50.127 Y104.011 E30.21112
G1 X50.459 Y104.155 E30.23655
G1 X50.799 Y104.277 E30.26200
G1 X51.448 Y104.444 E30.30914
G1 X51.818 Y104.502 E30.33552
G1 X52.500 Y104.545 E30.38360
G1 X53.182 Y104.502 E30.43167
G1 X53.552 Y104.444 E30.45805
G1 X54.201 Y104.277 E30.50519
G1 X54.873 Y104.011 E30.55605
G1 X55.460 Y103.688 E30.60319
G1 X55.770 Y103.478 E30.62957
G1 X56.286 Y103.051 E30.67671
G1 X56.551 Y102.786 E30.70309
G1 X56.978 Y102.270 E30.75024
G1 X57.188 Y101.960 E30.77661
G1 X57.518 Y101.361 E30.82468
G1 X57.774 Y100.714 E30.87370
G1 X57.944 Y100.052 E30.92177
G1 X58.002 Y99.682 E30.94814
G1 X58.045 Y99.000 E30.99622
G1 X58.002 Y98.305 E31.04524
G1 X57.874 Y97.634 E31.09330
G1 X57.769 Y97.274 E31.11968
G1 X57.518 Y96.639 E31.16776
G1 X57.188 Y96.040 E31.21583
G1 X56.978 Y95.730 E31.24221
G1 X56.551 Y95.214 E31.28936
G1 X56.015 Y94.713 E31.34100
G1 X55.471 Y94.318 E31.38831
G1 X54.873 Y93.989 E31.43637
G1 X54.529 Y93.840 E31.46275
G1 X53.892 Y93.633 E31.50988
G1 X53.526 Y93.551 E31.53626
G1 X52.859 Y93.467 E31.58360
G1 X52.449 Y93.457 E31.61246
G1 X51.804 Y93.499 E31.65791
G1 X51.121 Y93.629 E31.70686
G1 X50.471 Y93.840 E31.75494
G1 X50.127 Y93.989 E31.78132
G1 X49.540 Y94.312 E31.82846
G1 X49.241 Y94.515 E31.85390
G1 X48.956 Y94.736 E31.87935
G1 X48.458 Y95.203 E31.92736
G1 X48.046 Y95.700 E31.97282
G1 X47.813 Y96.037 E32.00162
G1 X47.506 Y96.593 E32.04634
G1 X47.341 Y96.968 E32.07514
G1 X47.115 Y97.658 E32.12627
G1 X46.844 Y97.615 E32.14563
G1 X46.844 Y89.844 E32.69257
G1 X105.156 Y89.844 E36.79647
G1 X105.156 Y97.615 E37.34337
G1 X104.879 Y97.654 E37.36306
G1 X104.769 Y97.274 E37.39090
G1 X104.518 Y96.640 E37.43892
G1 X104.208 Y96.073 E37.48437
G1 X103.980 Y95.733 E37.51315
G1 X103.563 Y95.226 E37.55941
G1 X103.286 Y94.949 E37.58695
G1 X102.770 Y94.522 E37.63409
G1 X102.460 Y94.312 E37.66047
G1 X101.873 Y93.989 E37.70761
G1 X101.541 Y93.845 E37.73306
G1 X101.201 Y93.723 E37.75846
G1 X100.548 Y93.554 E37.80595
G1 X99.859 Y93.467 E37.85484
G1 X99.449 Y93.457 E37.88370
G1 X98.804 Y93.499 E37.92916
G1 X98.134 Y93.626 E37.97717
G1 X97.774 Y93.731 E38.00356
G1 X97.139 Y93.982 E38.05163
G1 X96.540 Y94.312 E38.09971
G1 X96.230 Y94.522 E38.12609
G1 X95.714 Y94.949 E38.17322
G1 X95.437 Y95.226 E38.20077
G1 X95.022 Y95.731 E38.24683
G1 X94.812 Y96.040 E38.27313
G1 X94.489 Y96.627 E38.32027
G1 X94.345 Y96.959 E38.34571
G1 X94.223 Y97.299 E38.37115
G1 X94.056 Y97.948 E38.41830
G1 X93.998 Y98.318 E38.44467
G1 X93.955 Y98.999 E38.49269
G1 X93.994 Y99.644 E38.53815
G1 X94.056 Y100.049 E38.56700
G1 X94.223 Y100.701 E38.61434
G1 X94.345 Y101.041 E38.63979
G1 X94.489 Y101.373 E38.66523
G1 X94.812 Y101.960 E38.71237
G1 X95.022 Y102.270 E38.73874
G1 X95.449 Y102.786 E38.78589
G1 X95.714 Y103.051 E38.81227
G1 X96.230 Y103.478 E38.85941
G1 X96.540 Y103.688 E38.88579
G1 X97.139 Y104.018 E38.93386
G1 X97.786 Y104.274 E38.98287
G1 X98.448 Y104.444 E39.03095
G1 X98.818 Y104.502 E39.05732
G1 X99.500 Y104.545 E39.10540
G1 X100.182 Y104.502 E39.15348
G1 X100.552 Y104.444 E39.17985
G1 X101.201 Y104.277 E39.22700
G1 X101.541 Y104.155 E39.25244
G1 X101.873 Y104.011 E39.27788
G1 X102.460 Y103.688 E39.32502
G1 X102.770 Y103.478 E39.35140
G1 X103.286 Y103.051 E39.39854
G1 X103.551 Y102.786 E39.42492
G1 X103.978 Y102.270 E39.47207
G1 X104.188 Y101.960 E39.49844
G1 X104.518 Y101.361 E39.54651
G1 X104.774 Y100.714 E39.59547
G1 X104.875 Y100.324 E39.62385
G1 X105.156 Y100.360 E39.64383
G1 X105.156 Y117.642 E40.86011
G1 X104.874 Y117.678 E40.88011
G1 X104.774 Y117.286 E40.90853
G1 X104.518 Y116.639 E40.95755
G1 X104.188 Y116.040 E41.00562
G1 X103.978 Y115.730 E41.03199
G1 X103.551 Y115.214 E41.07914
G1 X103.286 Y114.949 E41.10552
G1 X102.770 Y114.522 E41.15266
G1 X102.460 Y114.312 E41.17904
G1 X101.873 Y113.989 E41.22618
G1 X101.201 Y113.723 E41.27704
G1 X100.539 Y113.553 E41.32512
G1 X99.859 Y113.467 E41.37338
G1 X99.449 Y113.457 E41.40224
G1 X98.804 Y113.499 E41.44771
G1 X98.134 Y113.626 E41.49571
G1 X97.774 Y113.731 E41.52209
G1 X97.139 Y113.982 E41.57018
G1 X96.540 Y114.312 E41.61824
G1 X96.230 Y114.522 E41.64462
G1 X95.714 Y114.949 E41.69176
G1 X95.449 Y115.214 E41.71815
G1 X95.022 Y115.730 E41.76529
G1 X94.812 Y116.040 E41.79166
G1 X94.489 Y116.627 E41.83880
G1 X94.345 Y116.959 E41.86424
G1 X94.223 Y117.299 E41.88969
G1 X94.056 Y117.948 E41.93683
G1 X93.998 Y118.318 E41.96320
G1 X93.955 Y118.999 E42.01123
G1 X93.994 Y119.644 E42.05669
G1 X94.056 Y120.049 E42.08554
G1 X94.223 Y120.701 E42.13288
G1 X94.489 Y121.373 E42.18374
G1 X94.812 Y121.960 E42.23088
G1 X95.022 Y122.270 E42.25725
G1 X95.449 Y122.786 E42.30440
G1 X95.714 Y123.051 E42.33078
G1 X96.230 Y123.478 E42.37792
G1 X96.540 Y123.688 E42.40430
G1 X97.139 Y124.018 E42.45237
G1 X97.786 Y124.274 E42.50138
G1 X98.451 Y124.444 E42.54965
G1 X98.856 Y124.506 E42.57850
G1 X99.501 Y124.545 E42.62396
G1 X100.182 Y124.502 E42.67199
G1 X100.552 Y124.444 E42.69836
G1 X101.201 Y124.277 E42.74550
G1 X101.873 Y124.011 E42.79636
G1 X102.460 Y123.688 E42.84351
G1 X102.770 Y123.478 E42.86988
G1 X103.286 Y123.051 E42.91702
G1 X103.551 Y122.786 E42.94341
G1 X103.978 Y122.270 E42.99055
G1 X104.188 Y121.960 E43.01692
G1 X104.518 Y121.361 E43.06499
G1 X104.774 Y120.714 E43.11395
G1 X104.856 Y120.397 E43.13705
G1 X104.619 Y122.338 F7800.000
G1 X104.619 Y127.619 E43.50873 F1200.000
G1 X47.381 Y127.619 E47.53700
G1 X47.381 Y122.338 E47.90868
G1 X48.051 Y123.148 E47.98268
G1 X48.352 Y123.449 E48.01263
G1 X48.907 Y123.908 E48.06334
G1 X49.259 Y124.147 E48.09328
G1 X49.891 Y124.494 E48.14399
G1 X50.261 Y124.655 E48.17240
G1 X50.641 Y124.791 E48.20082
G1 X51.343 Y124.972 E48.25185
G1 X51.799 Y125.041 E48.28430
G1 X52.501 Y125.084 E48.33380
G1 X53.241 Y125.037 E48.38595
G1 X53.661 Y124.971 E48.41589
G1 X54.359 Y124.791 E48.46660
G1 X54.739 Y124.655 E48.49502
G1 X55.109 Y124.494 E48.52343
G1 X55.741 Y124.147 E48.57414
G1 X56.093 Y123.908 E48.60407
G1 X56.648 Y123.449 E48.65479
G1 X56.949 Y123.148 E48.68474
G1 X57.408 Y122.593 E48.73545
G1 X57.647 Y122.241 E48.76539
G1 X58.005 Y121.590 E48.81762
G1 X58.286 Y120.880 E48.87140
G1 X58.471 Y120.161 E48.92364
G1 X58.537 Y119.741 E48.95357
G1 X58.584 Y119.001 E49.00572
G1 X58.541 Y118.299 E49.05523
G1 X58.472 Y117.843 E49.08768
G1 X58.286 Y117.120 E49.14023
G1 X58.005 Y116.410 E49.19401
G1 X57.647 Y115.759 E49.24624
G1 X57.408 Y115.407 E49.27618
G1 X56.949 Y114.852 E49.32690
G1 X56.648 Y114.551 E49.35685
G1 X56.093 Y114.092 E49.40756
G1 X55.741 Y113.853 E49.43750
G1 X55.109 Y113.506 E49.48821
G1 X54.739 Y113.345 E49.51662
G1 X54.359 Y113.209 E49.54503
G1 X53.640 Y113.024 E49.59728
G1 X52.899 Y112.930 E49.64983
G1 X52.438 Y112.919 E49.68229
G1 X51.736 Y112.965 E49.73179
G1 X51.009 Y113.103 E49.78392
G1 X50.600 Y113.222 E49.81387
G1 X49.910 Y113.495 E49.86612
G1 X49.259 Y113.853 E49.91835
G1 X48.907 Y114.092 E49.94829
G1 X48.352 Y114.551 E49.99900
G1 X48.051 Y114.852 E50.02895
G1 X47.381 Y115.662 E50.10295
G1 X47.381 Y102.338 E51.04070
G1 X48.051 Y103.148 E51.11470
G1 X48.352 Y103.449 E51.14465
G1 X48.907 Y103.908 E51.19537
G1 X49.259 Y104.147 E51.22531
G1 X49.891 Y104.494 E51.27602
G1 X50.261 Y104.655 E51.30442
G1 X50.641 Y104.791 E51.33284
G1 X51.339 Y104.971 E51.38356
G1 X51.759 Y105.037 E51.41349
G1 X52.500 Y105.084 E51.46573
G1 X53.241 Y105.037 E51.51798
G1 X53.661 Y104.971 E51.54791
G1 X54.359 Y104.791 E51.59863
G1 X54.739 Y104.655 E51.62705
G1 X55.109 Y104.494 E51.65545
G1 X55.741 Y104.147 E51.70616
G1 X56.093 Y103.908 E51.73610
G1 X56.648 Y103.449 E51.78682
G1 X56.949 Y103.148 E51.81677
G1 X57.408 Y102.593 E51.86748
G1 X57.647 Y102.241 E51.89742
G1 X58.005 Y101.590 E51.94965
G1 X58.286 Y100.880 E52.00343
G1 X58.471 Y100.161 E52.05567
G1 X58.537 Y99.741 E52.08560
G1 X58.584 Y99.000 E52.13785
G1 X58.536 Y98.237 E52.19162
G1 X58.397 Y97.509 E52.24384
G1 X58.278 Y97.100 E52.27379
G1 X58.005 Y96.410 E52.32604
G1 X57.647 Y95.759 E52.37827
G1 X57.408 Y95.407 E52.40821
G1 X56.949 Y94.852 E52.45893
G1 X56.662 Y94.566 E52.48744
G1 X56.351 Y94.292 E52.51659
G1 X55.760 Y93.863 E52.56802
G1 X55.109 Y93.506 E52.62024
G1 X54.719 Y93.337 E52.65018
G1 X54.034 Y93.114 E52.70089
G1 X53.618 Y93.021 E52.73083
G1 X52.899 Y92.930 E52.78186
G1 X52.438 Y92.919 E52.81432
G1 X51.736 Y92.964 E52.86382
G1 X50.987 Y93.107 E52.91749
G1 X50.281 Y93.337 E52.96973
G1 X49.891 Y93.506 E52.99967
G1 X49.259 Y93.853 E53.05038
G1 X48.925 Y94.080 E53.07880
G1 X48.606 Y94.327 E53.10722
G1 X48.066 Y94.834 E53.15936
G1 X47.381 Y95.659 E53.23482
G1 X47.381 Y90.381 E53.60629
G1 X104.619 Y90.381 E57.63455
G1 X104.619 Y95.664 E58.00635
G1 X103.961 Y94.864 E58.07923
G1 X103.648 Y94.551 E58.11039
G1 X103.093 Y94.092 E58.16109
G1 X102.741 Y93.853 E58.19104
G1 X102.109 Y93.506 E58.24174
