; generated by Slic3r 1.2.9 on 2017-08-14 at 20:15:00

; external perimeters extrusion width = 0.50mm
; perimeters extrusion width = 0.38mm
; infill extrusion width = 0.72mm
; solid infill extrusion width = 0.72mm
; top infill extrusion width = 0.72mm
; support material extrusion width = 0.50mm

M107
M190 S60 ; set bed temperature
M104 S210 ; set temperature
G28 X0 Y0
G28 Z0
G1 Z0.3 F200
G1 X15 Y20 F12000
M109 S210 ; wait for temperature to be reached
G21 ; set units to millimeters
G90 ; use absolute coordinates
M82 ; use absolute distances for extrusion
G92 E0
G1 E-5.00000 F2760.00000
G92 E0
G1 Z0.350 F7800.000
G1 X33.950 Y81.669 F7800.000
G1 E5.00000 F2760.00000
G1 X36.000 Y81.388 E5.14561 F1200.000
G1 X182.000 Y81.388 E15.42072
G1 X184.427 Y81.785 E15.59382
G1 X186.601 Y82.936 E15.76692 F1200.000
G1 X188.295 Y84.720 E15.94002
G1 X189.331 Y86.950 E16.11313
G1 X189.612 Y89.000 E16.25873
G1 X189.612 Y129.000 E19.07383
G1 X189.215 Y131.427 E19.24693
G1 X188.064 Y133.601 E19.42004
G1 X186.280 Y135.295 E19.59314
G1 X184.050 Y136.331 E19.76624
G1 X182.000 Y136.612 E19.91185
G1 X36.000 Y136.612 E30.18696
G1 X33.573 Y136.215 E30.36006
G1 X31.399 Y135.064 E30.53316
G1 X29.705 Y133.280 E30.70626
G1 X28.669 Y131.050 E30.87937
G1 X28.388 Y129.000 E31.02497
G1 X28.388 Y89.000 E33.84007
G1 X28.785 Y86.573 E34.01317
G1 X29.936 Y84.399 E34.18628
G1 X31.720 Y82.705 E34.35938
G1 X33.882 Y81.701 E34.52720
G1 X34.173 Y82.207 F7800.000
G1 X34.428 Y82.102 E34.54658 F1200.000
G1 X36.000 Y81.925 E34.65794
G1 X182.000 Y81.925 E44.93305
G1 X184.337 Y82.322 E45.09989
G1 X186.412 Y83.469 E45.26673 F1200.000
G1 X187.991 Y85.237 E45.43357
G1 X188.898 Y87.428 E45.60040
G1 X189.075 Y89.000 E45.71176
G1 X189.075 Y129.000 E48.52686
G1 X188.678 Y131.337 E48.69370
G1 X187.531 Y133.412 E48.86054
G1 X185.763 Y134.991 E49.02738
G1 X183.572 Y135.898 E49.19422
G1 X182.000 Y136.075 E49.30558
G1 X36.000 Y136.075 E59.58069
G1 X33.663 Y135.678 E59.74752
G1 X31.588 Y134.531 E59.91436
G1 X30.009 Y132.763 E60.08120
G1 X29.102 Y130.572 E60.24804
G1 X28.925 Y129.000 E60.35940
G1 X28.925 Y89.000 E63.17450
G1 X29.322 Y86.663 E63.34133
G1 X30.469 Y84.588 E63.50817
G1 X32.237 Y83.009 E63.67501
G1 X34.104 Y82.236 E63.81719
G1 X34.357 Y82.900 F7800.000
G1 X36.000 Y82.463 E63.93682 F1200.000
G1 X182.000 Y82.463 E74.21193
G1 X184.243 Y82.860 E74.37226
G1 X186.214 Y84.002 E74.53259 F1200.000
G1 X187.673 Y85.752 E74.69292
G1 X188.537 Y89.000 E74.92948
G1 X188.537 Y129.000 E77.74458
G1 X188.140 Y131.243 E77.90491
G1 X186.998 Y133.214 E78.06524
G1 X185.248 Y134.673 E78.22556
G1 X182.000 Y135.537 E78.46212
G1 X36.000 Y135.537 E88.73723
G1 X33.757 Y135.140 E88.89756
G1 X31.786 Y133.998 E89.05789
G1 X30.327 Y132.248 E89.21822
G1 X29.463 Y129.000 E89.45478
G1 X29.463 Y89.000 E92.26988
G1 X29.860 Y86.757 E92.43021
G1 X31.002 Y84.786 E92.59054
G1 X32.752 Y83.327 E92.75087
G1 X34.285 Y82.919 E92.86251
G1 E87.86251 F2760.00000
G92 E0
G1 X112.306 Y128.694 F7800.000
G1 E5.00000 F2760.00000
G1 X112.306 Y89.306 E7.77199 F1200.000
G1 X181.694 Y89.306 E12.65531
G1 X181.694 Y98.194 E13.28079
G1 X166.995 Y98.194 E14.31524
G1 X166.321 Y98.215 E14.36268
G1 X165.646 Y98.279 E14.41045
G1 X164.975 Y98.385 E14.45823
G1 X164.313 Y98.533 E14.50600
G1 X163.661 Y98.722 E14.55379
G1 X163.022 Y98.952 E14.60156
G1 X162.399 Y99.222 E14.64935
G1 X161.784 Y99.536 E14.69794
G1 X161.210 Y99.876 E14.74490
G1 X160.648 Y100.257 E14.79267
G1 X160.112 Y100.674 E14.84045
G1 X159.603 Y101.122 E14.88822
G1 X159.122 Y101.603 E14.93601
G1 X158.674 Y102.112 E14.98378
G1 X158.257 Y102.648 E15.03156
G1 X157.876 Y103.210 E15.07933
G1 X157.530 Y103.794 E15.12711
G1 X157.227 Y104.388 E15.17407
G1 X156.952 Y105.022 E15.22266
G1 X156.722 Y105.661 E15.27044
G1 X156.533 Y106.313 E15.31822
G1 X156.385 Y106.975 E15.36600
G1 X156.281 Y107.634 E15.41295
G1 X156.215 Y108.321 E15.46154
G1 X156.194 Y109.000 E15.50933
G1 X156.215 Y109.679 E15.55711
G1 X156.279 Y110.354 E15.60489
G1 X156.385 Y111.025 E15.65266
G1 X156.533 Y111.687 E15.70044
G1 X156.722 Y112.339 E15.74822
G1 X156.952 Y112.978 E15.79599
G1 X157.222 Y113.601 E15.84377
G1 X157.530 Y114.206 E15.89155
G1 X157.876 Y114.790 E15.93933
G1 X158.251 Y115.342 E15.98628
G1 X158.673 Y115.888 E16.03487
G1 X159.122 Y116.397 E16.08266
G1 X159.603 Y116.878 E16.13044
G1 X160.112 Y117.326 E16.17821
G1 X160.648 Y117.743 E16.22600
G1 X161.210 Y118.124 E16.27377
G1 X161.794 Y118.470 E16.32154
G1 X162.399 Y118.778 E16.36932
G1 X163.022 Y119.048 E16.41710
G1 X163.661 Y119.278 E16.46488
G1 X164.313 Y119.467 E16.51266
G1 X164.975 Y119.615 E16.56043
G1 X165.646 Y119.721 E16.60821
G1 X166.321 Y119.785 E16.65599
G1 X166.995 Y119.806 E16.70343
G1 X181.694 Y119.806 E17.73787
G1 X181.694 Y128.694 E18.36335
G1 X112.381 Y128.694 E23.24139
G1 X112.556 Y128.261 F7800.000
G1 X164.756 Y95.924 F7800.000
G1 X164.529 Y95.478 E23.27660 F1200.000
G1 X164.389 Y94.998 E23.31180
G1 X164.342 Y94.500 E23.34700
G1 X164.389 Y94.002 E23.38220
G1 X164.529 Y93.522 E23.41741
G1 X164.756 Y93.076 E23.45261
G1 X165.063 Y92.681 E23.48782
G1 X165.438 Y92.350 E23.52302
G1 X165.868 Y92.095 E23.55822
G1 X166.335 Y91.928 E23.59309
G1 X166.667 Y91.864 E23.61691
G1 X167.002 Y91.843 E23.64054 F1200.000
G1 X167.498 Y91.889 E23.67558
G1 X167.978 Y92.029 E23.71079
G1 X168.424 Y92.256 E23.74600
G1 X168.815 Y92.560 E23.78086
G1 X169.047 Y92.806 E23.80468
G1 X169.246 Y93.080 E23.82850
G1 X169.471 Y93.522 E23.86337
G1 X169.611 Y94.002 E23.89857
G1 X169.658 Y94.500 E23.93377
G1 X169.611 Y94.998 E23.96897
G1 X169.471 Y95.478 E24.00418
G1 X169.244 Y95.924 E24.03938
G1 X168.937 Y96.319 E24.07459
G1 X168.562 Y96.650 E24.10979
G1 X168.132 Y96.905 E24.14499
G1 X167.665 Y97.072 E24.17986
G1 X167.333 Y97.136 E24.20368
G1 X167.000 Y97.157 E24.22716
G1 X166.667 Y97.136 E24.25064
G1 X166.335 Y97.072 E24.27446
G1 X165.868 Y96.905 E24.30933
G1 X165.438 Y96.650 E24.34453
G1 X165.063 Y96.319 E24.37973
G1 X164.802 Y95.983 E24.40966
G1 X164.256 Y95.929 F7800.000
G1 X165.812 Y97.723 F7800.000
G1 X164.874 Y97.857 E24.47629 F1200.000
G1 X164.179 Y98.012 E24.52644
G1 X163.495 Y98.211 E24.57660
G1 X162.824 Y98.453 E24.62675
G1 X162.169 Y98.736 E24.67694
G1 X161.525 Y99.065 E24.72791
G1 X160.922 Y99.422 E24.77722
G1 X160.332 Y99.822 E24.82736
G1 X159.769 Y100.259 E24.87753
G1 X159.234 Y100.731 E24.92768
G1 X158.731 Y101.234 E24.97784
G1 X158.259 Y101.769 E25.02799
G1 X157.822 Y102.332 E25.07815
G1 X157.422 Y102.922 E25.12830
G1 X157.059 Y103.535 E25.17845
G1 X156.741 Y104.159 E25.22776
G1 X156.453 Y104.824 E25.27873
G1 X156.211 Y105.495 E25.32892
G1 X156.012 Y106.179 E25.37907
G1 X155.857 Y106.874 E25.42922
G1 X155.747 Y107.566 E25.47853
G1 X155.678 Y108.287 E25.52950
G1 X155.656 Y109.000 E25.57969
G1 X155.678 Y109.712 E25.62984
G1 X155.745 Y110.422 E25.68000
G1 X155.857 Y111.126 E25.73015
G1 X156.012 Y111.821 E25.78030
G1 X156.211 Y112.505 E25.83046
G1 X156.453 Y113.176 E25.88061
G1 X156.736 Y113.830 E25.93077
G1 X157.059 Y114.465 E25.98092
G1 X157.422 Y115.078 E26.03108
G1 X157.816 Y115.658 E26.08038
G1 X158.259 Y116.231 E26.13135
G1 X158.731 Y116.766 E26.18154
G1 X159.234 Y117.269 E26.23170
G1 X159.769 Y117.741 E26.28185
G1 X160.332 Y118.178 E26.33201
G1 X160.922 Y118.578 E26.38216
G1 X161.535 Y118.941 E26.43231
G1 X162.170 Y119.264 E26.48246
G1 X162.824 Y119.547 E26.53262
G1 X163.495 Y119.789 E26.58278
G1 X164.179 Y119.988 E26.63293
G1 X164.874 Y120.143 E26.68308
G1 X165.812 Y120.277 E26.74972
G1 X165.844 Y120.533 E26.76790
G1 X165.639 Y120.607 E26.78328
G1 X165.121 Y120.913 E26.82562
G1 X164.669 Y121.311 E26.86798
G1 X164.300 Y121.787 E26.91033
G1 X164.027 Y122.323 E26.95269
G1 X163.859 Y122.901 E26.99505
G1 X163.803 Y123.500 E27.03739
G1 X163.859 Y124.099 E27.07974
G1 X164.027 Y124.677 E27.12210
G1 X164.300 Y125.213 E27.16445
G1 X164.661 Y125.678 E27.20587
G1 X164.963 Y125.962 E27.23505
G1 X165.299 Y126.206 E27.26422
G1 X165.823 Y126.473 E27.30564
G1 X166.401 Y126.641 E27.34800
G1 X167.000 Y126.697 E27.39035
G1 X167.599 Y126.641 E27.43269
G1 X168.177 Y126.473 E27.47505
G1 X168.713 Y126.200 E27.51741
G1 X169.178 Y125.839 E27.55883
G1 X169.462 Y125.537 E27.58800
G1 X169.706 Y125.201 E27.61717
G1 X169.973 Y124.677 E27.65859
G1 X170.141 Y124.099 E27.70095
G1 X170.197 Y123.500 E27.74330
G1 X170.141 Y122.901 E27.78565
G1 X169.973 Y122.323 E27.82800
G1 X169.706 Y121.799 E27.86942
G1 X169.462 Y121.463 E27.89859
G1 X169.178 Y121.161 E27.92777
G1 X168.713 Y120.800 E27.96919
G1 X168.302 Y120.591 E28.00167
G1 X168.361 Y120.344 E28.01956
G1 X181.156 Y120.344 E28.92003
G1 X181.156 Y128.156 E29.46987
G1 X112.844 Y128.156 E34.27755
G1 X112.844 Y89.844 E36.97390
G1 X181.156 Y89.844 E41.78158
G1 X181.156 Y97.656 E42.33142
G1 X168.383 Y97.656 E43.23041
G1 X168.318 Y97.419 E43.24773
G1 X168.879 Y97.087 E43.29366
G1 X169.331 Y96.689 E43.33602
G1 X169.700 Y96.213 E43.37837
G1 X169.973 Y95.677 E43.42073
G1 X170.141 Y95.099 E43.46308
G1 X170.197 Y94.500 E43.50543
G1 X170.141 Y93.901 E43.54778
G1 X169.973 Y93.323 E43.59014
G1 X169.706 Y92.799 E43.63155
G1 X169.462 Y92.463 E43.66073
G1 X169.178 Y92.161 E43.68991
G1 X168.713 Y91.800 E43.73132
G1 X168.177 Y91.527 E43.77368
G1 X167.599 Y91.359 E43.81606
G1 X167.010 Y91.304 E43.85765
G1 X166.599 Y91.330 E43.88663
G1 X166.192 Y91.408 E43.91580
G1 X165.639 Y91.607 E43.95721
G1 X165.121 Y91.913 E43.99956
G1 X164.669 Y92.311 E44.04192
G1 X164.300 Y92.787 E44.08427
G1 X164.027 Y93.323 E44.12663
G1 X163.859 Y93.901 E44.16898
G1 X163.803 Y94.500 E44.21133
G1 X163.859 Y95.099 E44.25369
G1 X164.027 Y95.677 E44.29604
G1 X164.300 Y96.213 E44.33839
G1 X164.669 Y96.689 E44.38075
G1 X165.121 Y97.087 E44.42310
G1 X165.639 Y97.393 E44.46545
G1 X165.844 Y97.467 E44.48082
G1 X165.821 Y97.649 E44.49372
G1 X164.621 Y97.363 F7800.000
G1 X164.045 Y97.492 E44.53526 F1200.000
G1 X163.328 Y97.700 E44.58779
G1 X162.626 Y97.953 E44.64032
G1 X161.940 Y98.249 E44.69291
G1 X161.265 Y98.594 E44.74625
G1 X160.633 Y98.968 E44.79792
G1 X160.016 Y99.387 E44.85044
G1 X159.426 Y99.845 E44.90298
G1 X158.866 Y100.339 E44.95551
G1 X158.339 Y100.866 E45.00804
G1 X157.845 Y101.426 E45.06057
G1 X157.387 Y102.016 E45.11312
G1 X156.968 Y102.633 E45.16564
G1 X156.588 Y103.276 E45.21817
G1 X156.255 Y103.930 E45.26983
G1 X155.953 Y104.625 E45.32318
G1 X155.700 Y105.328 E45.37577
G1 X155.492 Y106.045 E45.42830
G1 X155.329 Y106.774 E45.48082
G1 X155.214 Y107.499 E45.53249
G1 X155.142 Y108.253 E45.58584
G1 X155.118 Y109.000 E45.63842
G1 X155.142 Y109.746 E45.69095
G1 X155.212 Y110.489 E45.74349
G1 X155.329 Y111.226 E45.79602
G1 X155.492 Y111.955 E45.84854
G1 X155.700 Y112.672 E45.90107
G1 X155.953 Y113.374 E45.95361
G1 X156.249 Y114.059 E46.00615
G1 X156.588 Y114.724 E46.05868
G1 X156.968 Y115.367 E46.11121
G1 X157.381 Y115.974 E46.16286
G1 X157.844 Y116.573 E46.21622
G1 X158.339 Y117.134 E46.26880
G1 X158.866 Y117.661 E46.32133
G1 X159.426 Y118.155 E46.37386
G1 X160.016 Y118.613 E46.42640
G1 X160.633 Y119.032 E46.47892
G1 X161.276 Y119.412 E46.53145
G1 X161.941 Y119.751 E46.58398
G1 X162.626 Y120.047 E46.63652
G1 X163.328 Y120.300 E46.68906
G1 X164.045 Y120.508 E46.74159
G1 X164.621 Y120.637 E46.78312
G1 X164.276 Y120.942 E46.81553
G1 X163.845 Y121.498 E46.86504
G1 X163.525 Y122.124 E46.91454
G1 X163.329 Y122.800 E46.96405
G1 X163.263 Y123.500 E47.01355
G1 X163.329 Y124.200 E47.06304
G1 X163.525 Y124.876 E47.11255
G1 X163.845 Y125.502 E47.16206
G1 X164.262 Y126.041 E47.21003
G1 X164.620 Y126.377 E47.24456
G1 X165.017 Y126.665 E47.27908
G1 X165.624 Y126.975 E47.32706
G1 X166.300 Y127.171 E47.37657
G1 X167.000 Y127.237 E47.42606
G1 X167.700 Y127.171 E47.47556
G1 X168.376 Y126.975 E47.52507
G1 X169.002 Y126.655 E47.57458
G1 X169.541 Y126.238 E47.62255
G1 X169.877 Y125.880 E47.65708
G1 X170.165 Y125.483 E47.69160
G1 X170.475 Y124.876 E47.73958
G1 X170.671 Y124.200 E47.78909
G1 X170.737 Y123.500 E47.83858
G1 X170.671 Y122.800 E47.88808
G1 X170.475 Y122.124 E47.93759
G1 X170.165 Y121.517 E47.98556
G1 X169.703 Y120.881 E48.04088
G1 X180.619 Y120.881 E48.80911
G1 X180.619 Y127.619 E49.28331
G1 X113.381 Y127.619 E54.01535
G1 X113.381 Y90.381 E56.63606
G1 X180.619 Y90.381 E61.36810
G1 X180.619 Y97.119 E61.84230
G1 X169.677 Y97.119 E62.61235
G1 X170.155 Y96.502 E62.66726
G1 X170.475 Y95.876 E62.71676
G1 X170.671 Y95.200 E62.76627
G1 X170.737 Y94.500 E62.81577
G1 X170.671 Y93.800 E62.86527
G1 X170.475 Y93.124 E62.91478
G1 X170.165 Y92.517 E62.96274
G1 X169.877 Y92.120 E62.99728
G1 X169.541 Y91.762 E63.03181
G1 X169.002 Y91.345 E63.07977
G1 X168.376 Y91.025 E63.12928
G1 X167.700 Y90.829 E63.17882
G1 X167.018 Y90.765 E63.22698
G1 X166.532 Y90.796 E63.26129
G1 X166.050 Y90.888 E63.29581
G1 X165.409 Y91.118 E63.34378
G1 X164.803 Y91.477 E63.39328
G1 X164.276 Y91.942 E63.44279
G1 X163.845 Y92.498 E63.49229
G1 X163.525 Y93.124 E63.54180
G1 X163.329 Y93.800 E63.59130
G1 X163.263 Y94.500 E63.64080
G1 X163.329 Y95.200 E63.69030
G1 X163.525 Y95.876 E63.73981
G1 X163.845 Y96.502 E63.78931
G1 X164.276 Y97.058 E63.83882
G1 X164.565 Y97.313 E63.86595
G1 E58.86595 F2760.00000
G92 E0
G1 X125.108 Y99.000 F7800.000
G1 E5.00000 F2760.00000
G1 X125.053 Y99.582 E5.04117 F1200.000
G1 X124.889 Y100.144 E5.08233
G1 X124.624 Y100.663 E5.12335
G1 X124.394 Y100.980 E5.15095
G1 X124.123 Y101.268 E5.17875
G1 X123.665 Y101.624 E5.21957
G1 X123.144 Y101.889 E5.26074
G1 X122.582 Y102.053 E5.30190
G1 X122.000 Y102.108 E5.34306
G1 X121.418 Y102.053 E5.38423
G1 X120.856 Y101.889 E5.42539
G1 X120.335 Y101.624 E5.46656
G1 X119.874 Y101.266 E5.50758
G1 X119.606 Y100.980 E5.53518
G1 X119.374 Y100.661 E5.56298
G1 X119.111 Y100.144 E5.60380
G1 X118.947 Y99.582 E5.64496
G1 X118.892 Y99.000 E5.68613
G1 X118.947 Y98.418 E5.72729
G1 X119.111 Y97.856 E5.76845
G1 X119.376 Y97.335 E5.80962
G1 X119.735 Y96.873 E5.85078
G1 X120.173 Y96.486 E5.89195
G1 X120.677 Y96.188 E5.93311
G1 X121.223 Y95.992 E5.97393
G1 X121.611 Y95.918 E6.00173
G1 X122.002 Y95.893 E6.02930 F1200.000
G1 X122.582 Y95.947 E6.07035
G1 X123.144 Y96.111 E6.11151
G1 X123.665 Y96.376 E6.15268
G1 X124.123 Y96.732 E6.19350
G1 X124.394 Y97.020 E6.22130
G1 X124.626 Y97.339 E6.24910
G1 X124.889 Y97.856 E6.28992
G1 X125.053 Y98.418 E6.33109
G1 X125.101 Y98.925 E6.36697
G1 X125.533 Y99.263 F7800.000
G1 X125.643 Y98.949 F7800.000
G1 X125.583 Y99.683 E6.41881 F1200.000
G1 X125.391 Y100.343 E6.46713
G1 X125.084 Y100.945 E6.51471
G1 X124.809 Y101.324 E6.54766
G1 X124.486 Y101.667 E6.58080
G1 X123.954 Y102.080 E6.62817
G1 X123.343 Y102.391 E6.67649
G1 X122.683 Y102.583 E6.72480
G1 X122.000 Y102.647 E6.77312
G1 X121.317 Y102.583 E6.82143
G1 X120.657 Y102.391 E6.86975
G1 X120.045 Y102.079 E6.91808
G1 X119.512 Y101.665 E6.96565
G1 X119.191 Y101.324 E6.99859
G1 X118.914 Y100.942 E7.03175
G1 X118.609 Y100.343 E7.07912
G1 X118.417 Y99.684 E7.12743
G1 X118.353 Y99.000 E7.17575
G1 X118.417 Y98.317 E7.22406
G1 X118.609 Y97.657 E7.27237
G1 X118.920 Y97.046 E7.32069
G1 X119.341 Y96.503 E7.36900
G1 X119.856 Y96.049 E7.41732
G1 X120.447 Y95.700 E7.46563
G1 X121.080 Y95.472 E7.51301
G1 X121.543 Y95.383 E7.54615
G1 X122.010 Y95.354 E7.57907 F1200.000
G1 X122.683 Y95.417 E7.62667
G1 X123.343 Y95.609 E7.67500
G1 X123.954 Y95.920 E7.72332
G1 X124.486 Y96.333 E7.77069
G1 X124.809 Y96.676 E7.80384
G1 X125.086 Y97.057 E7.83700
G1 X125.391 Y97.657 E7.88438
G1 X125.583 Y98.317 E7.93269
G1 X125.636 Y98.875 E7.97215
G1 X126.178 Y98.899 F7800.000
G1 X126.187 Y99.000 E7.97930 F1200.000
G1 X126.113 Y99.785 E8.03477
G1 X125.893 Y100.542 E8.09026
G1 X125.543 Y101.227 E8.14439
G1 X125.223 Y101.667 E8.18268
G1 X124.849 Y102.066 E8.22118
G1 X124.244 Y102.535 E8.27510
G1 X123.541 Y102.893 E8.33057
G1 X122.785 Y103.113 E8.38603
G1 X122.000 Y103.187 E8.44149
G1 X121.215 Y103.113 E8.49696
G1 X120.459 Y102.893 E8.55242
G1 X119.756 Y102.535 E8.60792
G1 X119.149 Y102.063 E8.66205
G1 X118.776 Y101.667 E8.70033
G1 X118.455 Y101.224 E8.73884
G1 X118.107 Y100.541 E8.79276
G1 X117.887 Y99.785 E8.84822
G1 X117.813 Y99.000 E8.90369
G1 X117.887 Y98.215 E8.95915
G1 X118.107 Y97.459 E9.01462
G1 X118.465 Y96.756 E9.07008
G1 X118.948 Y96.134 E9.12555
G1 X119.539 Y95.612 E9.18101
G1 X120.217 Y95.211 E9.23647
