; generated by Slic3r 1.2.9 on 2017-08-11 at 23:18:23

; external perimeters extrusion width = 0.50mm
; perimeters extrusion width = 0.38mm
; infill extrusion width = 0.72mm
; solid infill extrusion width = 0.72mm
; top infill extrusion width = 0.72mm
; support material extrusion width = 0.50mm

M107
M190 S60 ; set bed temperature
M104 S210 ; set temperature
G28 X0 Y0
G28 Z0
G1 Z0.3 F200
G1 X15 Y20 F12000
M109 S210 ; wait for temperature to be reached
G21 ; set units to millimeters
G90 ; use absolute coordinates
M82 ; use absolute distances for extrusion
G92 E0
G1 E-5.00000 F2760.00000
G92 E0
G1 Z0.350 F7800.000
G1 X31.166 Y76.554 F7800.000
G1 E5.00000 F2760.00000
G1 X78.166 Y66.554 E8.38178 F1200.000
G1 X79.750 Y66.388 E8.49389
G1 X184.000 Y66.388 E15.83074
G1 X186.427 Y66.785 E16.00384
G1 X188.601 Y67.936 E16.17694 F1200.000
G1 X190.295 Y69.720 E16.35004
G1 X191.368 Y72.088 E16.53303
G1 X193.960 Y82.076 E17.25925
G1 X194.204 Y83.988 E17.39493
G1 X194.204 Y134.360 E20.93998
G1 X193.943 Y136.337 E21.08030
G1 X191.351 Y145.977 E21.78284
G1 X190.337 Y148.218 E21.95594
G1 X188.661 Y150.018 E22.12904
G1 X186.499 Y151.190 E22.30214
G1 X184.000 Y151.612 E22.48050
G1 X79.750 Y151.612 E29.81735
G1 X78.166 Y151.446 E29.92946
G1 X31.166 Y141.446 E33.31124
G1 X28.874 Y140.552 E33.48434
G1 X26.988 Y138.974 E33.65744
G1 X25.702 Y136.877 E33.83054
G1 X25.138 Y134.000 E34.03686
G1 X25.138 Y84.000 E37.55574
G1 X25.535 Y81.573 E37.72884
G1 X26.686 Y79.399 E37.90194
G1 X28.470 Y77.705 E38.07504
G1 X31.097 Y76.584 E38.27608
G1 X31.278 Y77.080 F7800.000
G1 X78.278 Y67.080 E41.65786 F1200.000
G1 X79.750 Y66.925 E41.76205
G1 X184.000 Y66.925 E49.09890
G1 X186.337 Y67.322 E49.26574
G1 X188.412 Y68.469 E49.43258 F1200.000
G1 X189.991 Y70.237 E49.59942
G1 X190.848 Y72.223 E49.75161
G1 X193.440 Y82.211 E50.47783
G1 X193.667 Y83.988 E50.60393
G1 X193.667 Y134.360 E54.14898
G1 X193.424 Y136.197 E54.27940
G1 X190.832 Y145.837 E54.98193
G1 X189.842 Y147.991 E55.14877
G1 X188.195 Y149.697 E55.31561
G1 X186.078 Y150.763 E55.48245
G1 X184.000 Y151.075 E55.63032
G1 X79.750 Y151.075 E62.96717
G1 X78.278 Y150.920 E63.07136
G1 X31.278 Y140.920 E66.45315
G1 X29.074 Y140.045 E66.61998
G1 X27.284 Y138.491 E66.78682
G1 X26.107 Y136.434 E66.95366
G1 X25.675 Y134.000 E67.12760
G1 X25.675 Y84.000 E70.64648
G1 X26.072 Y81.663 E70.81332
G1 X27.219 Y79.588 E70.98015
G1 X28.987 Y78.009 E71.14699
G1 X31.208 Y77.108 E71.31566
G1 X31.390 Y77.606 F7800.000
G1 X78.390 Y67.606 E74.69744 F1200.000
G1 X79.750 Y67.463 E74.79372
G1 X184.000 Y67.463 E82.13057
G1 X186.243 Y67.860 E82.29090
G1 X188.214 Y69.002 E82.45123 F1200.000
G1 X189.673 Y70.752 E82.61156
G1 X190.328 Y72.358 E82.73361
G1 X192.920 Y82.346 E83.45984
G1 X193.130 Y83.988 E83.57635
G1 X193.130 Y134.360 E87.12140
G1 X192.905 Y136.058 E87.24192
G1 X190.313 Y145.698 E87.94445
G1 X189.347 Y147.761 E88.10478
G1 X187.732 Y149.367 E88.26511
G1 X185.664 Y150.322 E88.42544
G1 X184.000 Y150.537 E88.54350
G1 X79.750 Y150.537 E95.88035
G1 X78.390 Y150.394 E95.97662
G1 X31.390 Y140.394 E99.35840
G1 X29.278 Y139.539 E99.51873
G1 X27.588 Y138.011 E99.67906
G1 X26.525 Y135.997 E99.83939
G1 X26.213 Y134.000 E99.98161
G1 X26.213 Y84.000 E103.50049
G1 X26.610 Y81.757 E103.66081
G1 X27.752 Y79.786 E103.82114
G1 X29.502 Y78.327 E103.98147
G1 X31.319 Y77.632 E104.11841
G1 E99.11841 F2760.00000
G92 E0
G1 X156.413 Y95.467 F7800.000
G1 E5.00000 F2760.00000
G1 X156.891 Y96.007 E5.05076 F1200.000
G1 X157.155 Y96.262 E5.07656
G1 X157.534 Y96.586 E5.11164
G1 E0.11164 F2760.00000
G92 E0
G1 X130.467 Y96.587 F7800.000
G1 E5.00000 F2760.00000
G1 X131.014 Y96.102 E5.05145 F1200.000
G1 X131.601 Y95.477 E5.11177
G1 E0.11177 F2760.00000
G92 E0
G1 X131.585 Y122.534 F7800.000
G1 E5.00000 F2760.00000
G1 X131.261 Y122.155 E5.03507 F1200.000
G1 X131.007 Y121.891 E5.06086
G1 X130.467 Y121.413 E5.11162
G1 E0.11162 F2760.00000
G92 E0
G1 X157.510 Y121.412 F7800.000
G1 E5.00000 F2760.00000
G1 X156.898 Y121.986 E5.05905 F1200.000
G1 X156.413 Y122.533 E5.11050
G1 E0.11050 F2760.00000
G92 E0
G1 X159.306 Y133.694 F7800.000
G1 E5.00000 F2760.00000
G1 X112.306 Y133.694 E8.30774 F1200.000
G1 X112.306 Y84.306 E11.78351
G1 X159.306 Y84.306 E15.09125
G1 X159.306 Y74.306 E15.79502
G1 X183.694 Y74.306 E17.51135
G1 X183.694 Y143.694 E22.39467
G1 X159.306 Y143.694 E24.11100
G1 X159.306 Y133.769 E24.80950
G1 X159.306 Y133.194 F7800.000
G1 X159.844 Y133.156 F7800.000
G1 X112.844 Y133.156 E28.11724 F1200.000
G1 X112.844 Y84.844 E31.51737
G1 X159.844 Y84.844 E34.82511
G1 X159.844 Y74.844 E35.52888
G1 X183.156 Y74.844 E37.16957
G1 X183.156 Y143.156 E41.97725
G1 X159.844 Y143.156 E43.61794
G1 X159.844 Y133.231 E44.31644
G1 X160.381 Y132.619 F7800.000
G1 X113.381 Y132.619 E47.62418 F1200.000
G1 X113.381 Y85.381 E50.94866
G1 X160.381 Y85.381 E54.25640
G1 X160.381 Y75.381 E54.96018
G1 X182.619 Y75.381 E56.52523
G1 X182.619 Y142.619 E61.25727
G1 X160.381 Y142.619 E62.82232
G1 X160.381 Y132.694 E63.52081
G1 E58.52081 F2760.00000
G92 E0
G1 X156.119 Y122.709 F7800.000
G1 E5.00000 F2760.00000
G1 X155.669 Y123.105 E5.04220 F1200.000
G1 X154.760 Y123.810 E5.12314
G1 X153.809 Y124.457 E5.20407
G1 X152.819 Y125.042 E5.28501
G1 X151.794 Y125.564 E5.36595
G1 X150.739 Y126.021 E5.44688
G1 X149.657 Y126.410 E5.52782
G1 X148.553 Y126.731 E5.60876
G1 X147.430 Y126.982 E5.68969
G1 X146.294 Y127.162 E5.77063
G1 X145.149 Y127.270 E5.85157
G1 X144.000 Y127.306 E5.93250
G1 X142.851 Y127.270 E6.01344
G1 X141.706 Y127.162 E6.09437
G1 X140.570 Y126.982 E6.17531
G1 X139.447 Y126.731 E6.25625
G1 X138.334 Y126.408 E6.33784
G1 X137.261 Y126.021 E6.41812
G1 X136.206 Y125.564 E6.49906
G1 X135.181 Y125.042 E6.58000
G1 X134.215 Y124.471 E6.65893
G1 X133.240 Y123.810 E6.74185
G1 X132.331 Y123.105 E6.82280
G1 X131.881 Y122.709 E6.86500
G1 X131.677 Y122.838 E6.88204
G1 X131.856 Y123.455 E6.92723
G1 X131.908 Y124.000 E6.96575
G1 X131.856 Y124.545 E7.00428
G1 X131.702 Y125.074 E7.04308
G1 X131.457 Y125.554 E7.08096
G1 X131.240 Y125.853 E7.10699
G1 X130.987 Y126.123 E7.13301
G1 X130.558 Y126.455 E7.17119
G1 X130.070 Y126.703 E7.20970
G1 X129.545 Y126.856 E7.24821
G1 X129.005 Y126.907 E7.28639
G1 X128.636 Y126.884 E7.31242
G1 X128.277 Y126.816 E7.33815
G1 X127.762 Y126.631 E7.37661
G1 X127.291 Y126.352 E7.41514
G1 X126.880 Y125.990 E7.45365
G1 X126.545 Y125.558 E7.49217
G1 X126.297 Y125.070 E7.53069
G1 X126.144 Y124.545 E7.56919
G1 X126.092 Y124.000 E7.60771
G1 X126.144 Y123.455 E7.64623
G1 X126.297 Y122.930 E7.68474
G1 X126.545 Y122.442 E7.72326
G1 X126.880 Y122.010 E7.76177
G1 X127.291 Y121.648 E7.80028
G1 X127.762 Y121.369 E7.83880
G1 X128.272 Y121.185 E7.87697
G1 X128.636 Y121.116 E7.90300
G1 X129.001 Y121.093 E7.92873
G1 X129.545 Y121.144 E7.96720
G1 X130.162 Y121.323 E8.01240
G1 X130.291 Y121.119 E8.02944
G1 X129.895 Y120.669 E8.07164
G1 X129.190 Y119.760 E8.15258
G1 X128.543 Y118.809 E8.23351
G1 X127.958 Y117.819 E8.31445
G1 X127.436 Y116.794 E8.39539
G1 X126.979 Y115.739 E8.47633
G1 X126.590 Y114.657 E8.55726
G1 X126.269 Y113.553 E8.63819
G1 X126.020 Y112.445 E8.71811
G1 X125.838 Y111.294 E8.80007
G1 X125.730 Y110.149 E8.88101
G1 X125.694 Y109.000 E8.96194
G1 X125.730 Y107.851 E9.04288
G1 X125.838 Y106.706 E9.12382
G1 X126.018 Y105.569 E9.20477
G1 X126.277 Y104.420 E9.28769
G1 X126.590 Y103.343 E9.36662
G1 X126.979 Y102.261 E9.44756
G1 X127.436 Y101.206 E9.52850
G1 X127.958 Y100.181 E9.60944
G1 X128.544 Y99.191 E9.69039
G1 X129.207 Y98.217 E9.77331
G1 X129.895 Y97.331 E9.85224
G1 X130.291 Y96.881 E9.89444
G1 X130.162 Y96.677 E9.91148
G1 X129.545 Y96.856 E9.95667
G1 X129.000 Y96.908 E9.99519
G1 X128.455 Y96.856 E10.03370
G1 X127.930 Y96.703 E10.07221
G1 X127.446 Y96.457 E10.11039
G1 X127.147 Y96.240 E10.13643
G1 X126.877 Y95.987 E10.16245
G1 X126.545 Y95.558 E10.20063
G1 X126.297 Y95.070 E10.23914
G1 X126.144 Y94.545 E10.27765
G1 X126.092 Y94.000 E10.31617
G1 X126.144 Y93.455 E10.35469
G1 X126.297 Y92.930 E10.39320
G1 X126.545 Y92.442 E10.43171
G1 X126.880 Y92.010 E10.47023
G1 X127.291 Y91.648 E10.50875
G1 X127.762 Y91.369 E10.54726
G1 X128.272 Y91.185 E10.58543
G1 X128.636 Y91.116 E10.61146
G1 X129.001 Y91.093 E10.63719
G1 X129.545 Y91.144 E10.67566
G1 X130.070 Y91.297 E10.71418
G1 X130.558 Y91.545 E10.75269
G1 X130.987 Y91.877 E10.79087
G1 X131.240 Y92.147 E10.81690
G1 X131.457 Y92.446 E10.84293
G1 X131.703 Y92.930 E10.88111
G1 X131.856 Y93.455 E10.91962
G1 X131.908 Y94.000 E10.95813
G1 X131.856 Y94.545 E10.99666
G1 X131.676 Y95.162 E11.04190
G1 X131.881 Y95.292 E11.05894
G1 X132.331 Y94.895 E11.10121
G1 X133.240 Y94.190 E11.18215
G1 X134.191 Y93.543 E11.26308
G1 X135.181 Y92.958 E11.34402
G1 X136.206 Y92.436 E11.42496
G1 X137.261 Y91.979 E11.50590
G1 X138.343 Y91.590 E11.58683
G1 X139.447 Y91.269 E11.66777
G1 X140.570 Y91.018 E11.74870
G1 X141.706 Y90.838 E11.82964
G1 X142.851 Y90.730 E11.91058
G1 X143.972 Y90.694 E11.98951
G1 X145.149 Y90.730 E12.07243
G1 X146.294 Y90.838 E12.15338
G1 X147.430 Y91.018 E12.23432
G1 X148.553 Y91.269 E12.31526
G1 X149.630 Y91.582 E12.39419
G1 X150.739 Y91.979 E12.47711
G1 X151.794 Y92.436 E12.55806
G1 X152.819 Y92.958 E12.63900
G1 X153.809 Y93.543 E12.71994
G1 X154.760 Y94.190 E12.80087
G1 X155.669 Y94.895 E12.88181
G1 X156.119 Y95.291 E12.92401
G1 X156.323 Y95.162 E12.94105
G1 X156.144 Y94.545 E12.98624
G1 X156.092 Y94.000 E13.02476
G1 X156.144 Y93.455 E13.06327
G1 X156.297 Y92.930 E13.10178
G1 X156.545 Y92.442 E13.14030
G1 X156.880 Y92.010 E13.17882
G1 X157.291 Y91.648 E13.21733
G1 X157.762 Y91.369 E13.25585
G1 X158.272 Y91.185 E13.29402
G1 X158.636 Y91.116 E13.32004
G1 X159.001 Y91.093 E13.34578
G1 X159.545 Y91.144 E13.38424
G1 X160.070 Y91.297 E13.42277
G1 X160.558 Y91.545 E13.46129
G1 X160.990 Y91.880 E13.49980
G1 X161.352 Y92.291 E13.53831
G1 X161.631 Y92.762 E13.57684
G1 X161.816 Y93.277 E13.61530
G1 X161.884 Y93.636 E13.64103
G1 X161.907 Y94.000 E13.66672
G1 X161.884 Y94.364 E13.69242
G1 X161.815 Y94.728 E13.71844
G1 X161.631 Y95.238 E13.75662
G1 X161.352 Y95.709 E13.79513
G1 X160.990 Y96.120 E13.83364
G1 X160.558 Y96.455 E13.87216
G1 X160.070 Y96.703 E13.91068
G1 X159.545 Y96.856 E13.94919
G1 X159.000 Y96.908 E13.98771
G1 X158.455 Y96.856 E14.02622
G1 X157.838 Y96.677 E14.07142
G1 X157.709 Y96.881 E14.08845
G1 X158.105 Y97.331 E14.13065
G1 X158.810 Y98.240 E14.21159
G1 X159.457 Y99.191 E14.29252
G1 X160.042 Y100.181 E14.37348
G1 X160.575 Y101.232 E14.45640
G1 X161.021 Y102.261 E14.53533
G1 X161.408 Y103.334 E14.61562
G1 X161.731 Y104.447 E14.69721
G1 X161.982 Y105.570 E14.77816
G1 X162.165 Y106.734 E14.86108
G1 X162.270 Y107.851 E14.94002
G1 X162.306 Y109.000 E15.02095
G1 X162.270 Y110.149 E15.10188
G1 X162.162 Y111.294 E15.18282
G1 X161.982 Y112.430 E15.26376
G1 X161.731 Y113.553 E15.34470
G1 X161.410 Y114.657 E15.42563
G1 X161.021 Y115.739 E15.50657
G1 X160.564 Y116.794 E15.58750
G1 X160.042 Y117.819 E15.66845
G1 X159.457 Y118.809 E15.74938
G1 X158.810 Y119.760 E15.83031
G1 X158.105 Y120.669 E15.91125
G1 X157.693 Y121.136 E15.95512
G1 X157.834 Y121.343 E15.97272
G1 X158.272 Y121.185 E16.00553
G1 X158.636 Y121.116 E16.03155
G1 X159.001 Y121.093 E16.05729
G1 X159.545 Y121.144 E16.09575
G1 X160.070 Y121.297 E16.13427
G1 X160.558 Y121.545 E16.17279
G1 X160.990 Y121.880 E16.21131
G1 X161.352 Y122.291 E16.24982
G1 X161.631 Y122.762 E16.28835
G1 X161.816 Y123.277 E16.32681
G1 X161.884 Y123.636 E16.35254
G1 X161.907 Y124.000 E16.37823
G1 X161.884 Y124.364 E16.40392
G1 X161.815 Y124.728 E16.42995
G1 X161.631 Y125.238 E16.46812
G1 X161.352 Y125.709 E16.50664
G1 X160.990 Y126.120 E16.54515
G1 X160.558 Y126.455 E16.58367
G1 X160.070 Y126.703 E16.62219
G1 X159.545 Y126.856 E16.66070
G1 X159.005 Y126.907 E16.69887
G1 X158.636 Y126.884 E16.72490
G1 X158.277 Y126.816 E16.75063
G1 X157.762 Y126.631 E16.78909
G1 X157.291 Y126.352 E16.82762
G1 X156.880 Y125.990 E16.86613
G1 X156.545 Y125.558 E16.90465
G1 X156.297 Y125.070 E16.94317
G1 X156.144 Y124.545 E16.98168
G1 X156.092 Y124.000 E17.02020
G1 X156.144 Y123.455 E17.05871
G1 X156.323 Y122.838 E17.10391
G1 X156.182 Y122.749 E17.11567
G1 X156.005 Y123.196 F7800.000
G1 X155.542 Y123.884 F7800.000
G1 X155.076 Y124.245 E17.15712 F1200.000
G1 X154.097 Y124.911 E17.24043
G1 X153.078 Y125.513 E17.32374
G1 X152.023 Y126.051 E17.40706
G1 X150.937 Y126.521 E17.49038
G1 X149.823 Y126.922 E17.57369
G1 X148.686 Y127.252 E17.65700
G1 X147.531 Y127.510 E17.74031
G1 X146.362 Y127.695 E17.82363
G1 X145.183 Y127.807 E17.90694
G1 X144.000 Y127.844 E17.99025
G1 X142.817 Y127.807 E18.07357
G1 X141.638 Y127.695 E18.15688
G1 X140.469 Y127.510 E18.24020
G1 X139.314 Y127.252 E18.32351
G1 X138.168 Y126.919 E18.40749
G1 X137.063 Y126.521 E18.49015
G1 X135.977 Y126.051 E18.57345
G1 X134.922 Y125.513 E18.65677
G1 X133.928 Y124.925 E18.73805
G1 X132.924 Y124.246 E18.82334
G1 X132.458 Y123.884 E18.86484
G1 X132.386 Y124.646 E18.91873
G1 X132.203 Y125.273 E18.96468
G1 X131.917 Y125.836 E19.00911
G1 X131.655 Y126.196 E19.04048
G1 X131.349 Y126.521 E19.07186
G1 X130.847 Y126.911 E19.11659
G1 X130.269 Y127.205 E19.16225
G1 X129.646 Y127.386 E19.20791
G1 X129.013 Y127.446 E19.25264
G1 X128.568 Y127.418 E19.28402
G1 X128.135 Y127.336 E19.31508
G1 X127.533 Y127.120 E19.36011
G1 X126.974 Y126.789 E19.40580
G1 X126.487 Y126.360 E19.45146
G1 X126.089 Y125.847 E19.49713
G1 X125.795 Y125.269 E19.54280
G1 X125.614 Y124.646 E19.58846
G1 X125.553 Y124.000 E19.63413
G1 X125.614 Y123.354 E19.67979
G1 X125.795 Y122.731 E19.72545
G1 X126.089 Y122.153 E19.77112
G1 X126.487 Y121.640 E19.81679
G1 X126.974 Y121.211 E19.86245
G1 X127.532 Y120.881 E19.90812
G1 X128.130 Y120.665 E19.95284
G1 X128.568 Y120.582 E19.98421
G1 X129.120 Y120.547 E20.02314
G1 X128.755 Y120.076 E20.06506
G1 X128.089 Y119.097 E20.14838
G1 X127.487 Y118.078 E20.23169
G1 X126.949 Y117.023 E20.31501
G1 X126.479 Y115.937 E20.39832
G1 X126.078 Y114.823 E20.48163
G1 X125.748 Y113.687 E20.56492
G1 X125.492 Y112.546 E20.64723
G1 X125.304 Y111.362 E20.73158
G1 X125.193 Y110.183 E20.81489
G1 X125.156 Y109.000 E20.89820
G1 X125.193 Y107.817 E20.98151
G1 X125.304 Y106.638 E21.06483
G1 X125.490 Y105.468 E21.14819
G1 X125.756 Y104.286 E21.23349
G1 X126.078 Y103.177 E21.31477
G1 X126.479 Y102.063 E21.39808
G1 X126.949 Y100.977 E21.48139
G1 X127.487 Y99.922 E21.56471
G1 X128.090 Y98.902 E21.64807
G1 X128.773 Y97.901 E21.73337
G1 X129.116 Y97.458 E21.77279
G1 X128.354 Y97.386 E21.82664
G1 X127.731 Y97.205 E21.87230
G1 X127.165 Y96.917 E21.91704
G1 X126.804 Y96.655 E21.94843
G1 X126.479 Y96.349 E21.97980
G1 X126.089 Y95.847 E22.02454
G1 X125.795 Y95.269 E22.07020
G1 X125.614 Y94.646 E22.11586
G1 X125.553 Y94.000 E22.16152
G1 X125.614 Y93.354 E22.20719
G1 X125.795 Y92.731 E22.25285
G1 X126.089 Y92.153 E22.29852
G1 X126.487 Y91.640 E22.34419
G1 X126.974 Y91.211 E22.38985
G1 X127.532 Y90.881 E22.43551
G1 X128.130 Y90.665 E22.48024
G1 X128.568 Y90.582 E22.51161
G1 X129.009 Y90.554 E22.54268
G1 X129.646 Y90.614 E22.58771
G1 X130.269 Y90.795 E22.63340
G1 X130.847 Y91.089 E22.67906
G1 X131.349 Y91.479 E22.72379
G1 X131.655 Y91.804 E22.75517
G1 X131.917 Y92.165 E22.78657
G1 X132.205 Y92.731 E22.83130
G1 X132.386 Y93.354 E22.87695
G1 X132.458 Y94.116 E22.93081
G1 X132.924 Y93.755 E22.97226
G1 X133.903 Y93.089 E23.05557
G1 X134.922 Y92.487 E23.13889
G1 X135.977 Y91.949 E23.22221
G1 X137.063 Y91.479 E23.30552
G1 X138.177 Y91.078 E23.38883
G1 X139.314 Y90.748 E23.47215
G1 X140.469 Y90.490 E23.55546
G1 X141.638 Y90.305 E23.63877
G1 X142.817 Y90.193 E23.72209
G1 X143.971 Y90.157 E23.80336
G1 X145.183 Y90.193 E23.88866
G1 X146.362 Y90.305 E23.97202
G1 X147.531 Y90.490 E24.05534
G1 X148.686 Y90.748 E24.13865
G1 X149.795 Y91.070 E24.21993
G1 X150.936 Y91.479 E24.30523
G1 X152.023 Y91.949 E24.38859
G1 X153.078 Y92.487 E24.47190
G1 X154.097 Y93.089 E24.55522
G1 X155.076 Y93.755 E24.63853
G1 X155.542 Y94.116 E24.67998
G1 X155.614 Y93.354 E24.73384
G1 X155.795 Y92.731 E24.77950
G1 X156.089 Y92.153 E24.82516
G1 X156.487 Y91.640 E24.87084
G1 X156.974 Y91.211 E24.91650
G1 X157.532 Y90.881 E24.96216
G1 X158.130 Y90.665 E25.00688
G1 X158.568 Y90.582 E25.03826
G1 X159.009 Y90.554 E25.06933
G1 X159.646 Y90.614 E25.11435
