; generated by Slic3r 1.2.9 on 2017-08-22 at 17:30:48

; external perimeters extrusion width = 0.50mm
; perimeters extrusion width = 0.38mm
; infill extrusion width = 0.72mm
; solid infill extrusion width = 0.72mm
; top infill extrusion width = 0.72mm
; support material extrusion width = 0.50mm

M107
M190 S60 ; set bed temperature
M104 S210 ; set temperature
G28 X0 Y0
G28 Z0
G1 Z0.3 F200
G1 X15 Y20 F12000
M109 S210 ; wait for temperature to be reached
G21 ; set units to millimeters
G90 ; use absolute coordinates
M82 ; use absolute distances for extrusion
G92 E0
G1 E-5.00000 F2760.00000
G92 E0
G1 Z0.350 F7800.000
G1 X55.637 Y56.645 F7800.000
G1 E5.00000 F2760.00000
G1 X57.492 Y55.029 E5.17310 F1200.000
G1 X59.765 Y54.088 E5.34620
G1 X61.500 Y53.888 E5.46915
G1 X91.500 Y53.888 E7.58048
G1 X93.062 Y54.050 E7.69102
G1 X165.436 Y69.227 E12.89529 F1200.000
G1 X166.611 Y69.504 E12.98022
G1 X167.668 Y69.827 E13.05805
G1 X168.260 Y70.040 E13.10231
G1 X169.281 Y70.466 E13.18013
G1 X169.714 Y70.669 E13.21381
G1 X170.274 Y70.955 E13.25803
G1 X171.233 Y71.504 E13.33585
G1 X172.156 Y72.114 E13.41373
G1 X172.544 Y72.395 E13.44744
G1 X173.408 Y73.084 E13.52518
G1 X173.879 Y73.500 E13.56942
G1 X174.228 Y73.828 E13.60313
G1 X175.000 Y74.621 E13.68100
G1 X175.416 Y75.093 E13.72528
G1 X176.105 Y75.956 E13.80300
G1 X176.386 Y76.344 E13.83670
G1 X176.995 Y77.267 E13.91455
G1 X177.315 Y77.808 E13.95877
G1 X177.831 Y78.786 E14.03663
G1 X178.284 Y79.796 E14.11448
G1 X178.460 Y80.240 E14.14814
G1 X178.821 Y81.287 E14.22605
G1 X178.996 Y81.891 E14.27032
G1 X179.252 Y82.965 E14.34802
G1 X179.341 Y83.436 E14.38179
G1 X179.499 Y84.529 E14.45951
G1 X179.559 Y85.155 E14.50377
G1 X179.589 Y85.633 E14.53747
G1 X179.608 Y86.739 E14.61528
G1 X179.589 Y87.367 E14.65949
G1 X179.499 Y88.471 E14.73745
G1 X179.343 Y89.553 E14.81439
G1 X179.252 Y90.035 E14.84893
G1 X179.049 Y90.916 E14.91254
G1 X161.364 Y158.429 E19.82427
G1 X160.364 Y160.676 E19.99737
G1 X158.700 Y162.488 E20.17047
G1 X156.546 Y163.674 E20.34357
G1 X154.468 Y164.098 E20.49276
G1 X131.533 Y165.512 E22.10996
G1 X128.660 Y165.526 E22.31215
G1 X128.097 Y165.505 E22.35179
G1 X54.809 Y160.072 E27.52378
G1 X53.557 Y159.940 E27.61242
G1 X52.465 Y159.752 E27.69038
G1 X51.852 Y159.614 E27.73460
G1 X50.787 Y159.321 E27.81235
G1 X49.740 Y158.960 E27.89026
G1 X49.296 Y158.784 E27.92392
G1 X48.286 Y158.331 E28.00177
G1 X47.308 Y157.815 E28.07963
G1 X46.767 Y157.495 E28.12385
G1 X45.844 Y156.886 E28.20170
G1 X45.456 Y156.605 E28.23540
G1 X44.592 Y155.915 E28.31319
G1 X43.772 Y155.172 E28.39106
G1 X43.327 Y154.728 E28.43532
G1 X42.584 Y153.908 E28.51321
G1 X41.895 Y153.044 E28.59096
G1 X41.614 Y152.656 E28.62466
G1 X41.004 Y151.733 E28.70254
G1 X40.455 Y150.774 E28.78036
G1 X40.169 Y150.213 E28.82460
G1 X39.716 Y149.204 E28.90249
G1 X39.327 Y148.169 E28.98032
G1 X39.004 Y147.111 E29.05817
G1 X38.748 Y146.034 E29.13602
G1 X38.659 Y145.565 E29.16968
G1 X38.500 Y144.470 E29.24753
G1 X38.411 Y143.367 E29.32539
G1 X38.392 Y142.739 E29.36962
G1 X38.411 Y141.633 E29.44749
G1 X38.500 Y140.530 E29.52532
G1 X38.695 Y139.226 E29.61814
G1 X53.018 Y62.700 E35.09738
G1 X53.395 Y61.367 E35.19482
G1 X54.395 Y58.767 E35.39087
G1 X55.600 Y56.709 E35.55870
G1 X56.106 Y56.922 F7800.000
G1 X57.922 Y55.397 E35.72561 F1200.000
G1 X60.139 Y54.557 E35.89244
G1 X61.500 Y54.425 E35.98870
G1 X91.500 Y54.425 E38.10002
G1 X92.952 Y54.576 E38.20276
G1 X165.326 Y69.753 E43.40704 F1200.000
G1 X166.461 Y70.020 E43.48909
G1 X167.486 Y70.333 E43.56455
G1 X168.078 Y70.546 E43.60880
G1 X169.067 Y70.959 E43.68425
G1 X169.470 Y71.148 E43.71556
G1 X170.419 Y71.647 E43.79100
G1 X170.959 Y71.967 E43.83522
G1 X171.854 Y72.558 E43.91072
G1 X172.215 Y72.820 E43.94205
G1 X173.052 Y73.487 E44.01743
G1 X173.524 Y73.903 E44.06166
G1 X173.848 Y74.208 E44.09299
G1 X174.597 Y74.976 E44.16849
G1 X175.013 Y75.448 E44.21276
G1 X175.680 Y76.286 E44.28812
G1 X175.942 Y76.646 E44.31944
G1 X176.533 Y77.540 E44.39491
G1 X176.853 Y78.081 E44.43913
G1 X177.352 Y79.030 E44.51462
G1 X177.791 Y80.009 E44.59009
G1 X177.954 Y80.422 E44.62137
G1 X178.305 Y81.437 E44.69691
G1 X178.480 Y82.041 E44.74117
G1 X178.727 Y83.082 E44.81651
G1 X178.811 Y83.520 E44.84789
G1 X178.964 Y84.580 E44.92325
G1 X179.024 Y85.206 E44.96750
G1 X179.052 Y85.650 E44.99883
G1 X179.071 Y86.722 E45.07426
G1 X179.052 Y87.350 E45.11847
G1 X178.964 Y88.420 E45.19404
G1 X178.811 Y89.480 E45.26942
G1 X178.727 Y89.918 E45.30078
G1 X178.530 Y90.780 E45.36302
G1 X160.844 Y158.293 E50.27475
G1 X159.867 Y160.453 E50.44158
G1 X158.232 Y162.169 E50.60842
G1 X156.122 Y163.249 E50.77526
G1 X154.435 Y163.561 E50.89596
G1 X131.500 Y164.975 E52.51315
G1 X128.660 Y164.989 E52.71301
G1 X128.137 Y164.970 E52.74985
G1 X54.849 Y159.536 E57.92185
G1 X54.080 Y159.464 E57.97620
G1 X53.020 Y159.311 E58.05156
G1 X52.582 Y159.227 E58.08294
G1 X51.969 Y159.090 E58.12716
G1 X50.937 Y158.805 E58.20254
G1 X49.922 Y158.454 E58.27807
G1 X49.509 Y158.291 E58.30936
G1 X48.530 Y157.852 E58.38483
G1 X47.581 Y157.353 E58.46032
G1 X47.040 Y157.033 E58.50454
G1 X46.146 Y156.442 E58.58001
G1 X45.786 Y156.180 E58.61133
G1 X44.947 Y155.512 E58.68675
G1 X44.152 Y154.792 E58.76225
G1 X43.707 Y154.348 E58.80650
G1 X42.987 Y153.552 E58.88201
G1 X42.320 Y152.714 E58.95740
G1 X42.058 Y152.354 E58.98872
G1 X41.467 Y151.459 E59.06422
G1 X40.933 Y150.530 E59.13967
G1 X40.648 Y149.970 E59.18390
G1 X40.209 Y148.990 E59.25941
G1 X39.833 Y147.986 E59.33487
G1 X39.520 Y146.961 E59.41034
G1 X39.273 Y145.917 E59.48582
G1 X39.091 Y144.860 E59.56134
G1 X38.976 Y143.794 E59.63678
G1 X38.948 Y143.350 E59.66806
G1 X38.929 Y142.278 E59.74355
G1 X38.976 Y141.206 E59.81903
G1 X39.091 Y140.140 E59.89451
G1 X39.223 Y139.325 E59.95263
G1 X53.546 Y62.798 E65.43187
G1 X53.897 Y61.560 E65.52244
G1 X54.897 Y58.960 E65.71849
G1 X56.068 Y56.987 E65.87997
G1 X56.573 Y57.204 F7800.000
G1 X58.348 Y55.773 E66.04046 F1200.000
G1 X61.500 Y54.963 E66.26949
G1 X91.500 Y54.963 E68.38081
G1 X92.842 Y55.102 E68.47575
G1 X165.216 Y70.279 E73.68002 F1200.000
G1 X166.311 Y70.536 E73.75920
G1 X167.304 Y70.838 E73.83228
G1 X167.896 Y71.051 E73.87654
G1 X168.854 Y71.452 E73.94961
G1 X169.226 Y71.627 E73.97854
G1 X169.786 Y71.912 E74.02275
G1 X170.686 Y72.430 E74.09583
G1 X171.552 Y73.003 E74.16895
G1 X171.885 Y73.245 E74.19790
G1 X172.697 Y73.891 E74.27091
G1 X173.168 Y74.306 E74.31514
G1 X173.468 Y74.588 E74.34409
G1 X174.194 Y75.332 E74.41721
G1 X174.610 Y75.803 E74.46148
G1 X175.255 Y76.615 E74.53447
G1 X175.497 Y76.948 E74.56342
G1 X176.070 Y77.814 E74.63651
G1 X176.390 Y78.355 E74.68073
G1 X176.873 Y79.274 E74.75384
G1 X177.297 Y80.222 E74.82694
G1 X177.449 Y80.604 E74.85585
G1 X177.789 Y81.587 E74.92900
G1 X177.964 Y82.191 E74.97326
G1 X178.203 Y83.200 E75.04623
G1 X178.280 Y83.604 E75.07523
G1 X178.429 Y84.631 E75.14823
G1 X178.489 Y85.257 E75.19248
G1 X178.514 Y85.667 E75.22142
G1 X178.534 Y86.705 E75.29448
G1 X178.514 Y87.333 E75.33869
G1 X178.429 Y88.369 E75.41189
G1 X178.280 Y89.396 E75.48489
G1 X178.203 Y89.800 E75.51387
G1 X178.010 Y90.644 E75.57474
G1 X160.324 Y158.157 E80.48647
G1 X159.372 Y160.226 E80.64680
G1 X157.767 Y161.843 E80.80713
G1 X155.705 Y162.811 E80.96746
G1 X154.402 Y163.025 E81.06033
G1 X131.467 Y164.439 E82.67753
G1 X128.660 Y164.452 E82.87506
G1 X128.177 Y164.434 E82.90910
G1 X54.889 Y159.000 E88.08110
G1 X54.131 Y158.929 E88.13468
G1 X53.104 Y158.780 E88.20767
G1 X52.700 Y158.703 E88.23667
G1 X52.086 Y158.566 E88.28089
G1 X51.087 Y158.289 E88.35390
G1 X50.104 Y157.949 E88.42706
G1 X49.722 Y157.797 E88.45596
G1 X48.774 Y157.373 E88.52906
G1 X47.855 Y156.890 E88.60217
G1 X47.314 Y156.570 E88.64639
G1 X46.448 Y155.997 E88.71949
G1 X46.115 Y155.755 E88.74843
G1 X45.303 Y155.109 E88.82148
G1 X44.532 Y154.412 E88.89460
G1 X44.087 Y153.968 E88.93885
G1 X43.391 Y153.197 E89.01198
G1 X42.751 Y152.394 E89.08422
G1 X42.503 Y152.052 E89.11394
G1 X41.930 Y151.186 E89.18707
G1 X41.412 Y150.286 E89.26014
G1 X41.127 Y149.726 E89.30438
G1 X40.702 Y148.777 E89.37751
G1 X40.338 Y147.804 E89.45059
G1 X40.036 Y146.811 E89.52369
G1 X39.797 Y145.800 E89.59680
G1 X39.622 Y144.776 E89.66993
G1 X39.511 Y143.743 E89.74300
G1 X39.486 Y143.333 E89.77191
G1 X39.466 Y142.295 E89.84502
G1 X39.511 Y141.257 E89.91812
G1 X39.622 Y140.224 E89.99123
G1 X39.751 Y139.424 E90.04830
G1 X54.074 Y62.897 E95.52754
G1 X54.398 Y61.753 E95.61122
G1 X55.398 Y59.153 E95.80727
G1 X56.534 Y57.268 E95.96216
G1 E90.96216 F2760.00000
G92 E0
G1 X61.806 Y108.594 F7800.000
G1 E5.00000 F2760.00000
G1 X60.806 Y108.594 E5.07038 F1200.000
G1 X60.806 Y104.406 E5.36508
G1 X61.806 Y104.406 E5.43546
G1 X61.806 Y88.594 E6.54830
G1 X60.806 Y88.594 E6.61868
G1 X60.806 Y84.406 E6.91339
G1 X61.806 Y84.406 E6.98376
G1 X61.806 Y68.594 E8.09661
G1 X60.806 Y68.594 E8.16699
G1 X60.806 Y64.406 E8.46169
G1 X61.806 Y64.406 E8.53207
G1 X61.806 Y61.806 E8.71505
G1 X91.194 Y61.806 E10.78327
G1 X91.194 Y75.694 E11.76064
G1 X81.495 Y75.694 E12.44320
G1 X80.821 Y75.715 E12.49063
G1 X80.146 Y75.779 E12.53841
G1 X79.475 Y75.885 E12.58619
G1 X78.813 Y76.033 E12.63396
G1 X78.160 Y76.223 E12.68176
G1 X77.511 Y76.457 E12.73034
G1 X76.899 Y76.722 E12.77730
G1 X76.294 Y77.030 E12.82508
G1 X75.710 Y77.376 E12.87286
G1 X75.148 Y77.757 E12.92063
G1 X74.612 Y78.174 E12.96841
G1 X74.103 Y78.622 E13.01618
G1 X73.622 Y79.103 E13.06397
G1 X73.174 Y79.612 E13.11174
G1 X72.757 Y80.148 E13.15952
G1 X72.382 Y80.700 E13.20647
G1 X72.030 Y81.294 E13.25506
G1 X71.722 Y81.899 E13.30285
G1 X71.452 Y82.522 E13.35063
G1 X71.222 Y83.161 E13.39840
G1 X71.033 Y83.813 E13.44618
G1 X70.885 Y84.475 E13.49396
G1 X70.779 Y85.146 E13.54174
G1 X70.715 Y85.821 E13.58951
G1 X70.694 Y86.500 E13.63729
G1 X70.715 Y87.179 E13.68507
G1 X70.779 Y87.854 E13.73285
G1 X70.885 Y88.525 E13.78062
G1 X71.033 Y89.187 E13.82840
G1 X71.222 Y89.839 E13.87618
G1 X71.452 Y90.478 E13.92395
G1 X71.722 Y91.101 E13.97174
G1 X72.030 Y91.706 E14.01951
G1 X72.376 Y92.290 E14.06729
G1 X72.757 Y92.852 E14.11506
G1 X73.174 Y93.388 E14.16285
G1 X73.622 Y93.897 E14.21062
G1 X74.094 Y94.369 E14.25758
G1 X74.612 Y94.826 E14.30616
G1 X75.148 Y95.243 E14.35396
G1 X75.710 Y95.624 E14.40173
G1 X76.294 Y95.970 E14.44951
G1 X76.899 Y96.278 E14.49728
G1 X77.522 Y96.548 E14.54506
G1 X78.161 Y96.778 E14.59284
G1 X78.813 Y96.967 E14.64062
G1 X79.475 Y97.115 E14.68839
G1 X80.146 Y97.221 E14.73617
G1 X80.821 Y97.285 E14.78395
G1 X81.495 Y97.306 E14.83139
G1 X91.194 Y97.306 E15.51395
G1 X91.194 Y111.194 E16.49131
G1 X61.806 Y111.194 E18.55953
G1 X61.806 Y108.669 E18.73724
G1 X61.806 Y108.094 F7800.000
G1 E13.73724 F2760.00000
G92 E0
G1 X80.080 Y74.246 F7800.000
G1 E5.00000 F2760.00000
G1 X79.807 Y74.047 E5.02382 F1200.000
G1 X79.560 Y73.815 E5.04764
G1 X79.256 Y73.424 E5.08251
G1 X79.029 Y72.978 E5.11771
G1 X78.889 Y72.498 E5.15292
G1 X78.842 Y72.000 E5.18812
G1 X78.889 Y71.502 E5.22331
G1 X79.029 Y71.022 E5.25852
G1 X79.256 Y70.576 E5.29372
G1 X79.563 Y70.181 E5.32893
G1 X79.938 Y69.850 E5.36413
G1 X80.368 Y69.595 E5.39934
G1 X80.835 Y69.428 E5.43420
G1 X81.167 Y69.364 E5.45802
G1 X81.502 Y69.343 E5.48165 F1200.000
G1 X81.998 Y69.389 E5.51669
G1 X82.478 Y69.529 E5.55191
G1 X82.924 Y69.756 E5.58711
G1 X83.315 Y70.060 E5.62197
G1 X83.547 Y70.306 E5.64579
G1 X83.746 Y70.580 E5.66962
G1 X83.971 Y71.022 E5.70448
G1 X84.111 Y71.502 E5.73969
G1 X84.158 Y72.000 E5.77489
G1 X84.111 Y72.498 E5.81008
G1 X83.971 Y72.978 E5.84530
G1 X83.745 Y73.422 E5.88035
G1 X83.547 Y73.694 E5.90398
G1 X83.315 Y73.940 E5.92780
G1 X82.924 Y74.244 E5.96266
G1 X82.478 Y74.471 E5.99786
G1 X81.998 Y74.611 E6.03307
G1 X81.500 Y74.658 E6.06827
G1 X81.002 Y74.611 E6.10347
G1 X80.522 Y74.471 E6.13868
G1 X80.147 Y74.280 E6.16826
G1 X79.779 Y74.400 F7800.000
G1 X62.344 Y68.056 F7800.000
G1 X61.344 Y68.056 E6.23864 F1200.000
G1 X61.344 Y64.944 E6.45771
G1 X62.344 Y64.944 E6.52808
G1 X62.344 Y62.344 E6.71106
G1 X90.656 Y62.344 E8.70364
G1 X90.656 Y75.156 E9.60537
G1 X82.861 Y75.156 E10.15396
G1 X82.802 Y74.909 E10.17185
G1 X83.213 Y74.700 E10.20433
G1 X83.678 Y74.339 E10.24575
G1 X83.962 Y74.037 E10.27491
G1 X84.204 Y73.704 E10.30388
G1 X84.473 Y73.177 E10.34549
G1 X84.641 Y72.599 E10.38787
G1 X84.697 Y72.000 E10.43022
G1 X84.641 Y71.401 E10.47257
G1 X84.473 Y70.823 E10.51492
G1 X84.206 Y70.299 E10.55634
G1 X83.962 Y69.963 E10.58552
G1 X83.678 Y69.661 E10.61469
G1 X83.213 Y69.300 E10.65611
G1 X82.677 Y69.027 E10.69846
G1 X82.099 Y68.859 E10.74084
G1 X81.510 Y68.804 E10.78244
G1 X81.099 Y68.830 E10.81141
G1 X80.692 Y68.908 E10.84058
G1 X80.139 Y69.107 E10.88200
G1 X79.621 Y69.413 E10.92435
G1 X79.169 Y69.811 E10.96670
G1 X78.800 Y70.287 E11.00906
G1 X78.527 Y70.823 E11.05141
G1 X78.359 Y71.401 E11.09377
G1 X78.303 Y72.000 E11.13612
G1 X78.359 Y72.599 E11.17847
G1 X78.527 Y73.177 E11.22083
G1 X78.800 Y73.713 E11.26318
G1 X79.161 Y74.178 E11.30460
G1 X79.463 Y74.462 E11.33378
G1 X79.799 Y74.706 E11.36294
G1 X80.349 Y74.986 E11.40644
G1 X80.304 Y75.224 E11.42347
G1 X79.374 Y75.357 E11.48956
G1 X78.679 Y75.512 E11.53971
G1 X77.994 Y75.711 E11.58989
G1 X77.313 Y75.957 E11.64086
G1 X76.670 Y76.236 E11.69018
G1 X76.035 Y76.559 E11.74033
G1 X75.422 Y76.922 E11.79048
G1 X74.832 Y77.322 E11.84063
G1 X74.269 Y77.759 E11.89079
G1 X73.734 Y78.231 E11.94094
G1 X73.231 Y78.734 E11.99110
G1 X72.759 Y79.269 E12.04125
G1 X72.322 Y79.832 E12.09142
G1 X71.929 Y80.412 E12.14072
G1 X71.559 Y81.035 E12.19168
G1 X71.236 Y81.670 E12.24187
G1 X70.953 Y82.324 E12.29203
G1 X70.711 Y82.995 E12.34218
G1 X70.512 Y83.679 E12.39234
G1 X70.357 Y84.374 E12.44249
G1 X70.245 Y85.078 E12.49264
G1 X70.178 Y85.788 E12.54280
G1 X70.156 Y86.500 E12.59295
G1 X70.178 Y87.212 E12.64311
G1 X70.245 Y87.922 E12.69326
G1 X70.357 Y88.626 E12.74342
G1 X70.512 Y89.321 E12.79357
G1 X70.711 Y90.005 E12.84372
G1 X70.953 Y90.676 E12.89388
G1 X71.236 Y91.330 E12.94404
G1 X71.559 Y91.965 E12.99419
G1 X71.922 Y92.578 E13.04435
G1 X72.322 Y93.168 E13.09449
G1 X72.759 Y93.731 E13.14466
G1 X73.231 Y94.266 E13.19481
G1 X73.726 Y94.761 E13.24412
G1 X74.269 Y95.240 E13.29508
G1 X74.832 Y95.678 E13.34528
G1 X75.422 Y96.078 E13.39542
G1 X76.035 Y96.441 E13.44558
G1 X76.670 Y96.764 E13.49573
G1 X77.324 Y97.047 E13.54589
G1 X77.995 Y97.289 E13.59604
G1 X78.679 Y97.488 E13.64620
G1 X79.374 Y97.643 E13.69635
G1 X80.312 Y97.777 E13.76299
G1 X80.344 Y98.033 E13.78117
G1 X80.139 Y98.107 E13.79654
G1 X79.621 Y98.413 E13.83889
G1 X79.169 Y98.811 E13.88124
G1 X78.800 Y99.287 E13.92360
G1 X78.527 Y99.823 E13.96595
G1 X78.359 Y100.401 E14.00831
G1 X78.303 Y101.000 E14.05066
G1 X78.359 Y101.599 E14.09301
G1 X78.527 Y102.177 E14.13537
G1 X78.800 Y102.714 E14.17774
G1 X79.163 Y103.180 E14.21935
G1 X79.463 Y103.462 E14.24832
G1 X79.799 Y103.706 E14.27748
G1 X80.323 Y103.973 E14.31891
G1 X80.901 Y104.141 E14.36126
G1 X81.500 Y104.197 E14.40361
G1 X82.099 Y104.141 E14.44596
G1 X82.677 Y103.973 E14.48832
G1 X83.213 Y103.700 E14.53067
G1 X83.678 Y103.339 E14.57209
G1 X83.962 Y103.037 E14.60127
G1 X84.206 Y102.701 E14.63044
G1 X84.473 Y102.177 E14.67186
G1 X84.641 Y101.599 E14.71422
G1 X84.697 Y101.000 E14.75656
G1 X84.641 Y100.401 E14.79891
G1 X84.473 Y99.823 E14.84127
G1 X84.206 Y99.299 E14.88269
G1 X83.962 Y98.963 E14.91186
G1 X83.678 Y98.661 E14.94103
G1 X83.213 Y98.300 E14.98245
G1 X82.802 Y98.091 E15.01493
G1 X82.861 Y97.844 E15.03282
G1 X90.656 Y97.844 E15.58141
G1 X90.656 Y110.656 E16.48314
G1 X62.344 Y110.656 E18.47572
G1 X62.344 Y108.056 E18.65870
G1 X61.344 Y108.056 E18.72908
G1 X61.344 Y104.944 E18.94814
G1 X62.344 Y104.944 E19.01852
G1 X62.344 Y88.056 E20.20700
G1 X61.344 Y88.056 E20.27738
G1 X61.344 Y84.944 E20.49645
G1 X62.344 Y84.944 E20.56682
G1 X62.344 Y68.131 E21.75003
G1 X62.881 Y67.519 F7800.000
G1 X61.881 Y67.519 E21.82041 F1200.000
G1 X61.881 Y65.481 E21.96383
G1 X62.881 Y65.481 E22.03421
G1 X62.881 Y62.881 E22.21719
G1 X90.119 Y62.881 E24.13413
G1 X90.119 Y74.619 E24.96021
G1 X84.203 Y74.619 E25.37656
G1 X84.663 Y73.986 E25.43166
G1 X84.975 Y73.376 E25.47983
G1 X85.171 Y72.700 E25.52938
G1 X85.237 Y72.000 E25.57887
G1 X85.171 Y71.300 E25.62837
G1 X84.975 Y70.624 E25.67788
G1 X84.665 Y70.017 E25.72585
